(Block-name: Header)
(Block-expand: 0)
(Block-enable: 1)
(Exported by FreeCAD)
(Post Processor: PathScripts.post.grbl_post)
(Output Time:2019-01-27 12:10:19.447004)
(begin preamble)
G17 G90
G21
(begin operation: Job)
(Path: Job)
(Profile_Faces)
(Compensated Tool Path. Diameter: 2.99)
G0 Z5.0000
(Block-name: block)
(Block-expand: 0)
(Block-enable: 1)
G0 X-64.4950 Y-10.4950
G0 Z3.0000
G1 X-64.4950 Y-10.4950 Z-1.0000 F3600.00
G1 X-64.5050 Y-10.4950 Z-1.0000 F3600.00
G1 X-64.9429 Y-10.0571 Z-1.0000 F3600.00
G1 X-64.5050 Y-10.4950 Z-1.0000 F3600.00
G1 X-64.5050 Y-13.5050 Z-1.0000 F3600.00
G1 X-64.5050 Y-13.5050 Z-1.0000 F3600.00
G1 X-64.9429 Y-13.9429 Z-1.0000 F3600.00
G1 X-64.5050 Y-13.5050 Z-1.0000 F3600.00
G1 X-64.4950 Y-13.5050 Z-1.0000 F3600.00
G1 X-64.4950 Y-13.5050 Z-1.0000 F3600.00
G1 X-64.0571 Y-13.9429 Z-1.0000 F3600.00
G1 X-64.4950 Y-13.5050 Z-1.0000 F3600.00
G1 X-64.4950 Y-10.4950 Z-1.0000 F3600.00
G1 X-64.4950 Y-10.4950 Z-1.0000 F3600.00
G1 X-64.0571 Y-10.0571 Z-1.0000 F3600.00
G1 X-64.4950 Y-10.4950 Z-1.0000 F3600.00
G1 X-64.4950 Y-10.4950 Z-2.0000 F3600.00
G1 X-64.5050 Y-10.4950 Z-2.0000 F3600.00
G1 X-64.9429 Y-10.0571 Z-2.0000 F3600.00
G1 X-64.5050 Y-10.4950 Z-2.0000 F3600.00
G1 X-64.5050 Y-13.5050 Z-2.0000 F3600.00
G1 X-64.5050 Y-13.5050 Z-2.0000 F3600.00
G1 X-64.9429 Y-13.9429 Z-2.0000 F3600.00
G1 X-64.5050 Y-13.5050 Z-2.0000 F3600.00
G1 X-64.4950 Y-13.5050 Z-2.0000 F3600.00
G1 X-64.4950 Y-13.5050 Z-2.0000 F3600.00
G1 X-64.0571 Y-13.9429 Z-2.0000 F3600.00
G1 X-64.4950 Y-13.5050 Z-2.0000 F3600.00
G1 X-64.4950 Y-10.4950 Z-2.0000 F3600.00
G1 X-64.4950 Y-10.4950 Z-2.0000 F3600.00
G1 X-64.0571 Y-10.0571 Z-2.0000 F3600.00
G1 X-64.4950 Y-10.4950 Z-2.0000 F3600.00
G1 X-64.4950 Y-10.4950 Z-3.0000 F3600.00
G1 X-64.5050 Y-10.4950 Z-3.0000 F3600.00
G1 X-64.9429 Y-10.0571 Z-3.0000 F3600.00
G1 X-64.5050 Y-10.4950 Z-3.0000 F3600.00
G1 X-64.5050 Y-13.5050 Z-3.0000 F3600.00
G1 X-64.5050 Y-13.5050 Z-3.0000 F3600.00
G1 X-64.9429 Y-13.9429 Z-3.0000 F3600.00
G1 X-64.5050 Y-13.5050 Z-3.0000 F3600.00
G1 X-64.4950 Y-13.5050 Z-3.0000 F3600.00
G1 X-64.4950 Y-13.5050 Z-3.0000 F3600.00
G1 X-64.0571 Y-13.9429 Z-3.0000 F3600.00
G1 X-64.4950 Y-13.5050 Z-3.0000 F3600.00
G1 X-64.4950 Y-10.4950 Z-3.0000 F3600.00
G1 X-64.4950 Y-10.4950 Z-3.0000 F3600.00
G1 X-64.0571 Y-10.0571 Z-3.0000 F3600.00
G1 X-64.4950 Y-10.4950 Z-3.0000 F3600.00
G1 X-64.4950 Y-10.4950 Z-4.0000 F3600.00
G1 X-64.5050 Y-10.4950 Z-4.0000 F3600.00
G1 X-64.9429 Y-10.0571 Z-4.0000 F3600.00
G1 X-64.5050 Y-10.4950 Z-4.0000 F3600.00
G1 X-64.5050 Y-13.5050 Z-4.0000 F3600.00
G1 X-64.5050 Y-13.5050 Z-4.0000 F3600.00
G1 X-64.9429 Y-13.9429 Z-4.0000 F3600.00
G1 X-64.5050 Y-13.5050 Z-4.0000 F3600.00
G1 X-64.4950 Y-13.5050 Z-4.0000 F3600.00
G1 X-64.4950 Y-13.5050 Z-4.0000 F3600.00
G1 X-64.0571 Y-13.9429 Z-4.0000 F3600.00
G1 X-64.4950 Y-13.5050 Z-4.0000 F3600.00
G1 X-64.4950 Y-10.4950 Z-4.0000 F3600.00
G1 X-64.4950 Y-10.4950 Z-4.0000 F3600.00
G1 X-64.0571 Y-10.0571 Z-4.0000 F3600.00
G1 X-64.4950 Y-10.4950 Z-4.0000 F3600.00
G1 X-64.4950 Y-10.4950 Z-4.5000 F3600.00
G1 X-64.5050 Y-10.4950 Z-4.5000 F3600.00
G1 X-64.9429 Y-10.0571 Z-4.5000 F3600.00
G1 X-64.5050 Y-10.4950 Z-4.5000 F3600.00
G1 X-64.5050 Y-13.5050 Z-4.5000 F3600.00
G1 X-64.5050 Y-13.5050 Z-4.5000 F3600.00
G1 X-64.9429 Y-13.9429 Z-4.5000 F3600.00
G1 X-64.5050 Y-13.5050 Z-4.5000 F3600.00
G1 X-64.4950 Y-13.5050 Z-4.5000 F3600.00
G1 X-64.4950 Y-13.5050 Z-4.5000 F3600.00
G1 X-64.0571 Y-13.9429 Z-4.5000 F3600.00
G1 X-64.4950 Y-13.5050 Z-4.5000 F3600.00
G1 X-64.4950 Y-10.4950 Z-4.5000 F3600.00
G1 X-64.4950 Y-10.4950 Z-4.5000 F3600.00
G1 X-64.0571 Y-10.0571 Z-4.5000 F3600.00
G1 X-64.4950 Y-10.4950 Z-4.5000 F3600.00
G0 Z5.0000
(Block-name: block)
(Block-expand: 0)
(Block-enable: 1)
G0 X-64.4950 Y1.5050
G0 Z3.0000
G1 X-64.4950 Y1.5050 Z-1.0000 F3600.00
G1 X-64.5050 Y1.5050 Z-1.0000 F3600.00
G1 X-64.9429 Y1.9429 Z-1.0000 F3600.00
G1 X-64.5050 Y1.5050 Z-1.0000 F3600.00
G1 X-64.5050 Y-1.5050 Z-1.0000 F3600.00
G1 X-64.5050 Y-1.5050 Z-1.0000 F3600.00
G1 X-64.9429 Y-1.9429 Z-1.0000 F3600.00
G1 X-64.5050 Y-1.5050 Z-1.0000 F3600.00
G1 X-64.4950 Y-1.5050 Z-1.0000 F3600.00
G1 X-64.4950 Y-1.5050 Z-1.0000 F3600.00
G1 X-64.0571 Y-1.9429 Z-1.0000 F3600.00
G1 X-64.4950 Y-1.5050 Z-1.0000 F3600.00
G1 X-64.4950 Y1.5050 Z-1.0000 F3600.00
G1 X-64.4950 Y1.5050 Z-1.0000 F3600.00
G1 X-64.0571 Y1.9429 Z-1.0000 F3600.00
G1 X-64.4950 Y1.5050 Z-1.0000 F3600.00
G1 X-64.4950 Y1.5050 Z-2.0000 F3600.00
G1 X-64.5050 Y1.5050 Z-2.0000 F3600.00
G1 X-64.9429 Y1.9429 Z-2.0000 F3600.00
G1 X-64.5050 Y1.5050 Z-2.0000 F3600.00
G1 X-64.5050 Y-1.5050 Z-2.0000 F3600.00
G1 X-64.5050 Y-1.5050 Z-2.0000 F3600.00
G1 X-64.9429 Y-1.9429 Z-2.0000 F3600.00
G1 X-64.5050 Y-1.5050 Z-2.0000 F3600.00
G1 X-64.4950 Y-1.5050 Z-2.0000 F3600.00
G1 X-64.4950 Y-1.5050 Z-2.0000 F3600.00
G1 X-64.0571 Y-1.9429 Z-2.0000 F3600.00
G1 X-64.4950 Y-1.5050 Z-2.0000 F3600.00
G1 X-64.4950 Y1.5050 Z-2.0000 F3600.00
G1 X-64.4950 Y1.5050 Z-2.0000 F3600.00
G1 X-64.0571 Y1.9429 Z-2.0000 F3600.00
G1 X-64.4950 Y1.5050 Z-2.0000 F3600.00
G1 X-64.4950 Y1.5050 Z-3.0000 F3600.00
G1 X-64.5050 Y1.5050 Z-3.0000 F3600.00
G1 X-64.9429 Y1.9429 Z-3.0000 F3600.00
G1 X-64.5050 Y1.5050 Z-3.0000 F3600.00
G1 X-64.5050 Y-1.5050 Z-3.0000 F3600.00
G1 X-64.5050 Y-1.5050 Z-3.0000 F3600.00
G1 X-64.9429 Y-1.9429 Z-3.0000 F3600.00
G1 X-64.5050 Y-1.5050 Z-3.0000 F3600.00
G1 X-64.4950 Y-1.5050 Z-3.0000 F3600.00
G1 X-64.4950 Y-1.5050 Z-3.0000 F3600.00
G1 X-64.0571 Y-1.9429 Z-3.0000 F3600.00
G1 X-64.4950 Y-1.5050 Z-3.0000 F3600.00
G1 X-64.4950 Y1.5050 Z-3.0000 F3600.00
G1 X-64.4950 Y1.5050 Z-3.0000 F3600.00
G1 X-64.0571 Y1.9429 Z-3.0000 F3600.00
G1 X-64.4950 Y1.5050 Z-3.0000 F3600.00
G1 X-64.4950 Y1.5050 Z-4.0000 F3600.00
G1 X-64.5050 Y1.5050 Z-4.0000 F3600.00
G1 X-64.9429 Y1.9429 Z-4.0000 F3600.00
G1 X-64.5050 Y1.5050 Z-4.0000 F3600.00
G1 X-64.5050 Y-1.5050 Z-4.0000 F3600.00
G1 X-64.5050 Y-1.5050 Z-4.0000 F3600.00
G1 X-64.9429 Y-1.9429 Z-4.0000 F3600.00
G1 X-64.5050 Y-1.5050 Z-4.0000 F3600.00
G1 X-64.4950 Y-1.5050 Z-4.0000 F3600.00
G1 X-64.4950 Y-1.5050 Z-4.0000 F3600.00
G1 X-64.0571 Y-1.9429 Z-4.0000 F3600.00
G1 X-64.4950 Y-1.5050 Z-4.0000 F3600.00
G1 X-64.4950 Y1.5050 Z-4.0000 F3600.00
G1 X-64.4950 Y1.5050 Z-4.0000 F3600.00
G1 X-64.0571 Y1.9429 Z-4.0000 F3600.00
G1 X-64.4950 Y1.5050 Z-4.0000 F3600.00
G1 X-64.4950 Y1.5050 Z-4.5000 F3600.00
G1 X-64.5050 Y1.5050 Z-4.5000 F3600.00
G1 X-64.9429 Y1.9429 Z-4.5000 F3600.00
G1 X-64.5050 Y1.5050 Z-4.5000 F3600.00
G1 X-64.5050 Y-1.5050 Z-4.5000 F3600.00
G1 X-64.5050 Y-1.5050 Z-4.5000 F3600.00
G1 X-64.9429 Y-1.9429 Z-4.5000 F3600.00
G1 X-64.5050 Y-1.5050 Z-4.5000 F3600.00
G1 X-64.4950 Y-1.5050 Z-4.5000 F3600.00
G1 X-64.4950 Y-1.5050 Z-4.5000 F3600.00
G1 X-64.0571 Y-1.9429 Z-4.5000 F3600.00
G1 X-64.4950 Y-1.5050 Z-4.5000 F3600.00
G1 X-64.4950 Y1.5050 Z-4.5000 F3600.00
G1 X-64.4950 Y1.5050 Z-4.5000 F3600.00
G1 X-64.0571 Y1.9429 Z-4.5000 F3600.00
G1 X-64.4950 Y1.5050 Z-4.5000 F3600.00
G0 Z5.0000
(Block-name: block)
(Block-expand: 0)
(Block-enable: 1)
G0 X-64.4950 Y25.5050
G0 Z3.0000
G1 X-64.4950 Y25.5050 Z-1.0000 F3600.00
G1 X-64.5050 Y25.5050 Z-1.0000 F3600.00
G1 X-64.9429 Y25.9429 Z-1.0000 F3600.00
G1 X-64.5050 Y25.5050 Z-1.0000 F3600.00
G1 X-64.5050 Y22.4950 Z-1.0000 F3600.00
G1 X-64.5050 Y22.4950 Z-1.0000 F3600.00
G1 X-64.9429 Y22.0571 Z-1.0000 F3600.00
G1 X-64.5050 Y22.4950 Z-1.0000 F3600.00
G1 X-64.4950 Y22.4950 Z-1.0000 F3600.00
G1 X-64.4950 Y22.4950 Z-1.0000 F3600.00
G1 X-64.0571 Y22.0571 Z-1.0000 F3600.00
G1 X-64.4950 Y22.4950 Z-1.0000 F3600.00
G1 X-64.4950 Y25.5050 Z-1.0000 F3600.00
G1 X-64.4950 Y25.5050 Z-1.0000 F3600.00
G1 X-64.0571 Y25.9429 Z-1.0000 F3600.00
G1 X-64.4950 Y25.5050 Z-1.0000 F3600.00
G1 X-64.4950 Y25.5050 Z-2.0000 F3600.00
G1 X-64.5050 Y25.5050 Z-2.0000 F3600.00
G1 X-64.9429 Y25.9429 Z-2.0000 F3600.00
G1 X-64.5050 Y25.5050 Z-2.0000 F3600.00
G1 X-64.5050 Y22.4950 Z-2.0000 F3600.00
G1 X-64.5050 Y22.4950 Z-2.0000 F3600.00
G1 X-64.9429 Y22.0571 Z-2.0000 F3600.00
G1 X-64.5050 Y22.4950 Z-2.0000 F3600.00
G1 X-64.4950 Y22.4950 Z-2.0000 F3600.00
G1 X-64.4950 Y22.4950 Z-2.0000 F3600.00
G1 X-64.0571 Y22.0571 Z-2.0000 F3600.00
G1 X-64.4950 Y22.4950 Z-2.0000 F3600.00
G1 X-64.4950 Y25.5050 Z-2.0000 F3600.00
G1 X-64.4950 Y25.5050 Z-2.0000 F3600.00
G1 X-64.0571 Y25.9429 Z-2.0000 F3600.00
G1 X-64.4950 Y25.5050 Z-2.0000 F3600.00
G1 X-64.4950 Y25.5050 Z-3.0000 F3600.00
G1 X-64.5050 Y25.5050 Z-3.0000 F3600.00
G1 X-64.9429 Y25.9429 Z-3.0000 F3600.00
G1 X-64.5050 Y25.5050 Z-3.0000 F3600.00
G1 X-64.5050 Y22.4950 Z-3.0000 F3600.00
G1 X-64.5050 Y22.4950 Z-3.0000 F3600.00
G1 X-64.9429 Y22.0571 Z-3.0000 F3600.00
G1 X-64.5050 Y22.4950 Z-3.0000 F3600.00
G1 X-64.4950 Y22.4950 Z-3.0000 F3600.00
G1 X-64.4950 Y22.4950 Z-3.0000 F3600.00
G1 X-64.0571 Y22.0571 Z-3.0000 F3600.00
G1 X-64.4950 Y22.4950 Z-3.0000 F3600.00
G1 X-64.4950 Y25.5050 Z-3.0000 F3600.00
G1 X-64.4950 Y25.5050 Z-3.0000 F3600.00
G1 X-64.0571 Y25.9429 Z-3.0000 F3600.00
G1 X-64.4950 Y25.5050 Z-3.0000 F3600.00
G1 X-64.4950 Y25.5050 Z-4.0000 F3600.00
G1 X-64.5050 Y25.5050 Z-4.0000 F3600.00
G1 X-64.9429 Y25.9429 Z-4.0000 F3600.00
G1 X-64.5050 Y25.5050 Z-4.0000 F3600.00
G1 X-64.5050 Y22.4950 Z-4.0000 F3600.00
G1 X-64.5050 Y22.4950 Z-4.0000 F3600.00
G1 X-64.9429 Y22.0571 Z-4.0000 F3600.00
G1 X-64.5050 Y22.4950 Z-4.0000 F3600.00
G1 X-64.4950 Y22.4950 Z-4.0000 F3600.00
G1 X-64.4950 Y22.4950 Z-4.0000 F3600.00
G1 X-64.0571 Y22.0571 Z-4.0000 F3600.00
G1 X-64.4950 Y22.4950 Z-4.0000 F3600.00
G1 X-64.4950 Y25.5050 Z-4.0000 F3600.00
G1 X-64.4950 Y25.5050 Z-4.0000 F3600.00
G1 X-64.0571 Y25.9429 Z-4.0000 F3600.00
G1 X-64.4950 Y25.5050 Z-4.0000 F3600.00
G1 X-64.4950 Y25.5050 Z-4.5000 F3600.00
G1 X-64.5050 Y25.5050 Z-4.5000 F3600.00
G1 X-64.9429 Y25.9429 Z-4.5000 F3600.00
G1 X-64.5050 Y25.5050 Z-4.5000 F3600.00
G1 X-64.5050 Y22.4950 Z-4.5000 F3600.00
G1 X-64.5050 Y22.4950 Z-4.5000 F3600.00
G1 X-64.9429 Y22.0571 Z-4.5000 F3600.00
G1 X-64.5050 Y22.4950 Z-4.5000 F3600.00
G1 X-64.4950 Y22.4950 Z-4.5000 F3600.00
G1 X-64.4950 Y22.4950 Z-4.5000 F3600.00
G1 X-64.0571 Y22.0571 Z-4.5000 F3600.00
G1 X-64.4950 Y22.4950 Z-4.5000 F3600.00
G1 X-64.4950 Y25.5050 Z-4.5000 F3600.00
G1 X-64.4950 Y25.5050 Z-4.5000 F3600.00
G1 X-64.0571 Y25.9429 Z-4.5000 F3600.00
G1 X-64.4950 Y25.5050 Z-4.5000 F3600.00
G0 Z5.0000
(Block-name: block)
(Block-expand: 0)
(Block-enable: 1)
G0 X-64.4950 Y13.5050
G0 Z3.0000
G1 X-64.4950 Y13.5050 Z-1.0000 F3600.00
G1 X-64.5050 Y13.5050 Z-1.0000 F3600.00
G1 X-64.9429 Y13.9429 Z-1.0000 F3600.00
G1 X-64.5050 Y13.5050 Z-1.0000 F3600.00
G1 X-64.5050 Y10.4950 Z-1.0000 F3600.00
G1 X-64.5050 Y10.4950 Z-1.0000 F3600.00
G1 X-64.9429 Y10.0571 Z-1.0000 F3600.00
G1 X-64.5050 Y10.4950 Z-1.0000 F3600.00
G1 X-64.4950 Y10.4950 Z-1.0000 F3600.00
G1 X-64.4950 Y10.4950 Z-1.0000 F3600.00
G1 X-64.0571 Y10.0571 Z-1.0000 F3600.00
G1 X-64.4950 Y10.4950 Z-1.0000 F3600.00
G1 X-64.4950 Y13.5050 Z-1.0000 F3600.00
G1 X-64.4950 Y13.5050 Z-1.0000 F3600.00
G1 X-64.0571 Y13.9429 Z-1.0000 F3600.00
G1 X-64.4950 Y13.5050 Z-1.0000 F3600.00
G1 X-64.4950 Y13.5050 Z-2.0000 F3600.00
G1 X-64.5050 Y13.5050 Z-2.0000 F3600.00
G1 X-64.9429 Y13.9429 Z-2.0000 F3600.00
G1 X-64.5050 Y13.5050 Z-2.0000 F3600.00
G1 X-64.5050 Y10.4950 Z-2.0000 F3600.00
G1 X-64.5050 Y10.4950 Z-2.0000 F3600.00
G1 X-64.9429 Y10.0571 Z-2.0000 F3600.00
G1 X-64.5050 Y10.4950 Z-2.0000 F3600.00
G1 X-64.4950 Y10.4950 Z-2.0000 F3600.00
G1 X-64.4950 Y10.4950 Z-2.0000 F3600.00
G1 X-64.0571 Y10.0571 Z-2.0000 F3600.00
G1 X-64.4950 Y10.4950 Z-2.0000 F3600.00
G1 X-64.4950 Y13.5050 Z-2.0000 F3600.00
G1 X-64.4950 Y13.5050 Z-2.0000 F3600.00
G1 X-64.0571 Y13.9429 Z-2.0000 F3600.00
G1 X-64.4950 Y13.5050 Z-2.0000 F3600.00
G1 X-64.4950 Y13.5050 Z-3.0000 F3600.00
G1 X-64.5050 Y13.5050 Z-3.0000 F3600.00
G1 X-64.9429 Y13.9429 Z-3.0000 F3600.00
G1 X-64.5050 Y13.5050 Z-3.0000 F3600.00
G1 X-64.5050 Y10.4950 Z-3.0000 F3600.00
G1 X-64.5050 Y10.4950 Z-3.0000 F3600.00
G1 X-64.9429 Y10.0571 Z-3.0000 F3600.00
G1 X-64.5050 Y10.4950 Z-3.0000 F3600.00
G1 X-64.4950 Y10.4950 Z-3.0000 F3600.00
G1 X-64.4950 Y10.4950 Z-3.0000 F3600.00
G1 X-64.0571 Y10.0571 Z-3.0000 F3600.00
G1 X-64.4950 Y10.4950 Z-3.0000 F3600.00
G1 X-64.4950 Y13.5050 Z-3.0000 F3600.00
G1 X-64.4950 Y13.5050 Z-3.0000 F3600.00
G1 X-64.0571 Y13.9429 Z-3.0000 F3600.00
G1 X-64.4950 Y13.5050 Z-3.0000 F3600.00
G1 X-64.4950 Y13.5050 Z-4.0000 F3600.00
G1 X-64.5050 Y13.5050 Z-4.0000 F3600.00
G1 X-64.9429 Y13.9429 Z-4.0000 F3600.00
G1 X-64.5050 Y13.5050 Z-4.0000 F3600.00
G1 X-64.5050 Y10.4950 Z-4.0000 F3600.00
G1 X-64.5050 Y10.4950 Z-4.0000 F3600.00
G1 X-64.9429 Y10.0571 Z-4.0000 F3600.00
G1 X-64.5050 Y10.4950 Z-4.0000 F3600.00
G1 X-64.4950 Y10.4950 Z-4.0000 F3600.00
G1 X-64.4950 Y10.4950 Z-4.0000 F3600.00
G1 X-64.0571 Y10.0571 Z-4.0000 F3600.00
G1 X-64.4950 Y10.4950 Z-4.0000 F3600.00
G1 X-64.4950 Y13.5050 Z-4.0000 F3600.00
G1 X-64.4950 Y13.5050 Z-4.0000 F3600.00
G1 X-64.0571 Y13.9429 Z-4.0000 F3600.00
G1 X-64.4950 Y13.5050 Z-4.0000 F3600.00
G1 X-64.4950 Y13.5050 Z-4.5000 F3600.00
G1 X-64.5050 Y13.5050 Z-4.5000 F3600.00
G1 X-64.9429 Y13.9429 Z-4.5000 F3600.00
G1 X-64.5050 Y13.5050 Z-4.5000 F3600.00
G1 X-64.5050 Y10.4950 Z-4.5000 F3600.00
G1 X-64.5050 Y10.4950 Z-4.5000 F3600.00
G1 X-64.9429 Y10.0571 Z-4.5000 F3600.00
G1 X-64.5050 Y10.4950 Z-4.5000 F3600.00
G1 X-64.4950 Y10.4950 Z-4.5000 F3600.00
G1 X-64.4950 Y10.4950 Z-4.5000 F3600.00
G1 X-64.0571 Y10.0571 Z-4.5000 F3600.00
G1 X-64.4950 Y10.4950 Z-4.5000 F3600.00
G1 X-64.4950 Y13.5050 Z-4.5000 F3600.00
G1 X-64.4950 Y13.5050 Z-4.5000 F3600.00
G1 X-64.0571 Y13.9429 Z-4.5000 F3600.00
G1 X-64.4950 Y13.5050 Z-4.5000 F3600.00
G0 Z5.0000
(Block-name: block)
(Block-expand: 0)
(Block-enable: 1)
G0 X-58.4950 Y64.5050
G0 Z3.0000
G1 X-58.4950 Y64.5050 Z-1.0000 F3600.00
G1 X-61.5050 Y64.5050 Z-1.0000 F3600.00
G1 X-61.9429 Y64.9429 Z-1.0000 F3600.00
G1 X-61.5050 Y64.5050 Z-1.0000 F3600.00
G1 X-61.5050 Y64.4950 Z-1.0000 F3600.00
G1 X-61.5050 Y64.4950 Z-1.0000 F3600.00
G1 X-61.9429 Y64.0571 Z-1.0000 F3600.00
G1 X-61.5050 Y64.4950 Z-1.0000 F3600.00
G1 X-58.4950 Y64.4950 Z-1.0000 F3600.00
G1 X-58.4950 Y64.4950 Z-1.0000 F3600.00
G1 X-58.0571 Y64.0571 Z-1.0000 F3600.00
G1 X-58.4950 Y64.4950 Z-1.0000 F3600.00
G1 X-58.4950 Y64.5050 Z-1.0000 F3600.00
G1 X-58.4950 Y64.5050 Z-1.0000 F3600.00
G1 X-58.0571 Y64.9429 Z-1.0000 F3600.00
G1 X-58.4950 Y64.5050 Z-1.0000 F3600.00
G1 X-58.4950 Y64.5050 Z-2.0000 F3600.00
G1 X-61.5050 Y64.5050 Z-2.0000 F3600.00
G1 X-61.9429 Y64.9429 Z-2.0000 F3600.00
G1 X-61.5050 Y64.5050 Z-2.0000 F3600.00
G1 X-61.5050 Y64.4950 Z-2.0000 F3600.00
G1 X-61.5050 Y64.4950 Z-2.0000 F3600.00
G1 X-61.9429 Y64.0571 Z-2.0000 F3600.00
G1 X-61.5050 Y64.4950 Z-2.0000 F3600.00
G1 X-58.4950 Y64.4950 Z-2.0000 F3600.00
G1 X-58.4950 Y64.4950 Z-2.0000 F3600.00
G1 X-58.0571 Y64.0571 Z-2.0000 F3600.00
G1 X-58.4950 Y64.4950 Z-2.0000 F3600.00
G1 X-58.4950 Y64.5050 Z-2.0000 F3600.00
G1 X-58.4950 Y64.5050 Z-2.0000 F3600.00
G1 X-58.0571 Y64.9429 Z-2.0000 F3600.00
G1 X-58.4950 Y64.5050 Z-2.0000 F3600.00
G1 X-58.4950 Y64.5050 Z-3.0000 F3600.00
G1 X-61.5050 Y64.5050 Z-3.0000 F3600.00
G1 X-61.9429 Y64.9429 Z-3.0000 F3600.00
G1 X-61.5050 Y64.5050 Z-3.0000 F3600.00
G1 X-61.5050 Y64.4950 Z-3.0000 F3600.00
G1 X-61.5050 Y64.4950 Z-3.0000 F3600.00
G1 X-61.9429 Y64.0571 Z-3.0000 F3600.00
G1 X-61.5050 Y64.4950 Z-3.0000 F3600.00
G1 X-58.4950 Y64.4950 Z-3.0000 F3600.00
G1 X-58.4950 Y64.4950 Z-3.0000 F3600.00
G1 X-58.0571 Y64.0571 Z-3.0000 F3600.00
G1 X-58.4950 Y64.4950 Z-3.0000 F3600.00
G1 X-58.4950 Y64.5050 Z-3.0000 F3600.00
G1 X-58.4950 Y64.5050 Z-3.0000 F3600.00
G1 X-58.0571 Y64.9429 Z-3.0000 F3600.00
G1 X-58.4950 Y64.5050 Z-3.0000 F3600.00
G1 X-58.4950 Y64.5050 Z-4.0000 F3600.00
G1 X-61.5050 Y64.5050 Z-4.0000 F3600.00
G1 X-61.9429 Y64.9429 Z-4.0000 F3600.00
G1 X-61.5050 Y64.5050 Z-4.0000 F3600.00
G1 X-61.5050 Y64.4950 Z-4.0000 F3600.00
G1 X-61.5050 Y64.4950 Z-4.0000 F3600.00
G1 X-61.9429 Y64.0571 Z-4.0000 F3600.00
G1 X-61.5050 Y64.4950 Z-4.0000 F3600.00
G1 X-58.4950 Y64.4950 Z-4.0000 F3600.00
G1 X-58.4950 Y64.4950 Z-4.0000 F3600.00
G1 X-58.0571 Y64.0571 Z-4.0000 F3600.00
G1 X-58.4950 Y64.4950 Z-4.0000 F3600.00
G1 X-58.4950 Y64.5050 Z-4.0000 F3600.00
G1 X-58.4950 Y64.5050 Z-4.0000 F3600.00
G1 X-58.0571 Y64.9429 Z-4.0000 F3600.00
G1 X-58.4950 Y64.5050 Z-4.0000 F3600.00
G1 X-58.4950 Y64.5050 Z-4.5000 F3600.00
G1 X-61.5050 Y64.5050 Z-4.5000 F3600.00
G1 X-61.9429 Y64.9429 Z-4.5000 F3600.00
G1 X-61.5050 Y64.5050 Z-4.5000 F3600.00
G1 X-61.5050 Y64.4950 Z-4.5000 F3600.00
G1 X-61.5050 Y64.4950 Z-4.5000 F3600.00
G1 X-61.9429 Y64.0571 Z-4.5000 F3600.00
G1 X-61.5050 Y64.4950 Z-4.5000 F3600.00
G1 X-58.4950 Y64.4950 Z-4.5000 F3600.00
G1 X-58.4950 Y64.4950 Z-4.5000 F3600.00
G1 X-58.0571 Y64.0571 Z-4.5000 F3600.00
G1 X-58.4950 Y64.4950 Z-4.5000 F3600.00
G1 X-58.4950 Y64.5050 Z-4.5000 F3600.00
G1 X-58.4950 Y64.5050 Z-4.5000 F3600.00
G1 X-58.0571 Y64.9429 Z-4.5000 F3600.00
G1 X-58.4950 Y64.5050 Z-4.5000 F3600.00
G0 Z5.0000
(Block-name: block)
(Block-expand: 0)
(Block-enable: 1)
G0 X-64.4950 Y61.5050
G0 Z3.0000
G1 X-64.4950 Y61.5050 Z-1.0000 F3600.00
G1 X-64.5050 Y61.5050 Z-1.0000 F3600.00
G1 X-64.9429 Y61.9429 Z-1.0000 F3600.00
G1 X-64.5050 Y61.5050 Z-1.0000 F3600.00
G1 X-64.5050 Y58.4950 Z-1.0000 F3600.00
G1 X-64.5050 Y58.4950 Z-1.0000 F3600.00
G1 X-64.9429 Y58.0571 Z-1.0000 F3600.00
G1 X-64.5050 Y58.4950 Z-1.0000 F3600.00
G1 X-64.4950 Y58.4950 Z-1.0000 F3600.00
G1 X-64.4950 Y58.4950 Z-1.0000 F3600.00
G1 X-64.0571 Y58.0571 Z-1.0000 F3600.00
G1 X-64.4950 Y58.4950 Z-1.0000 F3600.00
G1 X-64.4950 Y61.5050 Z-1.0000 F3600.00
G1 X-64.4950 Y61.5050 Z-1.0000 F3600.00
G1 X-64.0571 Y61.9429 Z-1.0000 F3600.00
G1 X-64.4950 Y61.5050 Z-1.0000 F3600.00
G1 X-64.4950 Y61.5050 Z-2.0000 F3600.00
G1 X-64.5050 Y61.5050 Z-2.0000 F3600.00
G1 X-64.9429 Y61.9429 Z-2.0000 F3600.00
G1 X-64.5050 Y61.5050 Z-2.0000 F3600.00
G1 X-64.5050 Y58.4950 Z-2.0000 F3600.00
G1 X-64.5050 Y58.4950 Z-2.0000 F3600.00
G1 X-64.9429 Y58.0571 Z-2.0000 F3600.00
G1 X-64.5050 Y58.4950 Z-2.0000 F3600.00
G1 X-64.4950 Y58.4950 Z-2.0000 F3600.00
G1 X-64.4950 Y58.4950 Z-2.0000 F3600.00
G1 X-64.0571 Y58.0571 Z-2.0000 F3600.00
G1 X-64.4950 Y58.4950 Z-2.0000 F3600.00
G1 X-64.4950 Y61.5050 Z-2.0000 F3600.00
G1 X-64.4950 Y61.5050 Z-2.0000 F3600.00
G1 X-64.0571 Y61.9429 Z-2.0000 F3600.00
G1 X-64.4950 Y61.5050 Z-2.0000 F3600.00
G1 X-64.4950 Y61.5050 Z-3.0000 F3600.00
G1 X-64.5050 Y61.5050 Z-3.0000 F3600.00
G1 X-64.9429 Y61.9429 Z-3.0000 F3600.00
G1 X-64.5050 Y61.5050 Z-3.0000 F3600.00
G1 X-64.5050 Y58.4950 Z-3.0000 F3600.00
G1 X-64.5050 Y58.4950 Z-3.0000 F3600.00
G1 X-64.9429 Y58.0571 Z-3.0000 F3600.00
G1 X-64.5050 Y58.4950 Z-3.0000 F3600.00
G1 X-64.4950 Y58.4950 Z-3.0000 F3600.00
G1 X-64.4950 Y58.4950 Z-3.0000 F3600.00
G1 X-64.0571 Y58.0571 Z-3.0000 F3600.00
G1 X-64.4950 Y58.4950 Z-3.0000 F3600.00
G1 X-64.4950 Y61.5050 Z-3.0000 F3600.00
G1 X-64.4950 Y61.5050 Z-3.0000 F3600.00
G1 X-64.0571 Y61.9429 Z-3.0000 F3600.00
G1 X-64.4950 Y61.5050 Z-3.0000 F3600.00
G1 X-64.4950 Y61.5050 Z-4.0000 F3600.00
G1 X-64.5050 Y61.5050 Z-4.0000 F3600.00
G1 X-64.9429 Y61.9429 Z-4.0000 F3600.00
G1 X-64.5050 Y61.5050 Z-4.0000 F3600.00
G1 X-64.5050 Y58.4950 Z-4.0000 F3600.00
G1 X-64.5050 Y58.4950 Z-4.0000 F3600.00
G1 X-64.9429 Y58.0571 Z-4.0000 F3600.00
G1 X-64.5050 Y58.4950 Z-4.0000 F3600.00
G1 X-64.4950 Y58.4950 Z-4.0000 F3600.00
G1 X-64.4950 Y58.4950 Z-4.0000 F3600.00
G1 X-64.0571 Y58.0571 Z-4.0000 F3600.00
G1 X-64.4950 Y58.4950 Z-4.0000 F3600.00
G1 X-64.4950 Y61.5050 Z-4.0000 F3600.00
G1 X-64.4950 Y61.5050 Z-4.0000 F3600.00
G1 X-64.0571 Y61.9429 Z-4.0000 F3600.00
G1 X-64.4950 Y61.5050 Z-4.0000 F3600.00
G1 X-64.4950 Y61.5050 Z-4.5000 F3600.00
G1 X-64.5050 Y61.5050 Z-4.5000 F3600.00
G1 X-64.9429 Y61.9429 Z-4.5000 F3600.00
G1 X-64.5050 Y61.5050 Z-4.5000 F3600.00
G1 X-64.5050 Y58.4950 Z-4.5000 F3600.00
G1 X-64.5050 Y58.4950 Z-4.5000 F3600.00
G1 X-64.9429 Y58.0571 Z-4.5000 F3600.00
G1 X-64.5050 Y58.4950 Z-4.5000 F3600.00
G1 X-64.4950 Y58.4950 Z-4.5000 F3600.00
G1 X-64.4950 Y58.4950 Z-4.5000 F3600.00
G1 X-64.0571 Y58.0571 Z-4.5000 F3600.00
G1 X-64.4950 Y58.4950 Z-4.5000 F3600.00
G1 X-64.4950 Y61.5050 Z-4.5000 F3600.00
G1 X-64.4950 Y61.5050 Z-4.5000 F3600.00
G1 X-64.0571 Y61.9429 Z-4.5000 F3600.00
G1 X-64.4950 Y61.5050 Z-4.5000 F3600.00
G0 Z5.0000
(Block-name: block)
(Block-expand: 0)
(Block-enable: 1)
G0 X-64.4950 Y37.5050
G0 Z3.0000
G1 X-64.4950 Y37.5050 Z-1.0000 F3600.00
G1 X-64.5050 Y37.5050 Z-1.0000 F3600.00
G1 X-64.9429 Y37.9429 Z-1.0000 F3600.00
G1 X-64.5050 Y37.5050 Z-1.0000 F3600.00
G1 X-64.5050 Y34.4950 Z-1.0000 F3600.00
G1 X-64.5050 Y34.4950 Z-1.0000 F3600.00
G1 X-64.9429 Y34.0571 Z-1.0000 F3600.00
G1 X-64.5050 Y34.4950 Z-1.0000 F3600.00
G1 X-64.4950 Y34.4950 Z-1.0000 F3600.00
G1 X-64.4950 Y34.4950 Z-1.0000 F3600.00
G1 X-64.0571 Y34.0571 Z-1.0000 F3600.00
G1 X-64.4950 Y34.4950 Z-1.0000 F3600.00
G1 X-64.4950 Y37.5050 Z-1.0000 F3600.00
G1 X-64.4950 Y37.5050 Z-1.0000 F3600.00
G1 X-64.0571 Y37.9429 Z-1.0000 F3600.00
G1 X-64.4950 Y37.5050 Z-1.0000 F3600.00
G1 X-64.4950 Y37.5050 Z-2.0000 F3600.00
G1 X-64.5050 Y37.5050 Z-2.0000 F3600.00
G1 X-64.9429 Y37.9429 Z-2.0000 F3600.00
G1 X-64.5050 Y37.5050 Z-2.0000 F3600.00
G1 X-64.5050 Y34.4950 Z-2.0000 F3600.00
G1 X-64.5050 Y34.4950 Z-2.0000 F3600.00
G1 X-64.9429 Y34.0571 Z-2.0000 F3600.00
G1 X-64.5050 Y34.4950 Z-2.0000 F3600.00
G1 X-64.4950 Y34.4950 Z-2.0000 F3600.00
G1 X-64.4950 Y34.4950 Z-2.0000 F3600.00
G1 X-64.0571 Y34.0571 Z-2.0000 F3600.00
G1 X-64.4950 Y34.4950 Z-2.0000 F3600.00
G1 X-64.4950 Y37.5050 Z-2.0000 F3600.00
G1 X-64.4950 Y37.5050 Z-2.0000 F3600.00
G1 X-64.0571 Y37.9429 Z-2.0000 F3600.00
G1 X-64.4950 Y37.5050 Z-2.0000 F3600.00
G1 X-64.4950 Y37.5050 Z-3.0000 F3600.00
G1 X-64.5050 Y37.5050 Z-3.0000 F3600.00
G1 X-64.9429 Y37.9429 Z-3.0000 F3600.00
G1 X-64.5050 Y37.5050 Z-3.0000 F3600.00
G1 X-64.5050 Y34.4950 Z-3.0000 F3600.00
G1 X-64.5050 Y34.4950 Z-3.0000 F3600.00
G1 X-64.9429 Y34.0571 Z-3.0000 F3600.00
G1 X-64.5050 Y34.4950 Z-3.0000 F3600.00
G1 X-64.4950 Y34.4950 Z-3.0000 F3600.00
G1 X-64.4950 Y34.4950 Z-3.0000 F3600.00
G1 X-64.0571 Y34.0571 Z-3.0000 F3600.00
G1 X-64.4950 Y34.4950 Z-3.0000 F3600.00
G1 X-64.4950 Y37.5050 Z-3.0000 F3600.00
G1 X-64.4950 Y37.5050 Z-3.0000 F3600.00
G1 X-64.0571 Y37.9429 Z-3.0000 F3600.00
G1 X-64.4950 Y37.5050 Z-3.0000 F3600.00
G1 X-64.4950 Y37.5050 Z-4.0000 F3600.00
G1 X-64.5050 Y37.5050 Z-4.0000 F3600.00
G1 X-64.9429 Y37.9429 Z-4.0000 F3600.00
G1 X-64.5050 Y37.5050 Z-4.0000 F3600.00
G1 X-64.5050 Y34.4950 Z-4.0000 F3600.00
G1 X-64.5050 Y34.4950 Z-4.0000 F3600.00
G1 X-64.9429 Y34.0571 Z-4.0000 F3600.00
G1 X-64.5050 Y34.4950 Z-4.0000 F3600.00
G1 X-64.4950 Y34.4950 Z-4.0000 F3600.00
G1 X-64.4950 Y34.4950 Z-4.0000 F3600.00
G1 X-64.0571 Y34.0571 Z-4.0000 F3600.00
G1 X-64.4950 Y34.4950 Z-4.0000 F3600.00
G1 X-64.4950 Y37.5050 Z-4.0000 F3600.00
G1 X-64.4950 Y37.5050 Z-4.0000 F3600.00
G1 X-64.0571 Y37.9429 Z-4.0000 F3600.00
G1 X-64.4950 Y37.5050 Z-4.0000 F3600.00
G1 X-64.4950 Y37.5050 Z-4.5000 F3600.00
G1 X-64.5050 Y37.5050 Z-4.5000 F3600.00
G1 X-64.9429 Y37.9429 Z-4.5000 F3600.00
G1 X-64.5050 Y37.5050 Z-4.5000 F3600.00
G1 X-64.5050 Y34.4950 Z-4.5000 F3600.00
G1 X-64.5050 Y34.4950 Z-4.5000 F3600.00
G1 X-64.9429 Y34.0571 Z-4.5000 F3600.00
G1 X-64.5050 Y34.4950 Z-4.5000 F3600.00
G1 X-64.4950 Y34.4950 Z-4.5000 F3600.00
G1 X-64.4950 Y34.4950 Z-4.5000 F3600.00
G1 X-64.0571 Y34.0571 Z-4.5000 F3600.00
G1 X-64.4950 Y34.4950 Z-4.5000 F3600.00
G1 X-64.4950 Y37.5050 Z-4.5000 F3600.00
G1 X-64.4950 Y37.5050 Z-4.5000 F3600.00
G1 X-64.0571 Y37.9429 Z-4.5000 F3600.00
G1 X-64.4950 Y37.5050 Z-4.5000 F3600.00
G0 Z5.0000
(Block-name: block)
(Block-expand: 0)
(Block-enable: 1)
G0 X-64.4950 Y49.5050
G0 Z3.0000
G1 X-64.4950 Y49.5050 Z-1.0000 F3600.00
G1 X-64.5050 Y49.5050 Z-1.0000 F3600.00
G1 X-64.9429 Y49.9429 Z-1.0000 F3600.00
G1 X-64.5050 Y49.5050 Z-1.0000 F3600.00
G1 X-64.5050 Y46.4950 Z-1.0000 F3600.00
G1 X-64.5050 Y46.4950 Z-1.0000 F3600.00
G1 X-64.9429 Y46.0571 Z-1.0000 F3600.00
G1 X-64.5050 Y46.4950 Z-1.0000 F3600.00
G1 X-64.4950 Y46.4950 Z-1.0000 F3600.00
G1 X-64.4950 Y46.4950 Z-1.0000 F3600.00
G1 X-64.0571 Y46.0571 Z-1.0000 F3600.00
G1 X-64.4950 Y46.4950 Z-1.0000 F3600.00
G1 X-64.4950 Y49.5050 Z-1.0000 F3600.00
G1 X-64.4950 Y49.5050 Z-1.0000 F3600.00
G1 X-64.0571 Y49.9429 Z-1.0000 F3600.00
G1 X-64.4950 Y49.5050 Z-1.0000 F3600.00
G1 X-64.4950 Y49.5050 Z-2.0000 F3600.00
G1 X-64.5050 Y49.5050 Z-2.0000 F3600.00
G1 X-64.9429 Y49.9429 Z-2.0000 F3600.00
G1 X-64.5050 Y49.5050 Z-2.0000 F3600.00
G1 X-64.5050 Y46.4950 Z-2.0000 F3600.00
G1 X-64.5050 Y46.4950 Z-2.0000 F3600.00
G1 X-64.9429 Y46.0571 Z-2.0000 F3600.00
G1 X-64.5050 Y46.4950 Z-2.0000 F3600.00
G1 X-64.4950 Y46.4950 Z-2.0000 F3600.00
G1 X-64.4950 Y46.4950 Z-2.0000 F3600.00
G1 X-64.0571 Y46.0571 Z-2.0000 F3600.00
G1 X-64.4950 Y46.4950 Z-2.0000 F3600.00
G1 X-64.4950 Y49.5050 Z-2.0000 F3600.00
G1 X-64.4950 Y49.5050 Z-2.0000 F3600.00
G1 X-64.0571 Y49.9429 Z-2.0000 F3600.00
G1 X-64.4950 Y49.5050 Z-2.0000 F3600.00
G1 X-64.4950 Y49.5050 Z-3.0000 F3600.00
G1 X-64.5050 Y49.5050 Z-3.0000 F3600.00
G1 X-64.9429 Y49.9429 Z-3.0000 F3600.00
G1 X-64.5050 Y49.5050 Z-3.0000 F3600.00
G1 X-64.5050 Y46.4950 Z-3.0000 F3600.00
G1 X-64.5050 Y46.4950 Z-3.0000 F3600.00
G1 X-64.9429 Y46.0571 Z-3.0000 F3600.00
G1 X-64.5050 Y46.4950 Z-3.0000 F3600.00
G1 X-64.4950 Y46.4950 Z-3.0000 F3600.00
G1 X-64.4950 Y46.4950 Z-3.0000 F3600.00
G1 X-64.0571 Y46.0571 Z-3.0000 F3600.00
G1 X-64.4950 Y46.4950 Z-3.0000 F3600.00
G1 X-64.4950 Y49.5050 Z-3.0000 F3600.00
G1 X-64.4950 Y49.5050 Z-3.0000 F3600.00
G1 X-64.0571 Y49.9429 Z-3.0000 F3600.00
G1 X-64.4950 Y49.5050 Z-3.0000 F3600.00
G1 X-64.4950 Y49.5050 Z-4.0000 F3600.00
G1 X-64.5050 Y49.5050 Z-4.0000 F3600.00
G1 X-64.9429 Y49.9429 Z-4.0000 F3600.00
G1 X-64.5050 Y49.5050 Z-4.0000 F3600.00
G1 X-64.5050 Y46.4950 Z-4.0000 F3600.00
G1 X-64.5050 Y46.4950 Z-4.0000 F3600.00
G1 X-64.9429 Y46.0571 Z-4.0000 F3600.00
G1 X-64.5050 Y46.4950 Z-4.0000 F3600.00
G1 X-64.4950 Y46.4950 Z-4.0000 F3600.00
G1 X-64.4950 Y46.4950 Z-4.0000 F3600.00
G1 X-64.0571 Y46.0571 Z-4.0000 F3600.00
G1 X-64.4950 Y46.4950 Z-4.0000 F3600.00
G1 X-64.4950 Y49.5050 Z-4.0000 F3600.00
G1 X-64.4950 Y49.5050 Z-4.0000 F3600.00
G1 X-64.0571 Y49.9429 Z-4.0000 F3600.00
G1 X-64.4950 Y49.5050 Z-4.0000 F3600.00
G1 X-64.4950 Y49.5050 Z-4.5000 F3600.00
G1 X-64.5050 Y49.5050 Z-4.5000 F3600.00
G1 X-64.9429 Y49.9429 Z-4.5000 F3600.00
G1 X-64.5050 Y49.5050 Z-4.5000 F3600.00
G1 X-64.5050 Y46.4950 Z-4.5000 F3600.00
G1 X-64.5050 Y46.4950 Z-4.5000 F3600.00
G1 X-64.9429 Y46.0571 Z-4.5000 F3600.00
G1 X-64.5050 Y46.4950 Z-4.5000 F3600.00
G1 X-64.4950 Y46.4950 Z-4.5000 F3600.00
G1 X-64.4950 Y46.4950 Z-4.5000 F3600.00
G1 X-64.0571 Y46.0571 Z-4.5000 F3600.00
G1 X-64.4950 Y46.4950 Z-4.5000 F3600.00
G1 X-64.4950 Y49.5050 Z-4.5000 F3600.00
G1 X-64.4950 Y49.5050 Z-4.5000 F3600.00
G1 X-64.0571 Y49.9429 Z-4.5000 F3600.00
G1 X-64.4950 Y49.5050 Z-4.5000 F3600.00
G0 Z5.0000
(Block-name: block)
(Block-expand: 0)
(Block-enable: 1)
G0 X-34.4950 Y64.5050
G0 Z3.0000
G1 X-34.4950 Y64.5050 Z-1.0000 F3600.00
G1 X-37.5050 Y64.5050 Z-1.0000 F3600.00
G1 X-37.9429 Y64.9429 Z-1.0000 F3600.00
G1 X-37.5050 Y64.5050 Z-1.0000 F3600.00
G1 X-37.5050 Y64.4950 Z-1.0000 F3600.00
G1 X-37.5050 Y64.4950 Z-1.0000 F3600.00
G1 X-37.9429 Y64.0571 Z-1.0000 F3600.00
G1 X-37.5050 Y64.4950 Z-1.0000 F3600.00
G1 X-34.4950 Y64.4950 Z-1.0000 F3600.00
G1 X-34.4950 Y64.4950 Z-1.0000 F3600.00
G1 X-34.0571 Y64.0571 Z-1.0000 F3600.00
G1 X-34.4950 Y64.4950 Z-1.0000 F3600.00
G1 X-34.4950 Y64.5050 Z-1.0000 F3600.00
G1 X-34.4950 Y64.5050 Z-1.0000 F3600.00
G1 X-34.0571 Y64.9429 Z-1.0000 F3600.00
G1 X-34.4950 Y64.5050 Z-1.0000 F3600.00
G1 X-34.4950 Y64.5050 Z-2.0000 F3600.00
G1 X-37.5050 Y64.5050 Z-2.0000 F3600.00
G1 X-37.9429 Y64.9429 Z-2.0000 F3600.00
G1 X-37.5050 Y64.5050 Z-2.0000 F3600.00
G1 X-37.5050 Y64.4950 Z-2.0000 F3600.00
G1 X-37.5050 Y64.4950 Z-2.0000 F3600.00
G1 X-37.9429 Y64.0571 Z-2.0000 F3600.00
G1 X-37.5050 Y64.4950 Z-2.0000 F3600.00
G1 X-34.4950 Y64.4950 Z-2.0000 F3600.00
G1 X-34.4950 Y64.4950 Z-2.0000 F3600.00
G1 X-34.0571 Y64.0571 Z-2.0000 F3600.00
G1 X-34.4950 Y64.4950 Z-2.0000 F3600.00
G1 X-34.4950 Y64.5050 Z-2.0000 F3600.00
G1 X-34.4950 Y64.5050 Z-2.0000 F3600.00
G1 X-34.0571 Y64.9429 Z-2.0000 F3600.00
G1 X-34.4950 Y64.5050 Z-2.0000 F3600.00
G1 X-34.4950 Y64.5050 Z-3.0000 F3600.00
G1 X-37.5050 Y64.5050 Z-3.0000 F3600.00
G1 X-37.9429 Y64.9429 Z-3.0000 F3600.00
G1 X-37.5050 Y64.5050 Z-3.0000 F3600.00
G1 X-37.5050 Y64.4950 Z-3.0000 F3600.00
G1 X-37.5050 Y64.4950 Z-3.0000 F3600.00
G1 X-37.9429 Y64.0571 Z-3.0000 F3600.00
G1 X-37.5050 Y64.4950 Z-3.0000 F3600.00
G1 X-34.4950 Y64.4950 Z-3.0000 F3600.00
G1 X-34.4950 Y64.4950 Z-3.0000 F3600.00
G1 X-34.0571 Y64.0571 Z-3.0000 F3600.00
G1 X-34.4950 Y64.4950 Z-3.0000 F3600.00
G1 X-34.4950 Y64.5050 Z-3.0000 F3600.00
G1 X-34.4950 Y64.5050 Z-3.0000 F3600.00
G1 X-34.0571 Y64.9429 Z-3.0000 F3600.00
G1 X-34.4950 Y64.5050 Z-3.0000 F3600.00
G1 X-34.4950 Y64.5050 Z-4.0000 F3600.00
G1 X-37.5050 Y64.5050 Z-4.0000 F3600.00
G1 X-37.9429 Y64.9429 Z-4.0000 F3600.00
G1 X-37.5050 Y64.5050 Z-4.0000 F3600.00
G1 X-37.5050 Y64.4950 Z-4.0000 F3600.00
G1 X-37.5050 Y64.4950 Z-4.0000 F3600.00
G1 X-37.9429 Y64.0571 Z-4.0000 F3600.00
G1 X-37.5050 Y64.4950 Z-4.0000 F3600.00
G1 X-34.4950 Y64.4950 Z-4.0000 F3600.00
G1 X-34.4950 Y64.4950 Z-4.0000 F3600.00
G1 X-34.0571 Y64.0571 Z-4.0000 F3600.00
G1 X-34.4950 Y64.4950 Z-4.0000 F3600.00
G1 X-34.4950 Y64.5050 Z-4.0000 F3600.00
G1 X-34.4950 Y64.5050 Z-4.0000 F3600.00
G1 X-34.0571 Y64.9429 Z-4.0000 F3600.00
G1 X-34.4950 Y64.5050 Z-4.0000 F3600.00
G1 X-34.4950 Y64.5050 Z-4.5000 F3600.00
G1 X-37.5050 Y64.5050 Z-4.5000 F3600.00
G1 X-37.9429 Y64.9429 Z-4.5000 F3600.00
G1 X-37.5050 Y64.5050 Z-4.5000 F3600.00
G1 X-37.5050 Y64.4950 Z-4.5000 F3600.00
G1 X-37.5050 Y64.4950 Z-4.5000 F3600.00
G1 X-37.9429 Y64.0571 Z-4.5000 F3600.00
G1 X-37.5050 Y64.4950 Z-4.5000 F3600.00
G1 X-34.4950 Y64.4950 Z-4.5000 F3600.00
G1 X-34.4950 Y64.4950 Z-4.5000 F3600.00
G1 X-34.0571 Y64.0571 Z-4.5000 F3600.00
G1 X-34.4950 Y64.4950 Z-4.5000 F3600.00
G1 X-34.4950 Y64.5050 Z-4.5000 F3600.00
G1 X-34.4950 Y64.5050 Z-4.5000 F3600.00
G1 X-34.0571 Y64.9429 Z-4.5000 F3600.00
G1 X-34.4950 Y64.5050 Z-4.5000 F3600.00
G0 Z5.0000
(Block-name: block)
(Block-expand: 0)
(Block-enable: 1)
G0 X-46.4950 Y64.5050
G0 Z3.0000
G1 X-46.4950 Y64.5050 Z-1.0000 F3600.00
G1 X-49.5050 Y64.5050 Z-1.0000 F3600.00
G1 X-49.9429 Y64.9429 Z-1.0000 F3600.00
G1 X-49.5050 Y64.5050 Z-1.0000 F3600.00
G1 X-49.5050 Y64.4950 Z-1.0000 F3600.00
G1 X-49.5050 Y64.4950 Z-1.0000 F3600.00
G1 X-49.9429 Y64.0571 Z-1.0000 F3600.00
G1 X-49.5050 Y64.4950 Z-1.0000 F3600.00
G1 X-46.4950 Y64.4950 Z-1.0000 F3600.00
G1 X-46.4950 Y64.4950 Z-1.0000 F3600.00
G1 X-46.0571 Y64.0571 Z-1.0000 F3600.00
G1 X-46.4950 Y64.4950 Z-1.0000 F3600.00
G1 X-46.4950 Y64.5050 Z-1.0000 F3600.00
G1 X-46.4950 Y64.5050 Z-1.0000 F3600.00
G1 X-46.0571 Y64.9429 Z-1.0000 F3600.00
G1 X-46.4950 Y64.5050 Z-1.0000 F3600.00
G1 X-46.4950 Y64.5050 Z-2.0000 F3600.00
G1 X-49.5050 Y64.5050 Z-2.0000 F3600.00
G1 X-49.9429 Y64.9429 Z-2.0000 F3600.00
G1 X-49.5050 Y64.5050 Z-2.0000 F3600.00
G1 X-49.5050 Y64.4950 Z-2.0000 F3600.00
G1 X-49.5050 Y64.4950 Z-2.0000 F3600.00
G1 X-49.9429 Y64.0571 Z-2.0000 F3600.00
G1 X-49.5050 Y64.4950 Z-2.0000 F3600.00
G1 X-46.4950 Y64.4950 Z-2.0000 F3600.00
G1 X-46.4950 Y64.4950 Z-2.0000 F3600.00
G1 X-46.0571 Y64.0571 Z-2.0000 F3600.00
G1 X-46.4950 Y64.4950 Z-2.0000 F3600.00
G1 X-46.4950 Y64.5050 Z-2.0000 F3600.00
G1 X-46.4950 Y64.5050 Z-2.0000 F3600.00
G1 X-46.0571 Y64.9429 Z-2.0000 F3600.00
G1 X-46.4950 Y64.5050 Z-2.0000 F3600.00
G1 X-46.4950 Y64.5050 Z-3.0000 F3600.00
G1 X-49.5050 Y64.5050 Z-3.0000 F3600.00
G1 X-49.9429 Y64.9429 Z-3.0000 F3600.00
G1 X-49.5050 Y64.5050 Z-3.0000 F3600.00
G1 X-49.5050 Y64.4950 Z-3.0000 F3600.00
G1 X-49.5050 Y64.4950 Z-3.0000 F3600.00
G1 X-49.9429 Y64.0571 Z-3.0000 F3600.00
G1 X-49.5050 Y64.4950 Z-3.0000 F3600.00
G1 X-46.4950 Y64.4950 Z-3.0000 F3600.00
G1 X-46.4950 Y64.4950 Z-3.0000 F3600.00
G1 X-46.0571 Y64.0571 Z-3.0000 F3600.00
G1 X-46.4950 Y64.4950 Z-3.0000 F3600.00
G1 X-46.4950 Y64.5050 Z-3.0000 F3600.00
G1 X-46.4950 Y64.5050 Z-3.0000 F3600.00
G1 X-46.0571 Y64.9429 Z-3.0000 F3600.00
G1 X-46.4950 Y64.5050 Z-3.0000 F3600.00
G1 X-46.4950 Y64.5050 Z-4.0000 F3600.00
G1 X-49.5050 Y64.5050 Z-4.0000 F3600.00
G1 X-49.9429 Y64.9429 Z-4.0000 F3600.00
G1 X-49.5050 Y64.5050 Z-4.0000 F3600.00
G1 X-49.5050 Y64.4950 Z-4.0000 F3600.00
G1 X-49.5050 Y64.4950 Z-4.0000 F3600.00
G1 X-49.9429 Y64.0571 Z-4.0000 F3600.00
G1 X-49.5050 Y64.4950 Z-4.0000 F3600.00
G1 X-46.4950 Y64.4950 Z-4.0000 F3600.00
G1 X-46.4950 Y64.4950 Z-4.0000 F3600.00
G1 X-46.0571 Y64.0571 Z-4.0000 F3600.00
G1 X-46.4950 Y64.4950 Z-4.0000 F3600.00
G1 X-46.4950 Y64.5050 Z-4.0000 F3600.00
G1 X-46.4950 Y64.5050 Z-4.0000 F3600.00
G1 X-46.0571 Y64.9429 Z-4.0000 F3600.00
G1 X-46.4950 Y64.5050 Z-4.0000 F3600.00
G1 X-46.4950 Y64.5050 Z-4.5000 F3600.00
G1 X-49.5050 Y64.5050 Z-4.5000 F3600.00
G1 X-49.9429 Y64.9429 Z-4.5000 F3600.00
G1 X-49.5050 Y64.5050 Z-4.5000 F3600.00
G1 X-49.5050 Y64.4950 Z-4.5000 F3600.00
G1 X-49.5050 Y64.4950 Z-4.5000 F3600.00
G1 X-49.9429 Y64.0571 Z-4.5000 F3600.00
G1 X-49.5050 Y64.4950 Z-4.5000 F3600.00
G1 X-46.4950 Y64.4950 Z-4.5000 F3600.00
G1 X-46.4950 Y64.4950 Z-4.5000 F3600.00
G1 X-46.0571 Y64.0571 Z-4.5000 F3600.00
G1 X-46.4950 Y64.4950 Z-4.5000 F3600.00
G1 X-46.4950 Y64.5050 Z-4.5000 F3600.00
G1 X-46.4950 Y64.5050 Z-4.5000 F3600.00
G1 X-46.0571 Y64.9429 Z-4.5000 F3600.00
G1 X-46.4950 Y64.5050 Z-4.5000 F3600.00
G0 Z5.0000
(Block-name: block)
(Block-expand: 0)
(Block-enable: 1)
G0 X-22.4950 Y64.5050
G0 Z3.0000
G1 X-22.4950 Y64.5050 Z-1.0000 F3600.00
G1 X-25.5050 Y64.5050 Z-1.0000 F3600.00
G1 X-25.9429 Y64.9429 Z-1.0000 F3600.00
G1 X-25.5050 Y64.5050 Z-1.0000 F3600.00
G1 X-25.5050 Y64.4950 Z-1.0000 F3600.00
G1 X-25.5050 Y64.4950 Z-1.0000 F3600.00
G1 X-25.9429 Y64.0571 Z-1.0000 F3600.00
G1 X-25.5050 Y64.4950 Z-1.0000 F3600.00
G1 X-22.4950 Y64.4950 Z-1.0000 F3600.00
G1 X-22.4950 Y64.4950 Z-1.0000 F3600.00
G1 X-22.0571 Y64.0571 Z-1.0000 F3600.00
G1 X-22.4950 Y64.4950 Z-1.0000 F3600.00
G1 X-22.4950 Y64.5050 Z-1.0000 F3600.00
G1 X-22.4950 Y64.5050 Z-1.0000 F3600.00
G1 X-22.0571 Y64.9429 Z-1.0000 F3600.00
G1 X-22.4950 Y64.5050 Z-1.0000 F3600.00
G1 X-22.4950 Y64.5050 Z-2.0000 F3600.00
G1 X-25.5050 Y64.5050 Z-2.0000 F3600.00
G1 X-25.9429 Y64.9429 Z-2.0000 F3600.00
G1 X-25.5050 Y64.5050 Z-2.0000 F3600.00
G1 X-25.5050 Y64.4950 Z-2.0000 F3600.00
G1 X-25.5050 Y64.4950 Z-2.0000 F3600.00
G1 X-25.9429 Y64.0571 Z-2.0000 F3600.00
G1 X-25.5050 Y64.4950 Z-2.0000 F3600.00
G1 X-22.4950 Y64.4950 Z-2.0000 F3600.00
G1 X-22.4950 Y64.4950 Z-2.0000 F3600.00
G1 X-22.0571 Y64.0571 Z-2.0000 F3600.00
G1 X-22.4950 Y64.4950 Z-2.0000 F3600.00
G1 X-22.4950 Y64.5050 Z-2.0000 F3600.00
G1 X-22.4950 Y64.5050 Z-2.0000 F3600.00
G1 X-22.0571 Y64.9429 Z-2.0000 F3600.00
G1 X-22.4950 Y64.5050 Z-2.0000 F3600.00
G1 X-22.4950 Y64.5050 Z-3.0000 F3600.00
G1 X-25.5050 Y64.5050 Z-3.0000 F3600.00
G1 X-25.9429 Y64.9429 Z-3.0000 F3600.00
G1 X-25.5050 Y64.5050 Z-3.0000 F3600.00
G1 X-25.5050 Y64.4950 Z-3.0000 F3600.00
G1 X-25.5050 Y64.4950 Z-3.0000 F3600.00
G1 X-25.9429 Y64.0571 Z-3.0000 F3600.00
G1 X-25.5050 Y64.4950 Z-3.0000 F3600.00
G1 X-22.4950 Y64.4950 Z-3.0000 F3600.00
G1 X-22.4950 Y64.4950 Z-3.0000 F3600.00
G1 X-22.0571 Y64.0571 Z-3.0000 F3600.00
G1 X-22.4950 Y64.4950 Z-3.0000 F3600.00
G1 X-22.4950 Y64.5050 Z-3.0000 F3600.00
G1 X-22.4950 Y64.5050 Z-3.0000 F3600.00
G1 X-22.0571 Y64.9429 Z-3.0000 F3600.00
G1 X-22.4950 Y64.5050 Z-3.0000 F3600.00
G1 X-22.4950 Y64.5050 Z-4.0000 F3600.00
G1 X-25.5050 Y64.5050 Z-4.0000 F3600.00
G1 X-25.9429 Y64.9429 Z-4.0000 F3600.00
G1 X-25.5050 Y64.5050 Z-4.0000 F3600.00
G1 X-25.5050 Y64.4950 Z-4.0000 F3600.00
G1 X-25.5050 Y64.4950 Z-4.0000 F3600.00
G1 X-25.9429 Y64.0571 Z-4.0000 F3600.00
G1 X-25.5050 Y64.4950 Z-4.0000 F3600.00
G1 X-22.4950 Y64.4950 Z-4.0000 F3600.00
G1 X-22.4950 Y64.4950 Z-4.0000 F3600.00
G1 X-22.0571 Y64.0571 Z-4.0000 F3600.00
G1 X-22.4950 Y64.4950 Z-4.0000 F3600.00
G1 X-22.4950 Y64.5050 Z-4.0000 F3600.00
G1 X-22.4950 Y64.5050 Z-4.0000 F3600.00
G1 X-22.0571 Y64.9429 Z-4.0000 F3600.00
G1 X-22.4950 Y64.5050 Z-4.0000 F3600.00
G1 X-22.4950 Y64.5050 Z-4.5000 F3600.00
G1 X-25.5050 Y64.5050 Z-4.5000 F3600.00
G1 X-25.9429 Y64.9429 Z-4.5000 F3600.00
G1 X-25.5050 Y64.5050 Z-4.5000 F3600.00
G1 X-25.5050 Y64.4950 Z-4.5000 F3600.00
G1 X-25.5050 Y64.4950 Z-4.5000 F3600.00
G1 X-25.9429 Y64.0571 Z-4.5000 F3600.00
G1 X-25.5050 Y64.4950 Z-4.5000 F3600.00
G1 X-22.4950 Y64.4950 Z-4.5000 F3600.00
G1 X-22.4950 Y64.4950 Z-4.5000 F3600.00
G1 X-22.0571 Y64.0571 Z-4.5000 F3600.00
G1 X-22.4950 Y64.4950 Z-4.5000 F3600.00
G1 X-22.4950 Y64.5050 Z-4.5000 F3600.00
G1 X-22.4950 Y64.5050 Z-4.5000 F3600.00
G1 X-22.0571 Y64.9429 Z-4.5000 F3600.00
G1 X-22.4950 Y64.5050 Z-4.5000 F3600.00
G0 Z5.0000
(Block-name: block)
(Block-expand: 0)
(Block-enable: 1)
G0 X-64.4950 Y-46.4950
G0 Z3.0000
G1 X-64.4950 Y-46.4950 Z-1.0000 F3600.00
G1 X-64.5050 Y-46.4950 Z-1.0000 F3600.00
G1 X-64.9429 Y-46.0571 Z-1.0000 F3600.00
G1 X-64.5050 Y-46.4950 Z-1.0000 F3600.00
G1 X-64.5050 Y-49.5050 Z-1.0000 F3600.00
G1 X-64.5050 Y-49.5050 Z-1.0000 F3600.00
G1 X-64.9429 Y-49.9429 Z-1.0000 F3600.00
G1 X-64.5050 Y-49.5050 Z-1.0000 F3600.00
G1 X-64.4950 Y-49.5050 Z-1.0000 F3600.00
G1 X-64.4950 Y-49.5050 Z-1.0000 F3600.00
G1 X-64.0571 Y-49.9429 Z-1.0000 F3600.00
G1 X-64.4950 Y-49.5050 Z-1.0000 F3600.00
G1 X-64.4950 Y-46.4950 Z-1.0000 F3600.00
G1 X-64.4950 Y-46.4950 Z-1.0000 F3600.00
G1 X-64.0571 Y-46.0571 Z-1.0000 F3600.00
G1 X-64.4950 Y-46.4950 Z-1.0000 F3600.00
G1 X-64.4950 Y-46.4950 Z-2.0000 F3600.00
G1 X-64.5050 Y-46.4950 Z-2.0000 F3600.00
G1 X-64.9429 Y-46.0571 Z-2.0000 F3600.00
G1 X-64.5050 Y-46.4950 Z-2.0000 F3600.00
G1 X-64.5050 Y-49.5050 Z-2.0000 F3600.00
G1 X-64.5050 Y-49.5050 Z-2.0000 F3600.00
G1 X-64.9429 Y-49.9429 Z-2.0000 F3600.00
G1 X-64.5050 Y-49.5050 Z-2.0000 F3600.00
G1 X-64.4950 Y-49.5050 Z-2.0000 F3600.00
G1 X-64.4950 Y-49.5050 Z-2.0000 F3600.00
G1 X-64.0571 Y-49.9429 Z-2.0000 F3600.00
G1 X-64.4950 Y-49.5050 Z-2.0000 F3600.00
G1 X-64.4950 Y-46.4950 Z-2.0000 F3600.00
G1 X-64.4950 Y-46.4950 Z-2.0000 F3600.00
G1 X-64.0571 Y-46.0571 Z-2.0000 F3600.00
G1 X-64.4950 Y-46.4950 Z-2.0000 F3600.00
G1 X-64.4950 Y-46.4950 Z-3.0000 F3600.00
G1 X-64.5050 Y-46.4950 Z-3.0000 F3600.00
G1 X-64.9429 Y-46.0571 Z-3.0000 F3600.00
G1 X-64.5050 Y-46.4950 Z-3.0000 F3600.00
G1 X-64.5050 Y-49.5050 Z-3.0000 F3600.00
G1 X-64.5050 Y-49.5050 Z-3.0000 F3600.00
G1 X-64.9429 Y-49.9429 Z-3.0000 F3600.00
G1 X-64.5050 Y-49.5050 Z-3.0000 F3600.00
G1 X-64.4950 Y-49.5050 Z-3.0000 F3600.00
G1 X-64.4950 Y-49.5050 Z-3.0000 F3600.00
G1 X-64.0571 Y-49.9429 Z-3.0000 F3600.00
G1 X-64.4950 Y-49.5050 Z-3.0000 F3600.00
G1 X-64.4950 Y-46.4950 Z-3.0000 F3600.00
G1 X-64.4950 Y-46.4950 Z-3.0000 F3600.00
G1 X-64.0571 Y-46.0571 Z-3.0000 F3600.00
G1 X-64.4950 Y-46.4950 Z-3.0000 F3600.00
G1 X-64.4950 Y-46.4950 Z-4.0000 F3600.00
G1 X-64.5050 Y-46.4950 Z-4.0000 F3600.00
G1 X-64.9429 Y-46.0571 Z-4.0000 F3600.00
G1 X-64.5050 Y-46.4950 Z-4.0000 F3600.00
G1 X-64.5050 Y-49.5050 Z-4.0000 F3600.00
G1 X-64.5050 Y-49.5050 Z-4.0000 F3600.00
G1 X-64.9429 Y-49.9429 Z-4.0000 F3600.00
G1 X-64.5050 Y-49.5050 Z-4.0000 F3600.00
G1 X-64.4950 Y-49.5050 Z-4.0000 F3600.00
G1 X-64.4950 Y-49.5050 Z-4.0000 F3600.00
G1 X-64.0571 Y-49.9429 Z-4.0000 F3600.00
G1 X-64.4950 Y-49.5050 Z-4.0000 F3600.00
G1 X-64.4950 Y-46.4950 Z-4.0000 F3600.00
G1 X-64.4950 Y-46.4950 Z-4.0000 F3600.00
G1 X-64.0571 Y-46.0571 Z-4.0000 F3600.00
G1 X-64.4950 Y-46.4950 Z-4.0000 F3600.00
G1 X-64.4950 Y-46.4950 Z-4.5000 F3600.00
G1 X-64.5050 Y-46.4950 Z-4.5000 F3600.00
G1 X-64.9429 Y-46.0571 Z-4.5000 F3600.00
G1 X-64.5050 Y-46.4950 Z-4.5000 F3600.00
G1 X-64.5050 Y-49.5050 Z-4.5000 F3600.00
G1 X-64.5050 Y-49.5050 Z-4.5000 F3600.00
G1 X-64.9429 Y-49.9429 Z-4.5000 F3600.00
G1 X-64.5050 Y-49.5050 Z-4.5000 F3600.00
G1 X-64.4950 Y-49.5050 Z-4.5000 F3600.00
G1 X-64.4950 Y-49.5050 Z-4.5000 F3600.00
G1 X-64.0571 Y-49.9429 Z-4.5000 F3600.00
G1 X-64.4950 Y-49.5050 Z-4.5000 F3600.00
G1 X-64.4950 Y-46.4950 Z-4.5000 F3600.00
G1 X-64.4950 Y-46.4950 Z-4.5000 F3600.00
G1 X-64.0571 Y-46.0571 Z-4.5000 F3600.00
G1 X-64.4950 Y-46.4950 Z-4.5000 F3600.00
G0 Z5.0000
(Block-name: block)
(Block-expand: 0)
(Block-enable: 1)
G0 X-64.4950 Y-34.4950
G0 Z3.0000
G1 X-64.4950 Y-34.4950 Z-1.0000 F3600.00
G1 X-64.5050 Y-34.4950 Z-1.0000 F3600.00
G1 X-64.9429 Y-34.0571 Z-1.0000 F3600.00
G1 X-64.5050 Y-34.4950 Z-1.0000 F3600.00
G1 X-64.5050 Y-37.5050 Z-1.0000 F3600.00
G1 X-64.5050 Y-37.5050 Z-1.0000 F3600.00
G1 X-64.9429 Y-37.9429 Z-1.0000 F3600.00
G1 X-64.5050 Y-37.5050 Z-1.0000 F3600.00
G1 X-64.4950 Y-37.5050 Z-1.0000 F3600.00
G1 X-64.4950 Y-37.5050 Z-1.0000 F3600.00
G1 X-64.0571 Y-37.9429 Z-1.0000 F3600.00
G1 X-64.4950 Y-37.5050 Z-1.0000 F3600.00
G1 X-64.4950 Y-34.4950 Z-1.0000 F3600.00
G1 X-64.4950 Y-34.4950 Z-1.0000 F3600.00
G1 X-64.0571 Y-34.0571 Z-1.0000 F3600.00
G1 X-64.4950 Y-34.4950 Z-1.0000 F3600.00
G1 X-64.4950 Y-34.4950 Z-2.0000 F3600.00
G1 X-64.5050 Y-34.4950 Z-2.0000 F3600.00
G1 X-64.9429 Y-34.0571 Z-2.0000 F3600.00
G1 X-64.5050 Y-34.4950 Z-2.0000 F3600.00
G1 X-64.5050 Y-37.5050 Z-2.0000 F3600.00
G1 X-64.5050 Y-37.5050 Z-2.0000 F3600.00
G1 X-64.9429 Y-37.9429 Z-2.0000 F3600.00
G1 X-64.5050 Y-37.5050 Z-2.0000 F3600.00
G1 X-64.4950 Y-37.5050 Z-2.0000 F3600.00
G1 X-64.4950 Y-37.5050 Z-2.0000 F3600.00
G1 X-64.0571 Y-37.9429 Z-2.0000 F3600.00
G1 X-64.4950 Y-37.5050 Z-2.0000 F3600.00
G1 X-64.4950 Y-34.4950 Z-2.0000 F3600.00
G1 X-64.4950 Y-34.4950 Z-2.0000 F3600.00
G1 X-64.0571 Y-34.0571 Z-2.0000 F3600.00
G1 X-64.4950 Y-34.4950 Z-2.0000 F3600.00
G1 X-64.4950 Y-34.4950 Z-3.0000 F3600.00
G1 X-64.5050 Y-34.4950 Z-3.0000 F3600.00
G1 X-64.9429 Y-34.0571 Z-3.0000 F3600.00
G1 X-64.5050 Y-34.4950 Z-3.0000 F3600.00
G1 X-64.5050 Y-37.5050 Z-3.0000 F3600.00
G1 X-64.5050 Y-37.5050 Z-3.0000 F3600.00
G1 X-64.9429 Y-37.9429 Z-3.0000 F3600.00
G1 X-64.5050 Y-37.5050 Z-3.0000 F3600.00
G1 X-64.4950 Y-37.5050 Z-3.0000 F3600.00
G1 X-64.4950 Y-37.5050 Z-3.0000 F3600.00
G1 X-64.0571 Y-37.9429 Z-3.0000 F3600.00
G1 X-64.4950 Y-37.5050 Z-3.0000 F3600.00
G1 X-64.4950 Y-34.4950 Z-3.0000 F3600.00
G1 X-64.4950 Y-34.4950 Z-3.0000 F3600.00
G1 X-64.0571 Y-34.0571 Z-3.0000 F3600.00
G1 X-64.4950 Y-34.4950 Z-3.0000 F3600.00
G1 X-64.4950 Y-34.4950 Z-4.0000 F3600.00
G1 X-64.5050 Y-34.4950 Z-4.0000 F3600.00
G1 X-64.9429 Y-34.0571 Z-4.0000 F3600.00
G1 X-64.5050 Y-34.4950 Z-4.0000 F3600.00
G1 X-64.5050 Y-37.5050 Z-4.0000 F3600.00
G1 X-64.5050 Y-37.5050 Z-4.0000 F3600.00
G1 X-64.9429 Y-37.9429 Z-4.0000 F3600.00
G1 X-64.5050 Y-37.5050 Z-4.0000 F3600.00
G1 X-64.4950 Y-37.5050 Z-4.0000 F3600.00
G1 X-64.4950 Y-37.5050 Z-4.0000 F3600.00
G1 X-64.0571 Y-37.9429 Z-4.0000 F3600.00
G1 X-64.4950 Y-37.5050 Z-4.0000 F3600.00
G1 X-64.4950 Y-34.4950 Z-4.0000 F3600.00
G1 X-64.4950 Y-34.4950 Z-4.0000 F3600.00
G1 X-64.0571 Y-34.0571 Z-4.0000 F3600.00
G1 X-64.4950 Y-34.4950 Z-4.0000 F3600.00
G1 X-64.4950 Y-34.4950 Z-4.5000 F3600.00
G1 X-64.5050 Y-34.4950 Z-4.5000 F3600.00
G1 X-64.9429 Y-34.0571 Z-4.5000 F3600.00
G1 X-64.5050 Y-34.4950 Z-4.5000 F3600.00
G1 X-64.5050 Y-37.5050 Z-4.5000 F3600.00
G1 X-64.5050 Y-37.5050 Z-4.5000 F3600.00
G1 X-64.9429 Y-37.9429 Z-4.5000 F3600.00
G1 X-64.5050 Y-37.5050 Z-4.5000 F3600.00
G1 X-64.4950 Y-37.5050 Z-4.5000 F3600.00
G1 X-64.4950 Y-37.5050 Z-4.5000 F3600.00
G1 X-64.0571 Y-37.9429 Z-4.5000 F3600.00
G1 X-64.4950 Y-37.5050 Z-4.5000 F3600.00
G1 X-64.4950 Y-34.4950 Z-4.5000 F3600.00
G1 X-64.4950 Y-34.4950 Z-4.5000 F3600.00
G1 X-64.0571 Y-34.0571 Z-4.5000 F3600.00
G1 X-64.4950 Y-34.4950 Z-4.5000 F3600.00
G0 Z5.0000
(Block-name: block)
(Block-expand: 0)
(Block-enable: 1)
G0 X-64.4950 Y-22.4950
G0 Z3.0000
G1 X-64.4950 Y-22.4950 Z-1.0000 F3600.00
G1 X-64.5050 Y-22.4950 Z-1.0000 F3600.00
G1 X-64.9429 Y-22.0571 Z-1.0000 F3600.00
G1 X-64.5050 Y-22.4950 Z-1.0000 F3600.00
G1 X-64.5050 Y-25.5050 Z-1.0000 F3600.00
G1 X-64.5050 Y-25.5050 Z-1.0000 F3600.00
G1 X-64.9429 Y-25.9429 Z-1.0000 F3600.00
G1 X-64.5050 Y-25.5050 Z-1.0000 F3600.00
G1 X-64.4950 Y-25.5050 Z-1.0000 F3600.00
G1 X-64.4950 Y-25.5050 Z-1.0000 F3600.00
G1 X-64.0571 Y-25.9429 Z-1.0000 F3600.00
G1 X-64.4950 Y-25.5050 Z-1.0000 F3600.00
G1 X-64.4950 Y-22.4950 Z-1.0000 F3600.00
G1 X-64.4950 Y-22.4950 Z-1.0000 F3600.00
G1 X-64.0571 Y-22.0571 Z-1.0000 F3600.00
G1 X-64.4950 Y-22.4950 Z-1.0000 F3600.00
G1 X-64.4950 Y-22.4950 Z-2.0000 F3600.00
G1 X-64.5050 Y-22.4950 Z-2.0000 F3600.00
G1 X-64.9429 Y-22.0571 Z-2.0000 F3600.00
G1 X-64.5050 Y-22.4950 Z-2.0000 F3600.00
G1 X-64.5050 Y-25.5050 Z-2.0000 F3600.00
G1 X-64.5050 Y-25.5050 Z-2.0000 F3600.00
G1 X-64.9429 Y-25.9429 Z-2.0000 F3600.00
G1 X-64.5050 Y-25.5050 Z-2.0000 F3600.00
G1 X-64.4950 Y-25.5050 Z-2.0000 F3600.00
G1 X-64.4950 Y-25.5050 Z-2.0000 F3600.00
G1 X-64.0571 Y-25.9429 Z-2.0000 F3600.00
G1 X-64.4950 Y-25.5050 Z-2.0000 F3600.00
G1 X-64.4950 Y-22.4950 Z-2.0000 F3600.00
G1 X-64.4950 Y-22.4950 Z-2.0000 F3600.00
G1 X-64.0571 Y-22.0571 Z-2.0000 F3600.00
G1 X-64.4950 Y-22.4950 Z-2.0000 F3600.00
G1 X-64.4950 Y-22.4950 Z-3.0000 F3600.00
G1 X-64.5050 Y-22.4950 Z-3.0000 F3600.00
G1 X-64.9429 Y-22.0571 Z-3.0000 F3600.00
G1 X-64.5050 Y-22.4950 Z-3.0000 F3600.00
G1 X-64.5050 Y-25.5050 Z-3.0000 F3600.00
G1 X-64.5050 Y-25.5050 Z-3.0000 F3600.00
G1 X-64.9429 Y-25.9429 Z-3.0000 F3600.00
G1 X-64.5050 Y-25.5050 Z-3.0000 F3600.00
G1 X-64.4950 Y-25.5050 Z-3.0000 F3600.00
G1 X-64.4950 Y-25.5050 Z-3.0000 F3600.00
G1 X-64.0571 Y-25.9429 Z-3.0000 F3600.00
G1 X-64.4950 Y-25.5050 Z-3.0000 F3600.00
G1 X-64.4950 Y-22.4950 Z-3.0000 F3600.00
G1 X-64.4950 Y-22.4950 Z-3.0000 F3600.00
G1 X-64.0571 Y-22.0571 Z-3.0000 F3600.00
G1 X-64.4950 Y-22.4950 Z-3.0000 F3600.00
G1 X-64.4950 Y-22.4950 Z-4.0000 F3600.00
G1 X-64.5050 Y-22.4950 Z-4.0000 F3600.00
G1 X-64.9429 Y-22.0571 Z-4.0000 F3600.00
G1 X-64.5050 Y-22.4950 Z-4.0000 F3600.00
G1 X-64.5050 Y-25.5050 Z-4.0000 F3600.00
G1 X-64.5050 Y-25.5050 Z-4.0000 F3600.00
G1 X-64.9429 Y-25.9429 Z-4.0000 F3600.00
G1 X-64.5050 Y-25.5050 Z-4.0000 F3600.00
G1 X-64.4950 Y-25.5050 Z-4.0000 F3600.00
G1 X-64.4950 Y-25.5050 Z-4.0000 F3600.00
G1 X-64.0571 Y-25.9429 Z-4.0000 F3600.00
G1 X-64.4950 Y-25.5050 Z-4.0000 F3600.00
G1 X-64.4950 Y-22.4950 Z-4.0000 F3600.00
G1 X-64.4950 Y-22.4950 Z-4.0000 F3600.00
G1 X-64.0571 Y-22.0571 Z-4.0000 F3600.00
G1 X-64.4950 Y-22.4950 Z-4.0000 F3600.00
G1 X-64.4950 Y-22.4950 Z-4.5000 F3600.00
G1 X-64.5050 Y-22.4950 Z-4.5000 F3600.00
G1 X-64.9429 Y-22.0571 Z-4.5000 F3600.00
G1 X-64.5050 Y-22.4950 Z-4.5000 F3600.00
G1 X-64.5050 Y-25.5050 Z-4.5000 F3600.00
G1 X-64.5050 Y-25.5050 Z-4.5000 F3600.00
G1 X-64.9429 Y-25.9429 Z-4.5000 F3600.00
G1 X-64.5050 Y-25.5050 Z-4.5000 F3600.00
G1 X-64.4950 Y-25.5050 Z-4.5000 F3600.00
G1 X-64.4950 Y-25.5050 Z-4.5000 F3600.00
G1 X-64.0571 Y-25.9429 Z-4.5000 F3600.00
G1 X-64.4950 Y-25.5050 Z-4.5000 F3600.00
G1 X-64.4950 Y-22.4950 Z-4.5000 F3600.00
G1 X-64.4950 Y-22.4950 Z-4.5000 F3600.00
G1 X-64.0571 Y-22.0571 Z-4.5000 F3600.00
G1 X-64.4950 Y-22.4950 Z-4.5000 F3600.00
G0 Z5.0000
(Block-name: block)
(Block-expand: 0)
(Block-enable: 1)
G0 X-10.4950 Y64.5050
G0 Z3.0000
G1 X-10.4950 Y64.5050 Z-1.0000 F3600.00
G1 X-13.5050 Y64.5050 Z-1.0000 F3600.00
G1 X-13.9429 Y64.9429 Z-1.0000 F3600.00
G1 X-13.5050 Y64.5050 Z-1.0000 F3600.00
G1 X-13.5050 Y64.4950 Z-1.0000 F3600.00
G1 X-13.5050 Y64.4950 Z-1.0000 F3600.00
G1 X-13.9429 Y64.0571 Z-1.0000 F3600.00
G1 X-13.5050 Y64.4950 Z-1.0000 F3600.00
G1 X-10.4950 Y64.4950 Z-1.0000 F3600.00
G1 X-10.4950 Y64.4950 Z-1.0000 F3600.00
G1 X-10.0571 Y64.0571 Z-1.0000 F3600.00
G1 X-10.4950 Y64.4950 Z-1.0000 F3600.00
G1 X-10.4950 Y64.5050 Z-1.0000 F3600.00
G1 X-10.4950 Y64.5050 Z-1.0000 F3600.00
G1 X-10.0571 Y64.9429 Z-1.0000 F3600.00
G1 X-10.4950 Y64.5050 Z-1.0000 F3600.00
G1 X-10.4950 Y64.5050 Z-2.0000 F3600.00
G1 X-13.5050 Y64.5050 Z-2.0000 F3600.00
G1 X-13.9429 Y64.9429 Z-2.0000 F3600.00
G1 X-13.5050 Y64.5050 Z-2.0000 F3600.00
G1 X-13.5050 Y64.4950 Z-2.0000 F3600.00
G1 X-13.5050 Y64.4950 Z-2.0000 F3600.00
G1 X-13.9429 Y64.0571 Z-2.0000 F3600.00
G1 X-13.5050 Y64.4950 Z-2.0000 F3600.00
G1 X-10.4950 Y64.4950 Z-2.0000 F3600.00
G1 X-10.4950 Y64.4950 Z-2.0000 F3600.00
G1 X-10.0571 Y64.0571 Z-2.0000 F3600.00
G1 X-10.4950 Y64.4950 Z-2.0000 F3600.00
G1 X-10.4950 Y64.5050 Z-2.0000 F3600.00
G1 X-10.4950 Y64.5050 Z-2.0000 F3600.00
G1 X-10.0571 Y64.9429 Z-2.0000 F3600.00
G1 X-10.4950 Y64.5050 Z-2.0000 F3600.00
G1 X-10.4950 Y64.5050 Z-3.0000 F3600.00
G1 X-13.5050 Y64.5050 Z-3.0000 F3600.00
G1 X-13.9429 Y64.9429 Z-3.0000 F3600.00
G1 X-13.5050 Y64.5050 Z-3.0000 F3600.00
G1 X-13.5050 Y64.4950 Z-3.0000 F3600.00
G1 X-13.5050 Y64.4950 Z-3.0000 F3600.00
G1 X-13.9429 Y64.0571 Z-3.0000 F3600.00
G1 X-13.5050 Y64.4950 Z-3.0000 F3600.00
G1 X-10.4950 Y64.4950 Z-3.0000 F3600.00
G1 X-10.4950 Y64.4950 Z-3.0000 F3600.00
G1 X-10.0571 Y64.0571 Z-3.0000 F3600.00
G1 X-10.4950 Y64.4950 Z-3.0000 F3600.00
G1 X-10.4950 Y64.5050 Z-3.0000 F3600.00
G1 X-10.4950 Y64.5050 Z-3.0000 F3600.00
G1 X-10.0571 Y64.9429 Z-3.0000 F3600.00
G1 X-10.4950 Y64.5050 Z-3.0000 F3600.00
G1 X-10.4950 Y64.5050 Z-4.0000 F3600.00
G1 X-13.5050 Y64.5050 Z-4.0000 F3600.00
G1 X-13.9429 Y64.9429 Z-4.0000 F3600.00
G1 X-13.5050 Y64.5050 Z-4.0000 F3600.00
G1 X-13.5050 Y64.4950 Z-4.0000 F3600.00
G1 X-13.5050 Y64.4950 Z-4.0000 F3600.00
G1 X-13.9429 Y64.0571 Z-4.0000 F3600.00
G1 X-13.5050 Y64.4950 Z-4.0000 F3600.00
G1 X-10.4950 Y64.4950 Z-4.0000 F3600.00
G1 X-10.4950 Y64.4950 Z-4.0000 F3600.00
G1 X-10.0571 Y64.0571 Z-4.0000 F3600.00
G1 X-10.4950 Y64.4950 Z-4.0000 F3600.00
G1 X-10.4950 Y64.5050 Z-4.0000 F3600.00
G1 X-10.4950 Y64.5050 Z-4.0000 F3600.00
G1 X-10.0571 Y64.9429 Z-4.0000 F3600.00
G1 X-10.4950 Y64.5050 Z-4.0000 F3600.00
G1 X-10.4950 Y64.5050 Z-4.5000 F3600.00
G1 X-13.5050 Y64.5050 Z-4.5000 F3600.00
G1 X-13.9429 Y64.9429 Z-4.5000 F3600.00
G1 X-13.5050 Y64.5050 Z-4.5000 F3600.00
G1 X-13.5050 Y64.4950 Z-4.5000 F3600.00
G1 X-13.5050 Y64.4950 Z-4.5000 F3600.00
G1 X-13.9429 Y64.0571 Z-4.5000 F3600.00
G1 X-13.5050 Y64.4950 Z-4.5000 F3600.00
G1 X-10.4950 Y64.4950 Z-4.5000 F3600.00
G1 X-10.4950 Y64.4950 Z-4.5000 F3600.00
G1 X-10.0571 Y64.0571 Z-4.5000 F3600.00
G1 X-10.4950 Y64.4950 Z-4.5000 F3600.00
G1 X-10.4950 Y64.5050 Z-4.5000 F3600.00
G1 X-10.4950 Y64.5050 Z-4.5000 F3600.00
G1 X-10.0571 Y64.9429 Z-4.5000 F3600.00
G1 X-10.4950 Y64.5050 Z-4.5000 F3600.00
G0 Z5.0000
(Block-name: block)
(Block-expand: 0)
(Block-enable: 1)
G0 X1.5050 Y64.5050
G0 Z3.0000
G1 X1.5050 Y64.5050 Z-1.0000 F3600.00
G1 X-1.5050 Y64.5050 Z-1.0000 F3600.00
G1 X-1.9429 Y64.9429 Z-1.0000 F3600.00
G1 X-1.5050 Y64.5050 Z-1.0000 F3600.00
G1 X-1.5050 Y64.4950 Z-1.0000 F3600.00
G1 X-1.5050 Y64.4950 Z-1.0000 F3600.00
G1 X-1.9429 Y64.0571 Z-1.0000 F3600.00
G1 X-1.5050 Y64.4950 Z-1.0000 F3600.00
G1 X1.5050 Y64.4950 Z-1.0000 F3600.00
G1 X1.5050 Y64.4950 Z-1.0000 F3600.00
G1 X1.9429 Y64.0571 Z-1.0000 F3600.00
G1 X1.5050 Y64.4950 Z-1.0000 F3600.00
G1 X1.5050 Y64.5050 Z-1.0000 F3600.00
G1 X1.5050 Y64.5050 Z-1.0000 F3600.00
G1 X1.9429 Y64.9429 Z-1.0000 F3600.00
G1 X1.5050 Y64.5050 Z-1.0000 F3600.00
G1 X1.5050 Y64.5050 Z-2.0000 F3600.00
G1 X-1.5050 Y64.5050 Z-2.0000 F3600.00
G1 X-1.9429 Y64.9429 Z-2.0000 F3600.00
G1 X-1.5050 Y64.5050 Z-2.0000 F3600.00
G1 X-1.5050 Y64.4950 Z-2.0000 F3600.00
G1 X-1.5050 Y64.4950 Z-2.0000 F3600.00
G1 X-1.9429 Y64.0571 Z-2.0000 F3600.00
G1 X-1.5050 Y64.4950 Z-2.0000 F3600.00
G1 X1.5050 Y64.4950 Z-2.0000 F3600.00
G1 X1.5050 Y64.4950 Z-2.0000 F3600.00
G1 X1.9429 Y64.0571 Z-2.0000 F3600.00
G1 X1.5050 Y64.4950 Z-2.0000 F3600.00
G1 X1.5050 Y64.5050 Z-2.0000 F3600.00
G1 X1.5050 Y64.5050 Z-2.0000 F3600.00
G1 X1.9429 Y64.9429 Z-2.0000 F3600.00
G1 X1.5050 Y64.5050 Z-2.0000 F3600.00
G1 X1.5050 Y64.5050 Z-3.0000 F3600.00
G1 X-1.5050 Y64.5050 Z-3.0000 F3600.00
G1 X-1.9429 Y64.9429 Z-3.0000 F3600.00
G1 X-1.5050 Y64.5050 Z-3.0000 F3600.00
G1 X-1.5050 Y64.4950 Z-3.0000 F3600.00
G1 X-1.5050 Y64.4950 Z-3.0000 F3600.00
G1 X-1.9429 Y64.0571 Z-3.0000 F3600.00
G1 X-1.5050 Y64.4950 Z-3.0000 F3600.00
G1 X1.5050 Y64.4950 Z-3.0000 F3600.00
G1 X1.5050 Y64.4950 Z-3.0000 F3600.00
G1 X1.9429 Y64.0571 Z-3.0000 F3600.00
G1 X1.5050 Y64.4950 Z-3.0000 F3600.00
G1 X1.5050 Y64.5050 Z-3.0000 F3600.00
G1 X1.5050 Y64.5050 Z-3.0000 F3600.00
G1 X1.9429 Y64.9429 Z-3.0000 F3600.00
G1 X1.5050 Y64.5050 Z-3.0000 F3600.00
G1 X1.5050 Y64.5050 Z-4.0000 F3600.00
G1 X-1.5050 Y64.5050 Z-4.0000 F3600.00
G1 X-1.9429 Y64.9429 Z-4.0000 F3600.00
G1 X-1.5050 Y64.5050 Z-4.0000 F3600.00
G1 X-1.5050 Y64.4950 Z-4.0000 F3600.00
G1 X-1.5050 Y64.4950 Z-4.0000 F3600.00
G1 X-1.9429 Y64.0571 Z-4.0000 F3600.00
G1 X-1.5050 Y64.4950 Z-4.0000 F3600.00
G1 X1.5050 Y64.4950 Z-4.0000 F3600.00
G1 X1.5050 Y64.4950 Z-4.0000 F3600.00
G1 X1.9429 Y64.0571 Z-4.0000 F3600.00
G1 X1.5050 Y64.4950 Z-4.0000 F3600.00
G1 X1.5050 Y64.5050 Z-4.0000 F3600.00
G1 X1.5050 Y64.5050 Z-4.0000 F3600.00
G1 X1.9429 Y64.9429 Z-4.0000 F3600.00
G1 X1.5050 Y64.5050 Z-4.0000 F3600.00
G1 X1.5050 Y64.5050 Z-4.5000 F3600.00
G1 X-1.5050 Y64.5050 Z-4.5000 F3600.00
G1 X-1.9429 Y64.9429 Z-4.5000 F3600.00
G1 X-1.5050 Y64.5050 Z-4.5000 F3600.00
G1 X-1.5050 Y64.4950 Z-4.5000 F3600.00
G1 X-1.5050 Y64.4950 Z-4.5000 F3600.00
G1 X-1.9429 Y64.0571 Z-4.5000 F3600.00
G1 X-1.5050 Y64.4950 Z-4.5000 F3600.00
G1 X1.5050 Y64.4950 Z-4.5000 F3600.00
G1 X1.5050 Y64.4950 Z-4.5000 F3600.00
G1 X1.9429 Y64.0571 Z-4.5000 F3600.00
G1 X1.5050 Y64.4950 Z-4.5000 F3600.00
G1 X1.5050 Y64.5050 Z-4.5000 F3600.00
G1 X1.5050 Y64.5050 Z-4.5000 F3600.00
G1 X1.9429 Y64.9429 Z-4.5000 F3600.00
G1 X1.5050 Y64.5050 Z-4.5000 F3600.00
G0 Z5.0000
(Block-name: block)
(Block-expand: 0)
(Block-enable: 1)
G0 X64.5050 Y-46.4950
G0 Z3.0000
G1 X64.5050 Y-46.4950 Z-1.0000 F3600.00
G1 X64.4950 Y-46.4950 Z-1.0000 F3600.00
G1 X64.0571 Y-46.0571 Z-1.0000 F3600.00
G1 X64.4950 Y-46.4950 Z-1.0000 F3600.00
G1 X64.4950 Y-49.5050 Z-1.0000 F3600.00
G1 X64.4950 Y-49.5050 Z-1.0000 F3600.00
G1 X64.0571 Y-49.9429 Z-1.0000 F3600.00
G1 X64.4950 Y-49.5050 Z-1.0000 F3600.00
G1 X64.5050 Y-49.5050 Z-1.0000 F3600.00
G1 X64.5050 Y-49.5050 Z-1.0000 F3600.00
G1 X64.9429 Y-49.9429 Z-1.0000 F3600.00
G1 X64.5050 Y-49.5050 Z-1.0000 F3600.00
G1 X64.5050 Y-46.4950 Z-1.0000 F3600.00
G1 X64.5050 Y-46.4950 Z-1.0000 F3600.00
G1 X64.9429 Y-46.0571 Z-1.0000 F3600.00
G1 X64.5050 Y-46.4950 Z-1.0000 F3600.00
G1 X64.5050 Y-46.4950 Z-2.0000 F3600.00
G1 X64.4950 Y-46.4950 Z-2.0000 F3600.00
G1 X64.0571 Y-46.0571 Z-2.0000 F3600.00
G1 X64.4950 Y-46.4950 Z-2.0000 F3600.00
G1 X64.4950 Y-49.5050 Z-2.0000 F3600.00
G1 X64.4950 Y-49.5050 Z-2.0000 F3600.00
G1 X64.0571 Y-49.9429 Z-2.0000 F3600.00
G1 X64.4950 Y-49.5050 Z-2.0000 F3600.00
G1 X64.5050 Y-49.5050 Z-2.0000 F3600.00
G1 X64.5050 Y-49.5050 Z-2.0000 F3600.00
G1 X64.9429 Y-49.9429 Z-2.0000 F3600.00
G1 X64.5050 Y-49.5050 Z-2.0000 F3600.00
G1 X64.5050 Y-46.4950 Z-2.0000 F3600.00
G1 X64.5050 Y-46.4950 Z-2.0000 F3600.00
G1 X64.9429 Y-46.0571 Z-2.0000 F3600.00
G1 X64.5050 Y-46.4950 Z-2.0000 F3600.00
G1 X64.5050 Y-46.4950 Z-3.0000 F3600.00
G1 X64.4950 Y-46.4950 Z-3.0000 F3600.00
G1 X64.0571 Y-46.0571 Z-3.0000 F3600.00
G1 X64.4950 Y-46.4950 Z-3.0000 F3600.00
G1 X64.4950 Y-49.5050 Z-3.0000 F3600.00
G1 X64.4950 Y-49.5050 Z-3.0000 F3600.00
G1 X64.0571 Y-49.9429 Z-3.0000 F3600.00
G1 X64.4950 Y-49.5050 Z-3.0000 F3600.00
G1 X64.5050 Y-49.5050 Z-3.0000 F3600.00
G1 X64.5050 Y-49.5050 Z-3.0000 F3600.00
G1 X64.9429 Y-49.9429 Z-3.0000 F3600.00
G1 X64.5050 Y-49.5050 Z-3.0000 F3600.00
G1 X64.5050 Y-46.4950 Z-3.0000 F3600.00
G1 X64.5050 Y-46.4950 Z-3.0000 F3600.00
G1 X64.9429 Y-46.0571 Z-3.0000 F3600.00
G1 X64.5050 Y-46.4950 Z-3.0000 F3600.00
G1 X64.5050 Y-46.4950 Z-4.0000 F3600.00
G1 X64.4950 Y-46.4950 Z-4.0000 F3600.00
G1 X64.0571 Y-46.0571 Z-4.0000 F3600.00
G1 X64.4950 Y-46.4950 Z-4.0000 F3600.00
G1 X64.4950 Y-49.5050 Z-4.0000 F3600.00
G1 X64.4950 Y-49.5050 Z-4.0000 F3600.00
G1 X64.0571 Y-49.9429 Z-4.0000 F3600.00
G1 X64.4950 Y-49.5050 Z-4.0000 F3600.00
G1 X64.5050 Y-49.5050 Z-4.0000 F3600.00
G1 X64.5050 Y-49.5050 Z-4.0000 F3600.00
G1 X64.9429 Y-49.9429 Z-4.0000 F3600.00
G1 X64.5050 Y-49.5050 Z-4.0000 F3600.00
G1 X64.5050 Y-46.4950 Z-4.0000 F3600.00
G1 X64.5050 Y-46.4950 Z-4.0000 F3600.00
G1 X64.9429 Y-46.0571 Z-4.0000 F3600.00
G1 X64.5050 Y-46.4950 Z-4.0000 F3600.00
G1 X64.5050 Y-46.4950 Z-4.5000 F3600.00
G1 X64.4950 Y-46.4950 Z-4.5000 F3600.00
G1 X64.0571 Y-46.0571 Z-4.5000 F3600.00
G1 X64.4950 Y-46.4950 Z-4.5000 F3600.00
G1 X64.4950 Y-49.5050 Z-4.5000 F3600.00
G1 X64.4950 Y-49.5050 Z-4.5000 F3600.00
G1 X64.0571 Y-49.9429 Z-4.5000 F3600.00
G1 X64.4950 Y-49.5050 Z-4.5000 F3600.00
G1 X64.5050 Y-49.5050 Z-4.5000 F3600.00
G1 X64.5050 Y-49.5050 Z-4.5000 F3600.00
G1 X64.9429 Y-49.9429 Z-4.5000 F3600.00
G1 X64.5050 Y-49.5050 Z-4.5000 F3600.00
G1 X64.5050 Y-46.4950 Z-4.5000 F3600.00
G1 X64.5050 Y-46.4950 Z-4.5000 F3600.00
G1 X64.9429 Y-46.0571 Z-4.5000 F3600.00
G1 X64.5050 Y-46.4950 Z-4.5000 F3600.00
G0 Z5.0000
(Block-name: block)
(Block-expand: 0)
(Block-enable: 1)
G0 X64.5050 Y-34.4950
G0 Z3.0000
G1 X64.5050 Y-34.4950 Z-1.0000 F3600.00
G1 X64.4950 Y-34.4950 Z-1.0000 F3600.00
G1 X64.0571 Y-34.0571 Z-1.0000 F3600.00
G1 X64.4950 Y-34.4950 Z-1.0000 F3600.00
G1 X64.4950 Y-37.5050 Z-1.0000 F3600.00
G1 X64.4950 Y-37.5050 Z-1.0000 F3600.00
G1 X64.0571 Y-37.9429 Z-1.0000 F3600.00
G1 X64.4950 Y-37.5050 Z-1.0000 F3600.00
G1 X64.5050 Y-37.5050 Z-1.0000 F3600.00
G1 X64.5050 Y-37.5050 Z-1.0000 F3600.00
G1 X64.9429 Y-37.9429 Z-1.0000 F3600.00
G1 X64.5050 Y-37.5050 Z-1.0000 F3600.00
G1 X64.5050 Y-34.4950 Z-1.0000 F3600.00
G1 X64.5050 Y-34.4950 Z-1.0000 F3600.00
G1 X64.9429 Y-34.0571 Z-1.0000 F3600.00
G1 X64.5050 Y-34.4950 Z-1.0000 F3600.00
G1 X64.5050 Y-34.4950 Z-2.0000 F3600.00
G1 X64.4950 Y-34.4950 Z-2.0000 F3600.00
G1 X64.0571 Y-34.0571 Z-2.0000 F3600.00
G1 X64.4950 Y-34.4950 Z-2.0000 F3600.00
G1 X64.4950 Y-37.5050 Z-2.0000 F3600.00
G1 X64.4950 Y-37.5050 Z-2.0000 F3600.00
G1 X64.0571 Y-37.9429 Z-2.0000 F3600.00
G1 X64.4950 Y-37.5050 Z-2.0000 F3600.00
G1 X64.5050 Y-37.5050 Z-2.0000 F3600.00
G1 X64.5050 Y-37.5050 Z-2.0000 F3600.00
G1 X64.9429 Y-37.9429 Z-2.0000 F3600.00
G1 X64.5050 Y-37.5050 Z-2.0000 F3600.00
G1 X64.5050 Y-34.4950 Z-2.0000 F3600.00
G1 X64.5050 Y-34.4950 Z-2.0000 F3600.00
G1 X64.9429 Y-34.0571 Z-2.0000 F3600.00
G1 X64.5050 Y-34.4950 Z-2.0000 F3600.00
G1 X64.5050 Y-34.4950 Z-3.0000 F3600.00
G1 X64.4950 Y-34.4950 Z-3.0000 F3600.00
G1 X64.0571 Y-34.0571 Z-3.0000 F3600.00
G1 X64.4950 Y-34.4950 Z-3.0000 F3600.00
G1 X64.4950 Y-37.5050 Z-3.0000 F3600.00
G1 X64.4950 Y-37.5050 Z-3.0000 F3600.00
G1 X64.0571 Y-37.9429 Z-3.0000 F3600.00
G1 X64.4950 Y-37.5050 Z-3.0000 F3600.00
G1 X64.5050 Y-37.5050 Z-3.0000 F3600.00
G1 X64.5050 Y-37.5050 Z-3.0000 F3600.00
G1 X64.9429 Y-37.9429 Z-3.0000 F3600.00
G1 X64.5050 Y-37.5050 Z-3.0000 F3600.00
G1 X64.5050 Y-34.4950 Z-3.0000 F3600.00
G1 X64.5050 Y-34.4950 Z-3.0000 F3600.00
G1 X64.9429 Y-34.0571 Z-3.0000 F3600.00
G1 X64.5050 Y-34.4950 Z-3.0000 F3600.00
G1 X64.5050 Y-34.4950 Z-4.0000 F3600.00
G1 X64.4950 Y-34.4950 Z-4.0000 F3600.00
G1 X64.0571 Y-34.0571 Z-4.0000 F3600.00
G1 X64.4950 Y-34.4950 Z-4.0000 F3600.00
G1 X64.4950 Y-37.5050 Z-4.0000 F3600.00
G1 X64.4950 Y-37.5050 Z-4.0000 F3600.00
G1 X64.0571 Y-37.9429 Z-4.0000 F3600.00
G1 X64.4950 Y-37.5050 Z-4.0000 F3600.00
G1 X64.5050 Y-37.5050 Z-4.0000 F3600.00
G1 X64.5050 Y-37.5050 Z-4.0000 F3600.00
G1 X64.9429 Y-37.9429 Z-4.0000 F3600.00
G1 X64.5050 Y-37.5050 Z-4.0000 F3600.00
G1 X64.5050 Y-34.4950 Z-4.0000 F3600.00
G1 X64.5050 Y-34.4950 Z-4.0000 F3600.00
G1 X64.9429 Y-34.0571 Z-4.0000 F3600.00
G1 X64.5050 Y-34.4950 Z-4.0000 F3600.00
G1 X64.5050 Y-34.4950 Z-4.5000 F3600.00
G1 X64.4950 Y-34.4950 Z-4.5000 F3600.00
G1 X64.0571 Y-34.0571 Z-4.5000 F3600.00
G1 X64.4950 Y-34.4950 Z-4.5000 F3600.00
G1 X64.4950 Y-37.5050 Z-4.5000 F3600.00
G1 X64.4950 Y-37.5050 Z-4.5000 F3600.00
G1 X64.0571 Y-37.9429 Z-4.5000 F3600.00
G1 X64.4950 Y-37.5050 Z-4.5000 F3600.00
G1 X64.5050 Y-37.5050 Z-4.5000 F3600.00
G1 X64.5050 Y-37.5050 Z-4.5000 F3600.00
G1 X64.9429 Y-37.9429 Z-4.5000 F3600.00
G1 X64.5050 Y-37.5050 Z-4.5000 F3600.00
G1 X64.5050 Y-34.4950 Z-4.5000 F3600.00
G1 X64.5050 Y-34.4950 Z-4.5000 F3600.00
G1 X64.9429 Y-34.0571 Z-4.5000 F3600.00
G1 X64.5050 Y-34.4950 Z-4.5000 F3600.00
G0 Z5.0000
(Block-name: block)
(Block-expand: 0)
(Block-enable: 1)
G0 X64.5050 Y-22.4950
G0 Z3.0000
G1 X64.5050 Y-22.4950 Z-1.0000 F3600.00
G1 X64.4950 Y-22.4950 Z-1.0000 F3600.00
G1 X64.0571 Y-22.0571 Z-1.0000 F3600.00
G1 X64.4950 Y-22.4950 Z-1.0000 F3600.00
G1 X64.4950 Y-25.5050 Z-1.0000 F3600.00
G1 X64.4950 Y-25.5050 Z-1.0000 F3600.00
G1 X64.0571 Y-25.9429 Z-1.0000 F3600.00
G1 X64.4950 Y-25.5050 Z-1.0000 F3600.00
G1 X64.5050 Y-25.5050 Z-1.0000 F3600.00
G1 X64.5050 Y-25.5050 Z-1.0000 F3600.00
G1 X64.9429 Y-25.9429 Z-1.0000 F3600.00
G1 X64.5050 Y-25.5050 Z-1.0000 F3600.00
G1 X64.5050 Y-22.4950 Z-1.0000 F3600.00
G1 X64.5050 Y-22.4950 Z-1.0000 F3600.00
G1 X64.9429 Y-22.0571 Z-1.0000 F3600.00
G1 X64.5050 Y-22.4950 Z-1.0000 F3600.00
G1 X64.5050 Y-22.4950 Z-2.0000 F3600.00
G1 X64.4950 Y-22.4950 Z-2.0000 F3600.00
G1 X64.0571 Y-22.0571 Z-2.0000 F3600.00
G1 X64.4950 Y-22.4950 Z-2.0000 F3600.00
G1 X64.4950 Y-25.5050 Z-2.0000 F3600.00
G1 X64.4950 Y-25.5050 Z-2.0000 F3600.00
G1 X64.0571 Y-25.9429 Z-2.0000 F3600.00
G1 X64.4950 Y-25.5050 Z-2.0000 F3600.00
G1 X64.5050 Y-25.5050 Z-2.0000 F3600.00
G1 X64.5050 Y-25.5050 Z-2.0000 F3600.00
G1 X64.9429 Y-25.9429 Z-2.0000 F3600.00
G1 X64.5050 Y-25.5050 Z-2.0000 F3600.00
G1 X64.5050 Y-22.4950 Z-2.0000 F3600.00
G1 X64.5050 Y-22.4950 Z-2.0000 F3600.00
G1 X64.9429 Y-22.0571 Z-2.0000 F3600.00
G1 X64.5050 Y-22.4950 Z-2.0000 F3600.00
G1 X64.5050 Y-22.4950 Z-3.0000 F3600.00
G1 X64.4950 Y-22.4950 Z-3.0000 F3600.00
G1 X64.0571 Y-22.0571 Z-3.0000 F3600.00
G1 X64.4950 Y-22.4950 Z-3.0000 F3600.00
G1 X64.4950 Y-25.5050 Z-3.0000 F3600.00
G1 X64.4950 Y-25.5050 Z-3.0000 F3600.00
G1 X64.0571 Y-25.9429 Z-3.0000 F3600.00
G1 X64.4950 Y-25.5050 Z-3.0000 F3600.00
G1 X64.5050 Y-25.5050 Z-3.0000 F3600.00
G1 X64.5050 Y-25.5050 Z-3.0000 F3600.00
G1 X64.9429 Y-25.9429 Z-3.0000 F3600.00
G1 X64.5050 Y-25.5050 Z-3.0000 F3600.00
G1 X64.5050 Y-22.4950 Z-3.0000 F3600.00
G1 X64.5050 Y-22.4950 Z-3.0000 F3600.00
G1 X64.9429 Y-22.0571 Z-3.0000 F3600.00
G1 X64.5050 Y-22.4950 Z-3.0000 F3600.00
G1 X64.5050 Y-22.4950 Z-4.0000 F3600.00
G1 X64.4950 Y-22.4950 Z-4.0000 F3600.00
G1 X64.0571 Y-22.0571 Z-4.0000 F3600.00
G1 X64.4950 Y-22.4950 Z-4.0000 F3600.00
G1 X64.4950 Y-25.5050 Z-4.0000 F3600.00
G1 X64.4950 Y-25.5050 Z-4.0000 F3600.00
G1 X64.0571 Y-25.9429 Z-4.0000 F3600.00
G1 X64.4950 Y-25.5050 Z-4.0000 F3600.00
G1 X64.5050 Y-25.5050 Z-4.0000 F3600.00
G1 X64.5050 Y-25.5050 Z-4.0000 F3600.00
G1 X64.9429 Y-25.9429 Z-4.0000 F3600.00
G1 X64.5050 Y-25.5050 Z-4.0000 F3600.00
G1 X64.5050 Y-22.4950 Z-4.0000 F3600.00
G1 X64.5050 Y-22.4950 Z-4.0000 F3600.00
G1 X64.9429 Y-22.0571 Z-4.0000 F3600.00
G1 X64.5050 Y-22.4950 Z-4.0000 F3600.00
G1 X64.5050 Y-22.4950 Z-4.5000 F3600.00
G1 X64.4950 Y-22.4950 Z-4.5000 F3600.00
G1 X64.0571 Y-22.0571 Z-4.5000 F3600.00
G1 X64.4950 Y-22.4950 Z-4.5000 F3600.00
G1 X64.4950 Y-25.5050 Z-4.5000 F3600.00
G1 X64.4950 Y-25.5050 Z-4.5000 F3600.00
G1 X64.0571 Y-25.9429 Z-4.5000 F3600.00
G1 X64.4950 Y-25.5050 Z-4.5000 F3600.00
G1 X64.5050 Y-25.5050 Z-4.5000 F3600.00
G1 X64.5050 Y-25.5050 Z-4.5000 F3600.00
G1 X64.9429 Y-25.9429 Z-4.5000 F3600.00
G1 X64.5050 Y-25.5050 Z-4.5000 F3600.00
G1 X64.5050 Y-22.4950 Z-4.5000 F3600.00
G1 X64.5050 Y-22.4950 Z-4.5000 F3600.00
G1 X64.9429 Y-22.0571 Z-4.5000 F3600.00
G1 X64.5050 Y-22.4950 Z-4.5000 F3600.00
G0 Z5.0000
(Block-name: block)
(Block-expand: 0)
(Block-enable: 1)
G0 X64.5050 Y1.5050
G0 Z3.0000
G1 X64.5050 Y1.5050 Z-1.0000 F3600.00
G1 X64.4950 Y1.5050 Z-1.0000 F3600.00
G1 X64.0571 Y1.9429 Z-1.0000 F3600.00
G1 X64.4950 Y1.5050 Z-1.0000 F3600.00
G1 X64.4950 Y-1.5050 Z-1.0000 F3600.00
G1 X64.4950 Y-1.5050 Z-1.0000 F3600.00
G1 X64.0571 Y-1.9429 Z-1.0000 F3600.00
G1 X64.4950 Y-1.5050 Z-1.0000 F3600.00
G1 X64.5050 Y-1.5050 Z-1.0000 F3600.00
G1 X64.5050 Y-1.5050 Z-1.0000 F3600.00
G1 X64.9429 Y-1.9429 Z-1.0000 F3600.00
G1 X64.5050 Y-1.5050 Z-1.0000 F3600.00
G1 X64.5050 Y1.5050 Z-1.0000 F3600.00
G1 X64.5050 Y1.5050 Z-1.0000 F3600.00
G1 X64.9429 Y1.9429 Z-1.0000 F3600.00
G1 X64.5050 Y1.5050 Z-1.0000 F3600.00
G1 X64.5050 Y1.5050 Z-2.0000 F3600.00
G1 X64.4950 Y1.5050 Z-2.0000 F3600.00
G1 X64.0571 Y1.9429 Z-2.0000 F3600.00
G1 X64.4950 Y1.5050 Z-2.0000 F3600.00
G1 X64.4950 Y-1.5050 Z-2.0000 F3600.00
G1 X64.4950 Y-1.5050 Z-2.0000 F3600.00
G1 X64.0571 Y-1.9429 Z-2.0000 F3600.00
G1 X64.4950 Y-1.5050 Z-2.0000 F3600.00
G1 X64.5050 Y-1.5050 Z-2.0000 F3600.00
G1 X64.5050 Y-1.5050 Z-2.0000 F3600.00
G1 X64.9429 Y-1.9429 Z-2.0000 F3600.00
G1 X64.5050 Y-1.5050 Z-2.0000 F3600.00
G1 X64.5050 Y1.5050 Z-2.0000 F3600.00
G1 X64.5050 Y1.5050 Z-2.0000 F3600.00
G1 X64.9429 Y1.9429 Z-2.0000 F3600.00
G1 X64.5050 Y1.5050 Z-2.0000 F3600.00
G1 X64.5050 Y1.5050 Z-3.0000 F3600.00
G1 X64.4950 Y1.5050 Z-3.0000 F3600.00
G1 X64.0571 Y1.9429 Z-3.0000 F3600.00
G1 X64.4950 Y1.5050 Z-3.0000 F3600.00
G1 X64.4950 Y-1.5050 Z-3.0000 F3600.00
G1 X64.4950 Y-1.5050 Z-3.0000 F3600.00
G1 X64.0571 Y-1.9429 Z-3.0000 F3600.00
G1 X64.4950 Y-1.5050 Z-3.0000 F3600.00
G1 X64.5050 Y-1.5050 Z-3.0000 F3600.00
G1 X64.5050 Y-1.5050 Z-3.0000 F3600.00
G1 X64.9429 Y-1.9429 Z-3.0000 F3600.00
G1 X64.5050 Y-1.5050 Z-3.0000 F3600.00
G1 X64.5050 Y1.5050 Z-3.0000 F3600.00
G1 X64.5050 Y1.5050 Z-3.0000 F3600.00
G1 X64.9429 Y1.9429 Z-3.0000 F3600.00
G1 X64.5050 Y1.5050 Z-3.0000 F3600.00
G1 X64.5050 Y1.5050 Z-4.0000 F3600.00
G1 X64.4950 Y1.5050 Z-4.0000 F3600.00
G1 X64.0571 Y1.9429 Z-4.0000 F3600.00
G1 X64.4950 Y1.5050 Z-4.0000 F3600.00
G1 X64.4950 Y-1.5050 Z-4.0000 F3600.00
G1 X64.4950 Y-1.5050 Z-4.0000 F3600.00
G1 X64.0571 Y-1.9429 Z-4.0000 F3600.00
G1 X64.4950 Y-1.5050 Z-4.0000 F3600.00
G1 X64.5050 Y-1.5050 Z-4.0000 F3600.00
G1 X64.5050 Y-1.5050 Z-4.0000 F3600.00
G1 X64.9429 Y-1.9429 Z-4.0000 F3600.00
G1 X64.5050 Y-1.5050 Z-4.0000 F3600.00
G1 X64.5050 Y1.5050 Z-4.0000 F3600.00
G1 X64.5050 Y1.5050 Z-4.0000 F3600.00
G1 X64.9429 Y1.9429 Z-4.0000 F3600.00
G1 X64.5050 Y1.5050 Z-4.0000 F3600.00
G1 X64.5050 Y1.5050 Z-4.5000 F3600.00
G1 X64.4950 Y1.5050 Z-4.5000 F3600.00
G1 X64.0571 Y1.9429 Z-4.5000 F3600.00
G1 X64.4950 Y1.5050 Z-4.5000 F3600.00
G1 X64.4950 Y-1.5050 Z-4.5000 F3600.00
G1 X64.4950 Y-1.5050 Z-4.5000 F3600.00
G1 X64.0571 Y-1.9429 Z-4.5000 F3600.00
G1 X64.4950 Y-1.5050 Z-4.5000 F3600.00
G1 X64.5050 Y-1.5050 Z-4.5000 F3600.00
G1 X64.5050 Y-1.5050 Z-4.5000 F3600.00
G1 X64.9429 Y-1.9429 Z-4.5000 F3600.00
G1 X64.5050 Y-1.5050 Z-4.5000 F3600.00
G1 X64.5050 Y1.5050 Z-4.5000 F3600.00
G1 X64.5050 Y1.5050 Z-4.5000 F3600.00
G1 X64.9429 Y1.9429 Z-4.5000 F3600.00
G1 X64.5050 Y1.5050 Z-4.5000 F3600.00
G0 Z5.0000
(Block-name: block)
(Block-expand: 0)
(Block-enable: 1)
G0 X64.5050 Y-10.4950
G0 Z3.0000
G1 X64.5050 Y-10.4950 Z-1.0000 F3600.00
G1 X64.4950 Y-10.4950 Z-1.0000 F3600.00
G1 X64.0571 Y-10.0571 Z-1.0000 F3600.00
G1 X64.4950 Y-10.4950 Z-1.0000 F3600.00
G1 X64.4950 Y-13.5050 Z-1.0000 F3600.00
G1 X64.4950 Y-13.5050 Z-1.0000 F3600.00
G1 X64.0571 Y-13.9429 Z-1.0000 F3600.00
G1 X64.4950 Y-13.5050 Z-1.0000 F3600.00
G1 X64.5050 Y-13.5050 Z-1.0000 F3600.00
G1 X64.5050 Y-13.5050 Z-1.0000 F3600.00
G1 X64.9429 Y-13.9429 Z-1.0000 F3600.00
G1 X64.5050 Y-13.5050 Z-1.0000 F3600.00
G1 X64.5050 Y-10.4950 Z-1.0000 F3600.00
G1 X64.5050 Y-10.4950 Z-1.0000 F3600.00
G1 X64.9429 Y-10.0571 Z-1.0000 F3600.00
G1 X64.5050 Y-10.4950 Z-1.0000 F3600.00
G1 X64.5050 Y-10.4950 Z-2.0000 F3600.00
G1 X64.4950 Y-10.4950 Z-2.0000 F3600.00
G1 X64.0571 Y-10.0571 Z-2.0000 F3600.00
G1 X64.4950 Y-10.4950 Z-2.0000 F3600.00
G1 X64.4950 Y-13.5050 Z-2.0000 F3600.00
G1 X64.4950 Y-13.5050 Z-2.0000 F3600.00
G1 X64.0571 Y-13.9429 Z-2.0000 F3600.00
G1 X64.4950 Y-13.5050 Z-2.0000 F3600.00
G1 X64.5050 Y-13.5050 Z-2.0000 F3600.00
G1 X64.5050 Y-13.5050 Z-2.0000 F3600.00
G1 X64.9429 Y-13.9429 Z-2.0000 F3600.00
G1 X64.5050 Y-13.5050 Z-2.0000 F3600.00
G1 X64.5050 Y-10.4950 Z-2.0000 F3600.00
G1 X64.5050 Y-10.4950 Z-2.0000 F3600.00
G1 X64.9429 Y-10.0571 Z-2.0000 F3600.00
G1 X64.5050 Y-10.4950 Z-2.0000 F3600.00
G1 X64.5050 Y-10.4950 Z-3.0000 F3600.00
G1 X64.4950 Y-10.4950 Z-3.0000 F3600.00
G1 X64.0571 Y-10.0571 Z-3.0000 F3600.00
G1 X64.4950 Y-10.4950 Z-3.0000 F3600.00
G1 X64.4950 Y-13.5050 Z-3.0000 F3600.00
G1 X64.4950 Y-13.5050 Z-3.0000 F3600.00
G1 X64.0571 Y-13.9429 Z-3.0000 F3600.00
G1 X64.4950 Y-13.5050 Z-3.0000 F3600.00
G1 X64.5050 Y-13.5050 Z-3.0000 F3600.00
G1 X64.5050 Y-13.5050 Z-3.0000 F3600.00
G1 X64.9429 Y-13.9429 Z-3.0000 F3600.00
G1 X64.5050 Y-13.5050 Z-3.0000 F3600.00
G1 X64.5050 Y-10.4950 Z-3.0000 F3600.00
G1 X64.5050 Y-10.4950 Z-3.0000 F3600.00
G1 X64.9429 Y-10.0571 Z-3.0000 F3600.00
G1 X64.5050 Y-10.4950 Z-3.0000 F3600.00
G1 X64.5050 Y-10.4950 Z-4.0000 F3600.00
G1 X64.4950 Y-10.4950 Z-4.0000 F3600.00
G1 X64.0571 Y-10.0571 Z-4.0000 F3600.00
G1 X64.4950 Y-10.4950 Z-4.0000 F3600.00
G1 X64.4950 Y-13.5050 Z-4.0000 F3600.00
G1 X64.4950 Y-13.5050 Z-4.0000 F3600.00
G1 X64.0571 Y-13.9429 Z-4.0000 F3600.00
G1 X64.4950 Y-13.5050 Z-4.0000 F3600.00
G1 X64.5050 Y-13.5050 Z-4.0000 F3600.00
G1 X64.5050 Y-13.5050 Z-4.0000 F3600.00
G1 X64.9429 Y-13.9429 Z-4.0000 F3600.00
G1 X64.5050 Y-13.5050 Z-4.0000 F3600.00
G1 X64.5050 Y-10.4950 Z-4.0000 F3600.00
G1 X64.5050 Y-10.4950 Z-4.0000 F3600.00
G1 X64.9429 Y-10.0571 Z-4.0000 F3600.00
G1 X64.5050 Y-10.4950 Z-4.0000 F3600.00
G1 X64.5050 Y-10.4950 Z-4.5000 F3600.00
G1 X64.4950 Y-10.4950 Z-4.5000 F3600.00
G1 X64.0571 Y-10.0571 Z-4.5000 F3600.00
G1 X64.4950 Y-10.4950 Z-4.5000 F3600.00
G1 X64.4950 Y-13.5050 Z-4.5000 F3600.00
G1 X64.4950 Y-13.5050 Z-4.5000 F3600.00
G1 X64.0571 Y-13.9429 Z-4.5000 F3600.00
G1 X64.4950 Y-13.5050 Z-4.5000 F3600.00
G1 X64.5050 Y-13.5050 Z-4.5000 F3600.00
G1 X64.5050 Y-13.5050 Z-4.5000 F3600.00
G1 X64.9429 Y-13.9429 Z-4.5000 F3600.00
G1 X64.5050 Y-13.5050 Z-4.5000 F3600.00
G1 X64.5050 Y-10.4950 Z-4.5000 F3600.00
G1 X64.5050 Y-10.4950 Z-4.5000 F3600.00
G1 X64.9429 Y-10.0571 Z-4.5000 F3600.00
G1 X64.5050 Y-10.4950 Z-4.5000 F3600.00
G0 Z5.0000
(Block-name: block)
(Block-expand: 0)
(Block-enable: 1)
G0 X49.5050 Y64.5050
G0 Z3.0000
G1 X49.5050 Y64.5050 Z-1.0000 F3600.00
G1 X46.4950 Y64.5050 Z-1.0000 F3600.00
G1 X46.0571 Y64.9429 Z-1.0000 F3600.00
G1 X46.4950 Y64.5050 Z-1.0000 F3600.00
G1 X46.4950 Y64.4950 Z-1.0000 F3600.00
G1 X46.4950 Y64.4950 Z-1.0000 F3600.00
G1 X46.0571 Y64.0571 Z-1.0000 F3600.00
G1 X46.4950 Y64.4950 Z-1.0000 F3600.00
G1 X49.5050 Y64.4950 Z-1.0000 F3600.00
G1 X49.5050 Y64.4950 Z-1.0000 F3600.00
G1 X49.9429 Y64.0571 Z-1.0000 F3600.00
G1 X49.5050 Y64.4950 Z-1.0000 F3600.00
G1 X49.5050 Y64.5050 Z-1.0000 F3600.00
G1 X49.5050 Y64.5050 Z-1.0000 F3600.00
G1 X49.9429 Y64.9429 Z-1.0000 F3600.00
G1 X49.5050 Y64.5050 Z-1.0000 F3600.00
G1 X49.5050 Y64.5050 Z-2.0000 F3600.00
G1 X46.4950 Y64.5050 Z-2.0000 F3600.00
G1 X46.0571 Y64.9429 Z-2.0000 F3600.00
G1 X46.4950 Y64.5050 Z-2.0000 F3600.00
G1 X46.4950 Y64.4950 Z-2.0000 F3600.00
G1 X46.4950 Y64.4950 Z-2.0000 F3600.00
G1 X46.0571 Y64.0571 Z-2.0000 F3600.00
G1 X46.4950 Y64.4950 Z-2.0000 F3600.00
G1 X49.5050 Y64.4950 Z-2.0000 F3600.00
G1 X49.5050 Y64.4950 Z-2.0000 F3600.00
G1 X49.9429 Y64.0571 Z-2.0000 F3600.00
G1 X49.5050 Y64.4950 Z-2.0000 F3600.00
G1 X49.5050 Y64.5050 Z-2.0000 F3600.00
G1 X49.5050 Y64.5050 Z-2.0000 F3600.00
G1 X49.9429 Y64.9429 Z-2.0000 F3600.00
G1 X49.5050 Y64.5050 Z-2.0000 F3600.00
G1 X49.5050 Y64.5050 Z-3.0000 F3600.00
G1 X46.4950 Y64.5050 Z-3.0000 F3600.00
G1 X46.0571 Y64.9429 Z-3.0000 F3600.00
G1 X46.4950 Y64.5050 Z-3.0000 F3600.00
G1 X46.4950 Y64.4950 Z-3.0000 F3600.00
G1 X46.4950 Y64.4950 Z-3.0000 F3600.00
G1 X46.0571 Y64.0571 Z-3.0000 F3600.00
G1 X46.4950 Y64.4950 Z-3.0000 F3600.00
G1 X49.5050 Y64.4950 Z-3.0000 F3600.00
G1 X49.5050 Y64.4950 Z-3.0000 F3600.00
G1 X49.9429 Y64.0571 Z-3.0000 F3600.00
G1 X49.5050 Y64.4950 Z-3.0000 F3600.00
G1 X49.5050 Y64.5050 Z-3.0000 F3600.00
G1 X49.5050 Y64.5050 Z-3.0000 F3600.00
G1 X49.9429 Y64.9429 Z-3.0000 F3600.00
G1 X49.5050 Y64.5050 Z-3.0000 F3600.00
G1 X49.5050 Y64.5050 Z-4.0000 F3600.00
G1 X46.4950 Y64.5050 Z-4.0000 F3600.00
G1 X46.0571 Y64.9429 Z-4.0000 F3600.00
G1 X46.4950 Y64.5050 Z-4.0000 F3600.00
G1 X46.4950 Y64.4950 Z-4.0000 F3600.00
G1 X46.4950 Y64.4950 Z-4.0000 F3600.00
G1 X46.0571 Y64.0571 Z-4.0000 F3600.00
G1 X46.4950 Y64.4950 Z-4.0000 F3600.00
G1 X49.5050 Y64.4950 Z-4.0000 F3600.00
G1 X49.5050 Y64.4950 Z-4.0000 F3600.00
G1 X49.9429 Y64.0571 Z-4.0000 F3600.00
G1 X49.5050 Y64.4950 Z-4.0000 F3600.00
G1 X49.5050 Y64.5050 Z-4.0000 F3600.00
G1 X49.5050 Y64.5050 Z-4.0000 F3600.00
G1 X49.9429 Y64.9429 Z-4.0000 F3600.00
G1 X49.5050 Y64.5050 Z-4.0000 F3600.00
G1 X49.5050 Y64.5050 Z-4.5000 F3600.00
G1 X46.4950 Y64.5050 Z-4.5000 F3600.00
G1 X46.0571 Y64.9429 Z-4.5000 F3600.00
G1 X46.4950 Y64.5050 Z-4.5000 F3600.00
G1 X46.4950 Y64.4950 Z-4.5000 F3600.00
G1 X46.4950 Y64.4950 Z-4.5000 F3600.00
G1 X46.0571 Y64.0571 Z-4.5000 F3600.00
G1 X46.4950 Y64.4950 Z-4.5000 F3600.00
G1 X49.5050 Y64.4950 Z-4.5000 F3600.00
G1 X49.5050 Y64.4950 Z-4.5000 F3600.00
G1 X49.9429 Y64.0571 Z-4.5000 F3600.00
G1 X49.5050 Y64.4950 Z-4.5000 F3600.00
G1 X49.5050 Y64.5050 Z-4.5000 F3600.00
G1 X49.5050 Y64.5050 Z-4.5000 F3600.00
G1 X49.9429 Y64.9429 Z-4.5000 F3600.00
G1 X49.5050 Y64.5050 Z-4.5000 F3600.00
G0 Z5.0000
(Block-name: block)
(Block-expand: 0)
(Block-enable: 1)
G0 X64.5050 Y61.5050
G0 Z3.0000
G1 X64.5050 Y61.5050 Z-1.0000 F3600.00
G1 X64.4950 Y61.5050 Z-1.0000 F3600.00
G1 X64.0571 Y61.9429 Z-1.0000 F3600.00
G1 X64.4950 Y61.5050 Z-1.0000 F3600.00
G1 X64.4950 Y58.4950 Z-1.0000 F3600.00
G1 X64.4950 Y58.4950 Z-1.0000 F3600.00
G1 X64.0571 Y58.0571 Z-1.0000 F3600.00
G1 X64.4950 Y58.4950 Z-1.0000 F3600.00
G1 X64.5050 Y58.4950 Z-1.0000 F3600.00
G1 X64.5050 Y58.4950 Z-1.0000 F3600.00
G1 X64.9429 Y58.0571 Z-1.0000 F3600.00
G1 X64.5050 Y58.4950 Z-1.0000 F3600.00
G1 X64.5050 Y61.5050 Z-1.0000 F3600.00
G1 X64.5050 Y61.5050 Z-1.0000 F3600.00
G1 X64.9429 Y61.9429 Z-1.0000 F3600.00
G1 X64.5050 Y61.5050 Z-1.0000 F3600.00
G1 X64.5050 Y61.5050 Z-2.0000 F3600.00
G1 X64.4950 Y61.5050 Z-2.0000 F3600.00
G1 X64.0571 Y61.9429 Z-2.0000 F3600.00
G1 X64.4950 Y61.5050 Z-2.0000 F3600.00
G1 X64.4950 Y58.4950 Z-2.0000 F3600.00
G1 X64.4950 Y58.4950 Z-2.0000 F3600.00
G1 X64.0571 Y58.0571 Z-2.0000 F3600.00
G1 X64.4950 Y58.4950 Z-2.0000 F3600.00
G1 X64.5050 Y58.4950 Z-2.0000 F3600.00
G1 X64.5050 Y58.4950 Z-2.0000 F3600.00
G1 X64.9429 Y58.0571 Z-2.0000 F3600.00
G1 X64.5050 Y58.4950 Z-2.0000 F3600.00
G1 X64.5050 Y61.5050 Z-2.0000 F3600.00
G1 X64.5050 Y61.5050 Z-2.0000 F3600.00
G1 X64.9429 Y61.9429 Z-2.0000 F3600.00
G1 X64.5050 Y61.5050 Z-2.0000 F3600.00
G1 X64.5050 Y61.5050 Z-3.0000 F3600.00
G1 X64.4950 Y61.5050 Z-3.0000 F3600.00
G1 X64.0571 Y61.9429 Z-3.0000 F3600.00
G1 X64.4950 Y61.5050 Z-3.0000 F3600.00
G1 X64.4950 Y58.4950 Z-3.0000 F3600.00
G1 X64.4950 Y58.4950 Z-3.0000 F3600.00
G1 X64.0571 Y58.0571 Z-3.0000 F3600.00
G1 X64.4950 Y58.4950 Z-3.0000 F3600.00
G1 X64.5050 Y58.4950 Z-3.0000 F3600.00
G1 X64.5050 Y58.4950 Z-3.0000 F3600.00
G1 X64.9429 Y58.0571 Z-3.0000 F3600.00
G1 X64.5050 Y58.4950 Z-3.0000 F3600.00
G1 X64.5050 Y61.5050 Z-3.0000 F3600.00
G1 X64.5050 Y61.5050 Z-3.0000 F3600.00
G1 X64.9429 Y61.9429 Z-3.0000 F3600.00
G1 X64.5050 Y61.5050 Z-3.0000 F3600.00
G1 X64.5050 Y61.5050 Z-4.0000 F3600.00
G1 X64.4950 Y61.5050 Z-4.0000 F3600.00
G1 X64.0571 Y61.9429 Z-4.0000 F3600.00
G1 X64.4950 Y61.5050 Z-4.0000 F3600.00
G1 X64.4950 Y58.4950 Z-4.0000 F3600.00
G1 X64.4950 Y58.4950 Z-4.0000 F3600.00
G1 X64.0571 Y58.0571 Z-4.0000 F3600.00
G1 X64.4950 Y58.4950 Z-4.0000 F3600.00
G1 X64.5050 Y58.4950 Z-4.0000 F3600.00
G1 X64.5050 Y58.4950 Z-4.0000 F3600.00
G1 X64.9429 Y58.0571 Z-4.0000 F3600.00
G1 X64.5050 Y58.4950 Z-4.0000 F3600.00
G1 X64.5050 Y61.5050 Z-4.0000 F3600.00
G1 X64.5050 Y61.5050 Z-4.0000 F3600.00
G1 X64.9429 Y61.9429 Z-4.0000 F3600.00
G1 X64.5050 Y61.5050 Z-4.0000 F3600.00
G1 X64.5050 Y61.5050 Z-4.5000 F3600.00
G1 X64.4950 Y61.5050 Z-4.5000 F3600.00
G1 X64.0571 Y61.9429 Z-4.5000 F3600.00
G1 X64.4950 Y61.5050 Z-4.5000 F3600.00
G1 X64.4950 Y58.4950 Z-4.5000 F3600.00
G1 X64.4950 Y58.4950 Z-4.5000 F3600.00
G1 X64.0571 Y58.0571 Z-4.5000 F3600.00
G1 X64.4950 Y58.4950 Z-4.5000 F3600.00
G1 X64.5050 Y58.4950 Z-4.5000 F3600.00
G1 X64.5050 Y58.4950 Z-4.5000 F3600.00
G1 X64.9429 Y58.0571 Z-4.5000 F3600.00
G1 X64.5050 Y58.4950 Z-4.5000 F3600.00
G1 X64.5050 Y61.5050 Z-4.5000 F3600.00
G1 X64.5050 Y61.5050 Z-4.5000 F3600.00
G1 X64.9429 Y61.9429 Z-4.5000 F3600.00
G1 X64.5050 Y61.5050 Z-4.5000 F3600.00
G0 Z5.0000
(Block-name: block)
(Block-expand: 0)
(Block-enable: 1)
G0 X61.5050 Y64.5050
G0 Z3.0000
G1 X61.5050 Y64.5050 Z-1.0000 F3600.00
G1 X58.4950 Y64.5050 Z-1.0000 F3600.00
G1 X58.0571 Y64.9429 Z-1.0000 F3600.00
G1 X58.4950 Y64.5050 Z-1.0000 F3600.00
G1 X58.4950 Y64.4950 Z-1.0000 F3600.00
G1 X58.4950 Y64.4950 Z-1.0000 F3600.00
G1 X58.0571 Y64.0571 Z-1.0000 F3600.00
G1 X58.4950 Y64.4950 Z-1.0000 F3600.00
G1 X61.5050 Y64.4950 Z-1.0000 F3600.00
G1 X61.5050 Y64.4950 Z-1.0000 F3600.00
G1 X61.9429 Y64.0571 Z-1.0000 F3600.00
G1 X61.5050 Y64.4950 Z-1.0000 F3600.00
G1 X61.5050 Y64.5050 Z-1.0000 F3600.00
G1 X61.5050 Y64.5050 Z-1.0000 F3600.00
G1 X61.9429 Y64.9429 Z-1.0000 F3600.00
G1 X61.5050 Y64.5050 Z-1.0000 F3600.00
G1 X61.5050 Y64.5050 Z-2.0000 F3600.00
G1 X58.4950 Y64.5050 Z-2.0000 F3600.00
G1 X58.0571 Y64.9429 Z-2.0000 F3600.00
G1 X58.4950 Y64.5050 Z-2.0000 F3600.00
G1 X58.4950 Y64.4950 Z-2.0000 F3600.00
G1 X58.4950 Y64.4950 Z-2.0000 F3600.00
G1 X58.0571 Y64.0571 Z-2.0000 F3600.00
G1 X58.4950 Y64.4950 Z-2.0000 F3600.00
G1 X61.5050 Y64.4950 Z-2.0000 F3600.00
G1 X61.5050 Y64.4950 Z-2.0000 F3600.00
G1 X61.9429 Y64.0571 Z-2.0000 F3600.00
G1 X61.5050 Y64.4950 Z-2.0000 F3600.00
G1 X61.5050 Y64.5050 Z-2.0000 F3600.00
G1 X61.5050 Y64.5050 Z-2.0000 F3600.00
G1 X61.9429 Y64.9429 Z-2.0000 F3600.00
G1 X61.5050 Y64.5050 Z-2.0000 F3600.00
G1 X61.5050 Y64.5050 Z-3.0000 F3600.00
G1 X58.4950 Y64.5050 Z-3.0000 F3600.00
G1 X58.0571 Y64.9429 Z-3.0000 F3600.00
G1 X58.4950 Y64.5050 Z-3.0000 F3600.00
G1 X58.4950 Y64.4950 Z-3.0000 F3600.00
G1 X58.4950 Y64.4950 Z-3.0000 F3600.00
G1 X58.0571 Y64.0571 Z-3.0000 F3600.00
G1 X58.4950 Y64.4950 Z-3.0000 F3600.00
G1 X61.5050 Y64.4950 Z-3.0000 F3600.00
G1 X61.5050 Y64.4950 Z-3.0000 F3600.00
G1 X61.9429 Y64.0571 Z-3.0000 F3600.00
G1 X61.5050 Y64.4950 Z-3.0000 F3600.00
G1 X61.5050 Y64.5050 Z-3.0000 F3600.00
G1 X61.5050 Y64.5050 Z-3.0000 F3600.00
G1 X61.9429 Y64.9429 Z-3.0000 F3600.00
G1 X61.5050 Y64.5050 Z-3.0000 F3600.00
G1 X61.5050 Y64.5050 Z-4.0000 F3600.00
G1 X58.4950 Y64.5050 Z-4.0000 F3600.00
G1 X58.0571 Y64.9429 Z-4.0000 F3600.00
G1 X58.4950 Y64.5050 Z-4.0000 F3600.00
G1 X58.4950 Y64.4950 Z-4.0000 F3600.00
G1 X58.4950 Y64.4950 Z-4.0000 F3600.00
G1 X58.0571 Y64.0571 Z-4.0000 F3600.00
G1 X58.4950 Y64.4950 Z-4.0000 F3600.00
G1 X61.5050 Y64.4950 Z-4.0000 F3600.00
G1 X61.5050 Y64.4950 Z-4.0000 F3600.00
G1 X61.9429 Y64.0571 Z-4.0000 F3600.00
G1 X61.5050 Y64.4950 Z-4.0000 F3600.00
G1 X61.5050 Y64.5050 Z-4.0000 F3600.00
G1 X61.5050 Y64.5050 Z-4.0000 F3600.00
G1 X61.9429 Y64.9429 Z-4.0000 F3600.00
G1 X61.5050 Y64.5050 Z-4.0000 F3600.00
G1 X61.5050 Y64.5050 Z-4.5000 F3600.00
G1 X58.4950 Y64.5050 Z-4.5000 F3600.00
G1 X58.0571 Y64.9429 Z-4.5000 F3600.00
G1 X58.4950 Y64.5050 Z-4.5000 F3600.00
G1 X58.4950 Y64.4950 Z-4.5000 F3600.00
G1 X58.4950 Y64.4950 Z-4.5000 F3600.00
G1 X58.0571 Y64.0571 Z-4.5000 F3600.00
G1 X58.4950 Y64.4950 Z-4.5000 F3600.00
G1 X61.5050 Y64.4950 Z-4.5000 F3600.00
G1 X61.5050 Y64.4950 Z-4.5000 F3600.00
G1 X61.9429 Y64.0571 Z-4.5000 F3600.00
G1 X61.5050 Y64.4950 Z-4.5000 F3600.00
G1 X61.5050 Y64.5050 Z-4.5000 F3600.00
G1 X61.5050 Y64.5050 Z-4.5000 F3600.00
G1 X61.9429 Y64.9429 Z-4.5000 F3600.00
G1 X61.5050 Y64.5050 Z-4.5000 F3600.00
G0 Z5.0000
(Block-name: block)
(Block-expand: 0)
(Block-enable: 1)
G0 X64.5050 Y49.5050
G0 Z3.0000
G1 X64.5050 Y49.5050 Z-1.0000 F3600.00
G1 X64.4950 Y49.5050 Z-1.0000 F3600.00
G1 X64.0571 Y49.9429 Z-1.0000 F3600.00
G1 X64.4950 Y49.5050 Z-1.0000 F3600.00
G1 X64.4950 Y46.4950 Z-1.0000 F3600.00
G1 X64.4950 Y46.4950 Z-1.0000 F3600.00
G1 X64.0571 Y46.0571 Z-1.0000 F3600.00
G1 X64.4950 Y46.4950 Z-1.0000 F3600.00
G1 X64.5050 Y46.4950 Z-1.0000 F3600.00
G1 X64.5050 Y46.4950 Z-1.0000 F3600.00
G1 X64.9429 Y46.0571 Z-1.0000 F3600.00
G1 X64.5050 Y46.4950 Z-1.0000 F3600.00
G1 X64.5050 Y49.5050 Z-1.0000 F3600.00
G1 X64.5050 Y49.5050 Z-1.0000 F3600.00
G1 X64.9429 Y49.9429 Z-1.0000 F3600.00
G1 X64.5050 Y49.5050 Z-1.0000 F3600.00
G1 X64.5050 Y49.5050 Z-2.0000 F3600.00
G1 X64.4950 Y49.5050 Z-2.0000 F3600.00
G1 X64.0571 Y49.9429 Z-2.0000 F3600.00
G1 X64.4950 Y49.5050 Z-2.0000 F3600.00
G1 X64.4950 Y46.4950 Z-2.0000 F3600.00
G1 X64.4950 Y46.4950 Z-2.0000 F3600.00
G1 X64.0571 Y46.0571 Z-2.0000 F3600.00
G1 X64.4950 Y46.4950 Z-2.0000 F3600.00
G1 X64.5050 Y46.4950 Z-2.0000 F3600.00
G1 X64.5050 Y46.4950 Z-2.0000 F3600.00
G1 X64.9429 Y46.0571 Z-2.0000 F3600.00
G1 X64.5050 Y46.4950 Z-2.0000 F3600.00
G1 X64.5050 Y49.5050 Z-2.0000 F3600.00
G1 X64.5050 Y49.5050 Z-2.0000 F3600.00
G1 X64.9429 Y49.9429 Z-2.0000 F3600.00
G1 X64.5050 Y49.5050 Z-2.0000 F3600.00
G1 X64.5050 Y49.5050 Z-3.0000 F3600.00
G1 X64.4950 Y49.5050 Z-3.0000 F3600.00
G1 X64.0571 Y49.9429 Z-3.0000 F3600.00
G1 X64.4950 Y49.5050 Z-3.0000 F3600.00
G1 X64.4950 Y46.4950 Z-3.0000 F3600.00
G1 X64.4950 Y46.4950 Z-3.0000 F3600.00
G1 X64.0571 Y46.0571 Z-3.0000 F3600.00
G1 X64.4950 Y46.4950 Z-3.0000 F3600.00
G1 X64.5050 Y46.4950 Z-3.0000 F3600.00
G1 X64.5050 Y46.4950 Z-3.0000 F3600.00
G1 X64.9429 Y46.0571 Z-3.0000 F3600.00
G1 X64.5050 Y46.4950 Z-3.0000 F3600.00
G1 X64.5050 Y49.5050 Z-3.0000 F3600.00
G1 X64.5050 Y49.5050 Z-3.0000 F3600.00
G1 X64.9429 Y49.9429 Z-3.0000 F3600.00
G1 X64.5050 Y49.5050 Z-3.0000 F3600.00
G1 X64.5050 Y49.5050 Z-4.0000 F3600.00
G1 X64.4950 Y49.5050 Z-4.0000 F3600.00
G1 X64.0571 Y49.9429 Z-4.0000 F3600.00
G1 X64.4950 Y49.5050 Z-4.0000 F3600.00
G1 X64.4950 Y46.4950 Z-4.0000 F3600.00
G1 X64.4950 Y46.4950 Z-4.0000 F3600.00
G1 X64.0571 Y46.0571 Z-4.0000 F3600.00
G1 X64.4950 Y46.4950 Z-4.0000 F3600.00
G1 X64.5050 Y46.4950 Z-4.0000 F3600.00
G1 X64.5050 Y46.4950 Z-4.0000 F3600.00
G1 X64.9429 Y46.0571 Z-4.0000 F3600.00
G1 X64.5050 Y46.4950 Z-4.0000 F3600.00
G1 X64.5050 Y49.5050 Z-4.0000 F3600.00
G1 X64.5050 Y49.5050 Z-4.0000 F3600.00
G1 X64.9429 Y49.9429 Z-4.0000 F3600.00
G1 X64.5050 Y49.5050 Z-4.0000 F3600.00
G1 X64.5050 Y49.5050 Z-4.5000 F3600.00
G1 X64.4950 Y49.5050 Z-4.5000 F3600.00
G1 X64.0571 Y49.9429 Z-4.5000 F3600.00
G1 X64.4950 Y49.5050 Z-4.5000 F3600.00
G1 X64.4950 Y46.4950 Z-4.5000 F3600.00
G1 X64.4950 Y46.4950 Z-4.5000 F3600.00
G1 X64.0571 Y46.0571 Z-4.5000 F3600.00
G1 X64.4950 Y46.4950 Z-4.5000 F3600.00
G1 X64.5050 Y46.4950 Z-4.5000 F3600.00
G1 X64.5050 Y46.4950 Z-4.5000 F3600.00
G1 X64.9429 Y46.0571 Z-4.5000 F3600.00
G1 X64.5050 Y46.4950 Z-4.5000 F3600.00
G1 X64.5050 Y49.5050 Z-4.5000 F3600.00
G1 X64.5050 Y49.5050 Z-4.5000 F3600.00
G1 X64.9429 Y49.9429 Z-4.5000 F3600.00
G1 X64.5050 Y49.5050 Z-4.5000 F3600.00
G0 Z5.0000
(Block-name: block)
(Block-expand: 0)
(Block-enable: 1)
G0 X64.5050 Y25.5050
G0 Z3.0000
G1 X64.5050 Y25.5050 Z-1.0000 F3600.00
G1 X64.4950 Y25.5050 Z-1.0000 F3600.00
G1 X64.0571 Y25.9429 Z-1.0000 F3600.00
G1 X64.4950 Y25.5050 Z-1.0000 F3600.00
G1 X64.4950 Y22.4950 Z-1.0000 F3600.00
G1 X64.4950 Y22.4950 Z-1.0000 F3600.00
G1 X64.0571 Y22.0571 Z-1.0000 F3600.00
G1 X64.4950 Y22.4950 Z-1.0000 F3600.00
G1 X64.5050 Y22.4950 Z-1.0000 F3600.00
G1 X64.5050 Y22.4950 Z-1.0000 F3600.00
G1 X64.9429 Y22.0571 Z-1.0000 F3600.00
G1 X64.5050 Y22.4950 Z-1.0000 F3600.00
G1 X64.5050 Y25.5050 Z-1.0000 F3600.00
G1 X64.5050 Y25.5050 Z-1.0000 F3600.00
G1 X64.9429 Y25.9429 Z-1.0000 F3600.00
G1 X64.5050 Y25.5050 Z-1.0000 F3600.00
G1 X64.5050 Y25.5050 Z-2.0000 F3600.00
G1 X64.4950 Y25.5050 Z-2.0000 F3600.00
G1 X64.0571 Y25.9429 Z-2.0000 F3600.00
G1 X64.4950 Y25.5050 Z-2.0000 F3600.00
G1 X64.4950 Y22.4950 Z-2.0000 F3600.00
G1 X64.4950 Y22.4950 Z-2.0000 F3600.00
G1 X64.0571 Y22.0571 Z-2.0000 F3600.00
G1 X64.4950 Y22.4950 Z-2.0000 F3600.00
G1 X64.5050 Y22.4950 Z-2.0000 F3600.00
G1 X64.5050 Y22.4950 Z-2.0000 F3600.00
G1 X64.9429 Y22.0571 Z-2.0000 F3600.00
G1 X64.5050 Y22.4950 Z-2.0000 F3600.00
G1 X64.5050 Y25.5050 Z-2.0000 F3600.00
G1 X64.5050 Y25.5050 Z-2.0000 F3600.00
G1 X64.9429 Y25.9429 Z-2.0000 F3600.00
G1 X64.5050 Y25.5050 Z-2.0000 F3600.00
G1 X64.5050 Y25.5050 Z-3.0000 F3600.00
G1 X64.4950 Y25.5050 Z-3.0000 F3600.00
G1 X64.0571 Y25.9429 Z-3.0000 F3600.00
G1 X64.4950 Y25.5050 Z-3.0000 F3600.00
G1 X64.4950 Y22.4950 Z-3.0000 F3600.00
G1 X64.4950 Y22.4950 Z-3.0000 F3600.00
G1 X64.0571 Y22.0571 Z-3.0000 F3600.00
G1 X64.4950 Y22.4950 Z-3.0000 F3600.00
G1 X64.5050 Y22.4950 Z-3.0000 F3600.00
G1 X64.5050 Y22.4950 Z-3.0000 F3600.00
G1 X64.9429 Y22.0571 Z-3.0000 F3600.00
G1 X64.5050 Y22.4950 Z-3.0000 F3600.00
G1 X64.5050 Y25.5050 Z-3.0000 F3600.00
G1 X64.5050 Y25.5050 Z-3.0000 F3600.00
G1 X64.9429 Y25.9429 Z-3.0000 F3600.00
G1 X64.5050 Y25.5050 Z-3.0000 F3600.00
G1 X64.5050 Y25.5050 Z-4.0000 F3600.00
G1 X64.4950 Y25.5050 Z-4.0000 F3600.00
G1 X64.0571 Y25.9429 Z-4.0000 F3600.00
G1 X64.4950 Y25.5050 Z-4.0000 F3600.00
G1 X64.4950 Y22.4950 Z-4.0000 F3600.00
G1 X64.4950 Y22.4950 Z-4.0000 F3600.00
G1 X64.0571 Y22.0571 Z-4.0000 F3600.00
G1 X64.4950 Y22.4950 Z-4.0000 F3600.00
G1 X64.5050 Y22.4950 Z-4.0000 F3600.00
G1 X64.5050 Y22.4950 Z-4.0000 F3600.00
G1 X64.9429 Y22.0571 Z-4.0000 F3600.00
G1 X64.5050 Y22.4950 Z-4.0000 F3600.00
G1 X64.5050 Y25.5050 Z-4.0000 F3600.00
G1 X64.5050 Y25.5050 Z-4.0000 F3600.00
G1 X64.9429 Y25.9429 Z-4.0000 F3600.00
G1 X64.5050 Y25.5050 Z-4.0000 F3600.00
G1 X64.5050 Y25.5050 Z-4.5000 F3600.00
G1 X64.4950 Y25.5050 Z-4.5000 F3600.00
G1 X64.0571 Y25.9429 Z-4.5000 F3600.00
G1 X64.4950 Y25.5050 Z-4.5000 F3600.00
G1 X64.4950 Y22.4950 Z-4.5000 F3600.00
G1 X64.4950 Y22.4950 Z-4.5000 F3600.00
G1 X64.0571 Y22.0571 Z-4.5000 F3600.00
G1 X64.4950 Y22.4950 Z-4.5000 F3600.00
G1 X64.5050 Y22.4950 Z-4.5000 F3600.00
G1 X64.5050 Y22.4950 Z-4.5000 F3600.00
G1 X64.9429 Y22.0571 Z-4.5000 F3600.00
G1 X64.5050 Y22.4950 Z-4.5000 F3600.00
G1 X64.5050 Y25.5050 Z-4.5000 F3600.00
G1 X64.5050 Y25.5050 Z-4.5000 F3600.00
G1 X64.9429 Y25.9429 Z-4.5000 F3600.00
G1 X64.5050 Y25.5050 Z-4.5000 F3600.00
G0 Z5.0000
(Block-name: block)
(Block-expand: 0)
(Block-enable: 1)
G0 X64.5050 Y37.5050
G0 Z3.0000
G1 X64.5050 Y37.5050 Z-1.0000 F3600.00
G1 X64.4950 Y37.5050 Z-1.0000 F3600.00
G1 X64.0571 Y37.9429 Z-1.0000 F3600.00
G1 X64.4950 Y37.5050 Z-1.0000 F3600.00
G1 X64.4950 Y34.4950 Z-1.0000 F3600.00
G1 X64.4950 Y34.4950 Z-1.0000 F3600.00
G1 X64.0571 Y34.0571 Z-1.0000 F3600.00
G1 X64.4950 Y34.4950 Z-1.0000 F3600.00
G1 X64.5050 Y34.4950 Z-1.0000 F3600.00
G1 X64.5050 Y34.4950 Z-1.0000 F3600.00
G1 X64.9429 Y34.0571 Z-1.0000 F3600.00
G1 X64.5050 Y34.4950 Z-1.0000 F3600.00
G1 X64.5050 Y37.5050 Z-1.0000 F3600.00
G1 X64.5050 Y37.5050 Z-1.0000 F3600.00
G1 X64.9429 Y37.9429 Z-1.0000 F3600.00
G1 X64.5050 Y37.5050 Z-1.0000 F3600.00
G1 X64.5050 Y37.5050 Z-2.0000 F3600.00
G1 X64.4950 Y37.5050 Z-2.0000 F3600.00
G1 X64.0571 Y37.9429 Z-2.0000 F3600.00
G1 X64.4950 Y37.5050 Z-2.0000 F3600.00
G1 X64.4950 Y34.4950 Z-2.0000 F3600.00
G1 X64.4950 Y34.4950 Z-2.0000 F3600.00
G1 X64.0571 Y34.0571 Z-2.0000 F3600.00
G1 X64.4950 Y34.4950 Z-2.0000 F3600.00
G1 X64.5050 Y34.4950 Z-2.0000 F3600.00
G1 X64.5050 Y34.4950 Z-2.0000 F3600.00
G1 X64.9429 Y34.0571 Z-2.0000 F3600.00
G1 X64.5050 Y34.4950 Z-2.0000 F3600.00
G1 X64.5050 Y37.5050 Z-2.0000 F3600.00
G1 X64.5050 Y37.5050 Z-2.0000 F3600.00
G1 X64.9429 Y37.9429 Z-2.0000 F3600.00
G1 X64.5050 Y37.5050 Z-2.0000 F3600.00
G1 X64.5050 Y37.5050 Z-3.0000 F3600.00
G1 X64.4950 Y37.5050 Z-3.0000 F3600.00
G1 X64.0571 Y37.9429 Z-3.0000 F3600.00
G1 X64.4950 Y37.5050 Z-3.0000 F3600.00
G1 X64.4950 Y34.4950 Z-3.0000 F3600.00
G1 X64.4950 Y34.4950 Z-3.0000 F3600.00
G1 X64.0571 Y34.0571 Z-3.0000 F3600.00
G1 X64.4950 Y34.4950 Z-3.0000 F3600.00
G1 X64.5050 Y34.4950 Z-3.0000 F3600.00
G1 X64.5050 Y34.4950 Z-3.0000 F3600.00
G1 X64.9429 Y34.0571 Z-3.0000 F3600.00
G1 X64.5050 Y34.4950 Z-3.0000 F3600.00
G1 X64.5050 Y37.5050 Z-3.0000 F3600.00
G1 X64.5050 Y37.5050 Z-3.0000 F3600.00
G1 X64.9429 Y37.9429 Z-3.0000 F3600.00
G1 X64.5050 Y37.5050 Z-3.0000 F3600.00
G1 X64.5050 Y37.5050 Z-4.0000 F3600.00
G1 X64.4950 Y37.5050 Z-4.0000 F3600.00
G1 X64.0571 Y37.9429 Z-4.0000 F3600.00
G1 X64.4950 Y37.5050 Z-4.0000 F3600.00
G1 X64.4950 Y34.4950 Z-4.0000 F3600.00
G1 X64.4950 Y34.4950 Z-4.0000 F3600.00
G1 X64.0571 Y34.0571 Z-4.0000 F3600.00
G1 X64.4950 Y34.4950 Z-4.0000 F3600.00
G1 X64.5050 Y34.4950 Z-4.0000 F3600.00
G1 X64.5050 Y34.4950 Z-4.0000 F3600.00
G1 X64.9429 Y34.0571 Z-4.0000 F3600.00
G1 X64.5050 Y34.4950 Z-4.0000 F3600.00
G1 X64.5050 Y37.5050 Z-4.0000 F3600.00
G1 X64.5050 Y37.5050 Z-4.0000 F3600.00
G1 X64.9429 Y37.9429 Z-4.0000 F3600.00
G1 X64.5050 Y37.5050 Z-4.0000 F3600.00
G1 X64.5050 Y37.5050 Z-4.5000 F3600.00
G1 X64.4950 Y37.5050 Z-4.5000 F3600.00
G1 X64.0571 Y37.9429 Z-4.5000 F3600.00
G1 X64.4950 Y37.5050 Z-4.5000 F3600.00
G1 X64.4950 Y34.4950 Z-4.5000 F3600.00
G1 X64.4950 Y34.4950 Z-4.5000 F3600.00
G1 X64.0571 Y34.0571 Z-4.5000 F3600.00
G1 X64.4950 Y34.4950 Z-4.5000 F3600.00
G1 X64.5050 Y34.4950 Z-4.5000 F3600.00
G1 X64.5050 Y34.4950 Z-4.5000 F3600.00
G1 X64.9429 Y34.0571 Z-4.5000 F3600.00
G1 X64.5050 Y34.4950 Z-4.5000 F3600.00
G1 X64.5050 Y37.5050 Z-4.5000 F3600.00
G1 X64.5050 Y37.5050 Z-4.5000 F3600.00
G1 X64.9429 Y37.9429 Z-4.5000 F3600.00
G1 X64.5050 Y37.5050 Z-4.5000 F3600.00
G0 Z5.0000
(Block-name: block)
(Block-expand: 0)
(Block-enable: 1)
G0 X64.5050 Y13.5050
G0 Z3.0000
G1 X64.5050 Y13.5050 Z-1.0000 F3600.00
G1 X64.4950 Y13.5050 Z-1.0000 F3600.00
G1 X64.0571 Y13.9429 Z-1.0000 F3600.00
G1 X64.4950 Y13.5050 Z-1.0000 F3600.00
G1 X64.4950 Y10.4950 Z-1.0000 F3600.00
G1 X64.4950 Y10.4950 Z-1.0000 F3600.00
G1 X64.0571 Y10.0571 Z-1.0000 F3600.00
G1 X64.4950 Y10.4950 Z-1.0000 F3600.00
G1 X64.5050 Y10.4950 Z-1.0000 F3600.00
G1 X64.5050 Y10.4950 Z-1.0000 F3600.00
G1 X64.9429 Y10.0571 Z-1.0000 F3600.00
G1 X64.5050 Y10.4950 Z-1.0000 F3600.00
G1 X64.5050 Y13.5050 Z-1.0000 F3600.00
G1 X64.5050 Y13.5050 Z-1.0000 F3600.00
G1 X64.9429 Y13.9429 Z-1.0000 F3600.00
G1 X64.5050 Y13.5050 Z-1.0000 F3600.00
G1 X64.5050 Y13.5050 Z-2.0000 F3600.00
G1 X64.4950 Y13.5050 Z-2.0000 F3600.00
G1 X64.0571 Y13.9429 Z-2.0000 F3600.00
G1 X64.4950 Y13.5050 Z-2.0000 F3600.00
G1 X64.4950 Y10.4950 Z-2.0000 F3600.00
G1 X64.4950 Y10.4950 Z-2.0000 F3600.00
G1 X64.0571 Y10.0571 Z-2.0000 F3600.00
G1 X64.4950 Y10.4950 Z-2.0000 F3600.00
G1 X64.5050 Y10.4950 Z-2.0000 F3600.00
G1 X64.5050 Y10.4950 Z-2.0000 F3600.00
G1 X64.9429 Y10.0571 Z-2.0000 F3600.00
G1 X64.5050 Y10.4950 Z-2.0000 F3600.00
G1 X64.5050 Y13.5050 Z-2.0000 F3600.00
G1 X64.5050 Y13.5050 Z-2.0000 F3600.00
G1 X64.9429 Y13.9429 Z-2.0000 F3600.00
G1 X64.5050 Y13.5050 Z-2.0000 F3600.00
G1 X64.5050 Y13.5050 Z-3.0000 F3600.00
G1 X64.4950 Y13.5050 Z-3.0000 F3600.00
G1 X64.0571 Y13.9429 Z-3.0000 F3600.00
G1 X64.4950 Y13.5050 Z-3.0000 F3600.00
G1 X64.4950 Y10.4950 Z-3.0000 F3600.00
G1 X64.4950 Y10.4950 Z-3.0000 F3600.00
G1 X64.0571 Y10.0571 Z-3.0000 F3600.00
G1 X64.4950 Y10.4950 Z-3.0000 F3600.00
G1 X64.5050 Y10.4950 Z-3.0000 F3600.00
G1 X64.5050 Y10.4950 Z-3.0000 F3600.00
G1 X64.9429 Y10.0571 Z-3.0000 F3600.00
G1 X64.5050 Y10.4950 Z-3.0000 F3600.00
G1 X64.5050 Y13.5050 Z-3.0000 F3600.00
G1 X64.5050 Y13.5050 Z-3.0000 F3600.00
G1 X64.9429 Y13.9429 Z-3.0000 F3600.00
G1 X64.5050 Y13.5050 Z-3.0000 F3600.00
G1 X64.5050 Y13.5050 Z-4.0000 F3600.00
G1 X64.4950 Y13.5050 Z-4.0000 F3600.00
G1 X64.0571 Y13.9429 Z-4.0000 F3600.00
G1 X64.4950 Y13.5050 Z-4.0000 F3600.00
G1 X64.4950 Y10.4950 Z-4.0000 F3600.00
G1 X64.4950 Y10.4950 Z-4.0000 F3600.00
G1 X64.0571 Y10.0571 Z-4.0000 F3600.00
G1 X64.4950 Y10.4950 Z-4.0000 F3600.00
G1 X64.5050 Y10.4950 Z-4.0000 F3600.00
G1 X64.5050 Y10.4950 Z-4.0000 F3600.00
G1 X64.9429 Y10.0571 Z-4.0000 F3600.00
G1 X64.5050 Y10.4950 Z-4.0000 F3600.00
G1 X64.5050 Y13.5050 Z-4.0000 F3600.00
G1 X64.5050 Y13.5050 Z-4.0000 F3600.00
G1 X64.9429 Y13.9429 Z-4.0000 F3600.00
G1 X64.5050 Y13.5050 Z-4.0000 F3600.00
G1 X64.5050 Y13.5050 Z-4.5000 F3600.00
G1 X64.4950 Y13.5050 Z-4.5000 F3600.00
G1 X64.0571 Y13.9429 Z-4.5000 F3600.00
G1 X64.4950 Y13.5050 Z-4.5000 F3600.00
G1 X64.4950 Y10.4950 Z-4.5000 F3600.00
G1 X64.4950 Y10.4950 Z-4.5000 F3600.00
G1 X64.0571 Y10.0571 Z-4.5000 F3600.00
G1 X64.4950 Y10.4950 Z-4.5000 F3600.00
G1 X64.5050 Y10.4950 Z-4.5000 F3600.00
G1 X64.5050 Y10.4950 Z-4.5000 F3600.00
G1 X64.9429 Y10.0571 Z-4.5000 F3600.00
G1 X64.5050 Y10.4950 Z-4.5000 F3600.00
G1 X64.5050 Y13.5050 Z-4.5000 F3600.00
G1 X64.5050 Y13.5050 Z-4.5000 F3600.00
G1 X64.9429 Y13.9429 Z-4.5000 F3600.00
G1 X64.5050 Y13.5050 Z-4.5000 F3600.00
G0 Z5.0000
(Block-name: block)
(Block-expand: 0)
(Block-enable: 1)
G0 X13.5050 Y64.5050
G0 Z3.0000
G1 X13.5050 Y64.5050 Z-1.0000 F3600.00
G1 X10.4950 Y64.5050 Z-1.0000 F3600.00
G1 X10.0571 Y64.9429 Z-1.0000 F3600.00
G1 X10.4950 Y64.5050 Z-1.0000 F3600.00
G1 X10.4950 Y64.4950 Z-1.0000 F3600.00
G1 X10.4950 Y64.4950 Z-1.0000 F3600.00
G1 X10.0571 Y64.0571 Z-1.0000 F3600.00
G1 X10.4950 Y64.4950 Z-1.0000 F3600.00
G1 X13.5050 Y64.4950 Z-1.0000 F3600.00
G1 X13.5050 Y64.4950 Z-1.0000 F3600.00
G1 X13.9429 Y64.0571 Z-1.0000 F3600.00
G1 X13.5050 Y64.4950 Z-1.0000 F3600.00
G1 X13.5050 Y64.5050 Z-1.0000 F3600.00
G1 X13.5050 Y64.5050 Z-1.0000 F3600.00
G1 X13.9429 Y64.9429 Z-1.0000 F3600.00
G1 X13.5050 Y64.5050 Z-1.0000 F3600.00
G1 X13.5050 Y64.5050 Z-2.0000 F3600.00
G1 X10.4950 Y64.5050 Z-2.0000 F3600.00
G1 X10.0571 Y64.9429 Z-2.0000 F3600.00
G1 X10.4950 Y64.5050 Z-2.0000 F3600.00
G1 X10.4950 Y64.4950 Z-2.0000 F3600.00
G1 X10.4950 Y64.4950 Z-2.0000 F3600.00
G1 X10.0571 Y64.0571 Z-2.0000 F3600.00
G1 X10.4950 Y64.4950 Z-2.0000 F3600.00
G1 X13.5050 Y64.4950 Z-2.0000 F3600.00
G1 X13.5050 Y64.4950 Z-2.0000 F3600.00
G1 X13.9429 Y64.0571 Z-2.0000 F3600.00
G1 X13.5050 Y64.4950 Z-2.0000 F3600.00
G1 X13.5050 Y64.5050 Z-2.0000 F3600.00
G1 X13.5050 Y64.5050 Z-2.0000 F3600.00
G1 X13.9429 Y64.9429 Z-2.0000 F3600.00
G1 X13.5050 Y64.5050 Z-2.0000 F3600.00
G1 X13.5050 Y64.5050 Z-3.0000 F3600.00
G1 X10.4950 Y64.5050 Z-3.0000 F3600.00
G1 X10.0571 Y64.9429 Z-3.0000 F3600.00
G1 X10.4950 Y64.5050 Z-3.0000 F3600.00
G1 X10.4950 Y64.4950 Z-3.0000 F3600.00
G1 X10.4950 Y64.4950 Z-3.0000 F3600.00
G1 X10.0571 Y64.0571 Z-3.0000 F3600.00
G1 X10.4950 Y64.4950 Z-3.0000 F3600.00
G1 X13.5050 Y64.4950 Z-3.0000 F3600.00
G1 X13.5050 Y64.4950 Z-3.0000 F3600.00
G1 X13.9429 Y64.0571 Z-3.0000 F3600.00
G1 X13.5050 Y64.4950 Z-3.0000 F3600.00
G1 X13.5050 Y64.5050 Z-3.0000 F3600.00
G1 X13.5050 Y64.5050 Z-3.0000 F3600.00
G1 X13.9429 Y64.9429 Z-3.0000 F3600.00
G1 X13.5050 Y64.5050 Z-3.0000 F3600.00
G1 X13.5050 Y64.5050 Z-4.0000 F3600.00
G1 X10.4950 Y64.5050 Z-4.0000 F3600.00
G1 X10.0571 Y64.9429 Z-4.0000 F3600.00
G1 X10.4950 Y64.5050 Z-4.0000 F3600.00
G1 X10.4950 Y64.4950 Z-4.0000 F3600.00
G1 X10.4950 Y64.4950 Z-4.0000 F3600.00
G1 X10.0571 Y64.0571 Z-4.0000 F3600.00
G1 X10.4950 Y64.4950 Z-4.0000 F3600.00
G1 X13.5050 Y64.4950 Z-4.0000 F3600.00
G1 X13.5050 Y64.4950 Z-4.0000 F3600.00
G1 X13.9429 Y64.0571 Z-4.0000 F3600.00
G1 X13.5050 Y64.4950 Z-4.0000 F3600.00
G1 X13.5050 Y64.5050 Z-4.0000 F3600.00
G1 X13.5050 Y64.5050 Z-4.0000 F3600.00
G1 X13.9429 Y64.9429 Z-4.0000 F3600.00
G1 X13.5050 Y64.5050 Z-4.0000 F3600.00
G1 X13.5050 Y64.5050 Z-4.5000 F3600.00
G1 X10.4950 Y64.5050 Z-4.5000 F3600.00
G1 X10.0571 Y64.9429 Z-4.5000 F3600.00
G1 X10.4950 Y64.5050 Z-4.5000 F3600.00
G1 X10.4950 Y64.4950 Z-4.5000 F3600.00
G1 X10.4950 Y64.4950 Z-4.5000 F3600.00
G1 X10.0571 Y64.0571 Z-4.5000 F3600.00
G1 X10.4950 Y64.4950 Z-4.5000 F3600.00
G1 X13.5050 Y64.4950 Z-4.5000 F3600.00
G1 X13.5050 Y64.4950 Z-4.5000 F3600.00
G1 X13.9429 Y64.0571 Z-4.5000 F3600.00
G1 X13.5050 Y64.4950 Z-4.5000 F3600.00
G1 X13.5050 Y64.5050 Z-4.5000 F3600.00
G1 X13.5050 Y64.5050 Z-4.5000 F3600.00
G1 X13.9429 Y64.9429 Z-4.5000 F3600.00
G1 X13.5050 Y64.5050 Z-4.5000 F3600.00
G0 Z5.0000
(Block-name: block)
(Block-expand: 0)
(Block-enable: 1)
G0 X25.5050 Y64.5050
G0 Z3.0000
G1 X25.5050 Y64.5050 Z-1.0000 F3600.00
G1 X22.4950 Y64.5050 Z-1.0000 F3600.00
G1 X22.0571 Y64.9429 Z-1.0000 F3600.00
G1 X22.4950 Y64.5050 Z-1.0000 F3600.00
G1 X22.4950 Y64.4950 Z-1.0000 F3600.00
G1 X22.4950 Y64.4950 Z-1.0000 F3600.00
G1 X22.0571 Y64.0571 Z-1.0000 F3600.00
G1 X22.4950 Y64.4950 Z-1.0000 F3600.00
G1 X25.5050 Y64.4950 Z-1.0000 F3600.00
G1 X25.5050 Y64.4950 Z-1.0000 F3600.00
G1 X25.9429 Y64.0571 Z-1.0000 F3600.00
G1 X25.5050 Y64.4950 Z-1.0000 F3600.00
G1 X25.5050 Y64.5050 Z-1.0000 F3600.00
G1 X25.5050 Y64.5050 Z-1.0000 F3600.00
G1 X25.9429 Y64.9429 Z-1.0000 F3600.00
G1 X25.5050 Y64.5050 Z-1.0000 F3600.00
G1 X25.5050 Y64.5050 Z-2.0000 F3600.00
G1 X22.4950 Y64.5050 Z-2.0000 F3600.00
G1 X22.0571 Y64.9429 Z-2.0000 F3600.00
G1 X22.4950 Y64.5050 Z-2.0000 F3600.00
G1 X22.4950 Y64.4950 Z-2.0000 F3600.00
G1 X22.4950 Y64.4950 Z-2.0000 F3600.00
G1 X22.0571 Y64.0571 Z-2.0000 F3600.00
G1 X22.4950 Y64.4950 Z-2.0000 F3600.00
G1 X25.5050 Y64.4950 Z-2.0000 F3600.00
G1 X25.5050 Y64.4950 Z-2.0000 F3600.00
G1 X25.9429 Y64.0571 Z-2.0000 F3600.00
G1 X25.5050 Y64.4950 Z-2.0000 F3600.00
G1 X25.5050 Y64.5050 Z-2.0000 F3600.00
G1 X25.5050 Y64.5050 Z-2.0000 F3600.00
G1 X25.9429 Y64.9429 Z-2.0000 F3600.00
G1 X25.5050 Y64.5050 Z-2.0000 F3600.00
G1 X25.5050 Y64.5050 Z-3.0000 F3600.00
G1 X22.4950 Y64.5050 Z-3.0000 F3600.00
G1 X22.0571 Y64.9429 Z-3.0000 F3600.00
G1 X22.4950 Y64.5050 Z-3.0000 F3600.00
G1 X22.4950 Y64.4950 Z-3.0000 F3600.00
G1 X22.4950 Y64.4950 Z-3.0000 F3600.00
G1 X22.0571 Y64.0571 Z-3.0000 F3600.00
G1 X22.4950 Y64.4950 Z-3.0000 F3600.00
G1 X25.5050 Y64.4950 Z-3.0000 F3600.00
G1 X25.5050 Y64.4950 Z-3.0000 F3600.00
G1 X25.9429 Y64.0571 Z-3.0000 F3600.00
G1 X25.5050 Y64.4950 Z-3.0000 F3600.00
G1 X25.5050 Y64.5050 Z-3.0000 F3600.00
G1 X25.5050 Y64.5050 Z-3.0000 F3600.00
G1 X25.9429 Y64.9429 Z-3.0000 F3600.00
G1 X25.5050 Y64.5050 Z-3.0000 F3600.00
G1 X25.5050 Y64.5050 Z-4.0000 F3600.00
G1 X22.4950 Y64.5050 Z-4.0000 F3600.00
G1 X22.0571 Y64.9429 Z-4.0000 F3600.00
G1 X22.4950 Y64.5050 Z-4.0000 F3600.00
G1 X22.4950 Y64.4950 Z-4.0000 F3600.00
G1 X22.4950 Y64.4950 Z-4.0000 F3600.00
G1 X22.0571 Y64.0571 Z-4.0000 F3600.00
G1 X22.4950 Y64.4950 Z-4.0000 F3600.00
G1 X25.5050 Y64.4950 Z-4.0000 F3600.00
G1 X25.5050 Y64.4950 Z-4.0000 F3600.00
G1 X25.9429 Y64.0571 Z-4.0000 F3600.00
G1 X25.5050 Y64.4950 Z-4.0000 F3600.00
G1 X25.5050 Y64.5050 Z-4.0000 F3600.00
G1 X25.5050 Y64.5050 Z-4.0000 F3600.00
G1 X25.9429 Y64.9429 Z-4.0000 F3600.00
G1 X25.5050 Y64.5050 Z-4.0000 F3600.00
G1 X25.5050 Y64.5050 Z-4.5000 F3600.00
G1 X22.4950 Y64.5050 Z-4.5000 F3600.00
G1 X22.0571 Y64.9429 Z-4.5000 F3600.00
G1 X22.4950 Y64.5050 Z-4.5000 F3600.00
G1 X22.4950 Y64.4950 Z-4.5000 F3600.00
G1 X22.4950 Y64.4950 Z-4.5000 F3600.00
G1 X22.0571 Y64.0571 Z-4.5000 F3600.00
G1 X22.4950 Y64.4950 Z-4.5000 F3600.00
G1 X25.5050 Y64.4950 Z-4.5000 F3600.00
G1 X25.5050 Y64.4950 Z-4.5000 F3600.00
G1 X25.9429 Y64.0571 Z-4.5000 F3600.00
G1 X25.5050 Y64.4950 Z-4.5000 F3600.00
G1 X25.5050 Y64.5050 Z-4.5000 F3600.00
G1 X25.5050 Y64.5050 Z-4.5000 F3600.00
G1 X25.9429 Y64.9429 Z-4.5000 F3600.00
G1 X25.5050 Y64.5050 Z-4.5000 F3600.00
G0 Z5.0000
(Block-name: block)
(Block-expand: 0)
(Block-enable: 1)
G0 X37.5050 Y64.5050
G0 Z3.0000
G1 X37.5050 Y64.5050 Z-1.0000 F3600.00
G1 X34.4950 Y64.5050 Z-1.0000 F3600.00
G1 X34.0571 Y64.9429 Z-1.0000 F3600.00
G1 X34.4950 Y64.5050 Z-1.0000 F3600.00
G1 X34.4950 Y64.4950 Z-1.0000 F3600.00
G1 X34.4950 Y64.4950 Z-1.0000 F3600.00
G1 X34.0571 Y64.0571 Z-1.0000 F3600.00
G1 X34.4950 Y64.4950 Z-1.0000 F3600.00
G1 X37.5050 Y64.4950 Z-1.0000 F3600.00
G1 X37.5050 Y64.4950 Z-1.0000 F3600.00
G1 X37.9429 Y64.0571 Z-1.0000 F3600.00
G1 X37.5050 Y64.4950 Z-1.0000 F3600.00
G1 X37.5050 Y64.5050 Z-1.0000 F3600.00
G1 X37.5050 Y64.5050 Z-1.0000 F3600.00
G1 X37.9429 Y64.9429 Z-1.0000 F3600.00
G1 X37.5050 Y64.5050 Z-1.0000 F3600.00
G1 X37.5050 Y64.5050 Z-2.0000 F3600.00
G1 X34.4950 Y64.5050 Z-2.0000 F3600.00
G1 X34.0571 Y64.9429 Z-2.0000 F3600.00
G1 X34.4950 Y64.5050 Z-2.0000 F3600.00
G1 X34.4950 Y64.4950 Z-2.0000 F3600.00
G1 X34.4950 Y64.4950 Z-2.0000 F3600.00
G1 X34.0571 Y64.0571 Z-2.0000 F3600.00
G1 X34.4950 Y64.4950 Z-2.0000 F3600.00
G1 X37.5050 Y64.4950 Z-2.0000 F3600.00
G1 X37.5050 Y64.4950 Z-2.0000 F3600.00
G1 X37.9429 Y64.0571 Z-2.0000 F3600.00
G1 X37.5050 Y64.4950 Z-2.0000 F3600.00
G1 X37.5050 Y64.5050 Z-2.0000 F3600.00
G1 X37.5050 Y64.5050 Z-2.0000 F3600.00
G1 X37.9429 Y64.9429 Z-2.0000 F3600.00
G1 X37.5050 Y64.5050 Z-2.0000 F3600.00
G1 X37.5050 Y64.5050 Z-3.0000 F3600.00
