(Exported by FreeCAD)
(Post Processor: PathScripts.post.grbl_post)
(Output Time:2019-01-28 14:36:52.939116)
(begin preamble)
G17 G90
G21
(begin operation: InternalCutoutJob)
(Path: InternalCutoutJob)
(Profile_Edges)
(Compensated Tool Path. Diameter: 2.99)
G0 Z5.0000
G0 X21.4371 Y18.2897
G0 Z3.0000
G1 X21.4371 Y18.2897 Z-1.0000 F3600.00
G3 X27.0050 Y15.4894 Z-1.0000 I7.0268 J7.0360 F3600.00
G1 X27.0050 Y-2.4451 Z-1.0000 F3600.00
G1 X22.9900 Y-2.4451 Z-1.0000 F3600.00
G3 X22.8783 Y-12.4309 Z-1.0000 I0.0016 J-4.9936 F3600.00
G1 X27.0050 Y-12.4339 Z-1.0000 F3600.00
G1 X27.0050 Y-30.1451 Z-1.0000 F3600.00
G1 X-27.0050 Y-30.1451 Z-1.0000 F3600.00
G1 X-27.0050 Y-12.4351 Z-1.0000 F3600.00
G1 X-22.9900 Y-12.4351 Z-1.0000 F3600.00
G3 X-22.8783 Y-2.4492 Z-1.0000 I-0.0016 J4.9936 F3600.00
G1 X-27.0050 Y-2.4462 Z-1.0000 F3600.00
G1 X-27.0050 Y15.4878 Z-1.0000 F3600.00
G3 X-18.6295 Y23.8649 Z-1.0000 I-1.4608 J9.8360 F3600.00
G1 X18.6278 Y23.8649 Z-1.0000 F3600.00
G3 X21.4371 Y18.2897 Z-1.0000 I9.8360 J1.4608 F3600.00
G1 X21.4371 Y18.2897 Z-2.0000 F3600.00
G3 X27.0050 Y15.4894 Z-2.0000 I7.0268 J7.0360 F3600.00
G1 X27.0050 Y-2.4451 Z-2.0000 F3600.00
G1 X22.9900 Y-2.4451 Z-2.0000 F3600.00
G3 X22.8783 Y-12.4309 Z-2.0000 I0.0016 J-4.9936 F3600.00
G1 X27.0050 Y-12.4339 Z-2.0000 F3600.00
G1 X27.0050 Y-30.1451 Z-2.0000 F3600.00
G1 X-27.0050 Y-30.1451 Z-2.0000 F3600.00
G1 X-27.0050 Y-12.4351 Z-2.0000 F3600.00
G1 X-22.9900 Y-12.4351 Z-2.0000 F3600.00
G3 X-22.8783 Y-2.4492 Z-2.0000 I-0.0016 J4.9936 F3600.00
G1 X-27.0050 Y-2.4462 Z-2.0000 F3600.00
G1 X-27.0050 Y15.4878 Z-2.0000 F3600.00
G3 X-18.6295 Y23.8649 Z-2.0000 I-1.4608 J9.8360 F3600.00
G1 X18.6278 Y23.8649 Z-2.0000 F3600.00
G3 X21.4371 Y18.2897 Z-2.0000 I9.8360 J1.4608 F3600.00
G1 X21.4371 Y18.2897 Z-3.0000 F3600.00
G3 X27.0050 Y15.4894 Z-3.0000 I7.0268 J7.0360 F3600.00
G1 X27.0050 Y-2.4451 Z-3.0000 F3600.00
G1 X22.9900 Y-2.4451 Z-3.0000 F3600.00
G3 X22.8783 Y-12.4309 Z-3.0000 I0.0016 J-4.9936 F3600.00
G1 X27.0050 Y-12.4339 Z-3.0000 F3600.00
G1 X27.0050 Y-30.1451 Z-3.0000 F3600.00
G1 X-27.0050 Y-30.1451 Z-3.0000 F3600.00
G1 X-27.0050 Y-12.4351 Z-3.0000 F3600.00
G1 X-22.9900 Y-12.4351 Z-3.0000 F3600.00
G3 X-22.8783 Y-2.4492 Z-3.0000 I-0.0016 J4.9936 F3600.00
G1 X-27.0050 Y-2.4462 Z-3.0000 F3600.00
G1 X-27.0050 Y15.4878 Z-3.0000 F3600.00
G3 X-18.6295 Y23.8649 Z-3.0000 I-1.4608 J9.8360 F3600.00
G1 X18.6278 Y23.8649 Z-3.0000 F3600.00
G3 X21.4371 Y18.2897 Z-3.0000 I9.8360 J1.4608 F3600.00
G1 X21.4371 Y18.2897 Z-4.0000 F3600.00
G3 X27.0050 Y15.4894 Z-4.0000 I7.0268 J7.0360 F3600.00
G1 X27.0050 Y-2.4451 Z-4.0000 F3600.00
G1 X22.9900 Y-2.4451 Z-4.0000 F3600.00
G3 X22.8783 Y-12.4309 Z-4.0000 I0.0016 J-4.9936 F3600.00
G1 X27.0050 Y-12.4339 Z-4.0000 F3600.00
G1 X27.0050 Y-30.1451 Z-4.0000 F3600.00
G1 X-27.0050 Y-30.1451 Z-4.0000 F3600.00
G1 X-27.0050 Y-12.4351 Z-4.0000 F3600.00
G1 X-22.9900 Y-12.4351 Z-4.0000 F3600.00
G3 X-22.8783 Y-2.4492 Z-4.0000 I-0.0016 J4.9936 F3600.00
G1 X-27.0050 Y-2.4462 Z-4.0000 F3600.00
G1 X-27.0050 Y15.4878 Z-4.0000 F3600.00
G3 X-18.6295 Y23.8649 Z-4.0000 I-1.4608 J9.8360 F3600.00
G1 X18.6278 Y23.8649 Z-4.0000 F3600.00
G3 X21.4371 Y18.2897 Z-4.0000 I9.8360 J1.4608 F3600.00
G1 X21.4371 Y18.2897 Z-4.5000 F3600.00
G3 X27.0050 Y15.4894 Z-4.5000 I7.0268 J7.0360 F3600.00
G1 X27.0050 Y-2.4451 Z-4.5000 F3600.00
G1 X22.9900 Y-2.4451 Z-4.5000 F3600.00
G3 X22.8783 Y-12.4309 Z-4.5000 I0.0016 J-4.9936 F3600.00
G1 X27.0050 Y-12.4339 Z-4.5000 F3600.00
G1 X27.0050 Y-30.1451 Z-4.5000 F3600.00
G1 X-27.0050 Y-30.1451 Z-4.5000 F3600.00
G1 X-27.0050 Y-12.4351 Z-4.5000 F3600.00
G1 X-22.9900 Y-12.4351 Z-4.5000 F3600.00
G3 X-22.8783 Y-2.4492 Z-4.5000 I-0.0016 J4.9936 F3600.00
G1 X-27.0050 Y-2.4462 Z-4.5000 F3600.00
G1 X-27.0050 Y15.4878 Z-4.5000 F3600.00
G3 X-18.6295 Y23.8649 Z-4.5000 I-1.4608 J9.8360 F3600.00
G1 X18.6278 Y23.8649 Z-4.5000 F3600.00
G3 X21.4371 Y18.2897 Z-4.5000 I9.8360 J1.4608 F3600.00
G0 Z5.0000
(finish operation: InternalCutoutJob)
(begin postamble)
M5
G17 G90
; M2
