(Exported by FreeCAD)
(Post Processor: PathScripts.post.grbl_post)
(Output Time:2019-01-28 14:36:52.939116)
(begin preamble)
G17 G90
G21
(begin operation: Job)
(Path: Job)
G0 Z5.0000
G0 X69.0050 Y1.5050 Z5.0000
G0 X69.0050 Y1.5050 Z3.0000
G1 X69.0050 Y1.5050 Z-1.0000 F3600.00
G1 X68.9950 Y1.5050 Z-1.0000 F3600.00
G1 X68.5571 Y1.9429 Z-1.0000 F3600.00
G1 X68.9950 Y1.5050 Z-1.0000 F3600.00
G1 X68.9950 Y-1.5050 Z-1.0000 F3600.00
G1 X68.5571 Y-1.9429 Z-1.0000 F3600.00
G1 X68.9950 Y-1.5050 Z-1.0000 F3600.00
G1 X69.0050 Y-1.5050 Z-1.0000 F3600.00
G1 X69.4429 Y-1.9429 Z-1.0000 F3600.00
G1 X69.0050 Y-1.5050 Z-1.0000 F3600.00
G1 X69.0050 Y1.5050 Z-1.0000 F3600.00
G1 X69.4429 Y1.9429 Z-1.0000 F3600.00
G1 X69.0050 Y1.5050 Z-1.0000 F3600.00
G1 X69.0050 Y1.5050 Z-2.0000 F3600.00
G1 X68.9950 Y1.5050 Z-2.0000 F3600.00
G1 X68.5571 Y1.9429 Z-2.0000 F3600.00
G1 X68.9950 Y1.5050 Z-2.0000 F3600.00
G1 X68.9950 Y-1.5050 Z-2.0000 F3600.00
G1 X68.5571 Y-1.9429 Z-2.0000 F3600.00
G1 X68.9950 Y-1.5050 Z-2.0000 F3600.00
G1 X69.0050 Y-1.5050 Z-2.0000 F3600.00
G1 X69.4429 Y-1.9429 Z-2.0000 F3600.00
G1 X69.0050 Y-1.5050 Z-2.0000 F3600.00
G1 X69.0050 Y1.5050 Z-2.0000 F3600.00
G1 X69.4429 Y1.9429 Z-2.0000 F3600.00
G1 X69.0050 Y1.5050 Z-2.0000 F3600.00
G1 X69.0050 Y1.5050 Z-3.0000 F3600.00
G1 X68.9950 Y1.5050 Z-3.0000 F3600.00
G1 X68.5571 Y1.9429 Z-3.0000 F3600.00
G1 X68.9950 Y1.5050 Z-3.0000 F3600.00
G1 X68.9950 Y-1.5050 Z-3.0000 F3600.00
G1 X68.5571 Y-1.9429 Z-3.0000 F3600.00
G1 X68.9950 Y-1.5050 Z-3.0000 F3600.00
G1 X69.0050 Y-1.5050 Z-3.0000 F3600.00
G1 X69.4429 Y-1.9429 Z-3.0000 F3600.00
G1 X69.0050 Y-1.5050 Z-3.0000 F3600.00
G1 X69.0050 Y1.5050 Z-3.0000 F3600.00
G1 X69.4429 Y1.9429 Z-3.0000 F3600.00
G1 X69.0050 Y1.5050 Z-3.0000 F3600.00
G1 X69.0050 Y1.5050 Z-4.0000 F3600.00
G1 X68.9950 Y1.5050 Z-4.0000 F3600.00
G1 X68.5571 Y1.9429 Z-4.0000 F3600.00
G1 X68.9950 Y1.5050 Z-4.0000 F3600.00
G1 X68.9950 Y-1.5050 Z-4.0000 F3600.00
G1 X68.5571 Y-1.9429 Z-4.0000 F3600.00
G1 X68.9950 Y-1.5050 Z-4.0000 F3600.00
G1 X69.0050 Y-1.5050 Z-4.0000 F3600.00
G1 X69.4429 Y-1.9429 Z-4.0000 F3600.00
G1 X69.0050 Y-1.5050 Z-4.0000 F3600.00
G1 X69.0050 Y1.5050 Z-4.0000 F3600.00
G1 X69.4429 Y1.9429 Z-4.0000 F3600.00
G1 X69.0050 Y1.5050 Z-4.0000 F3600.00
G1 X69.0050 Y1.5050 Z-4.5000 F3600.00
G1 X68.9950 Y1.5050 Z-4.5000 F3600.00
G1 X68.5571 Y1.9429 Z-4.5000 F3600.00
G1 X68.9950 Y1.5050 Z-4.5000 F3600.00
G1 X68.9950 Y-1.5050 Z-4.5000 F3600.00
G1 X68.5571 Y-1.9429 Z-4.5000 F3600.00
G1 X68.9950 Y-1.5050 Z-4.5000 F3600.00
G1 X69.0050 Y-1.5050 Z-4.5000 F3600.00
G1 X69.4429 Y-1.9429 Z-4.5000 F3600.00
G1 X69.0050 Y-1.5050 Z-4.5000 F3600.00
G1 X69.0050 Y1.5050 Z-4.5000 F3600.00
G1 X69.4429 Y1.9429 Z-4.5000 F3600.00
G1 X69.0050 Y1.5050 Z-4.5000 F3600.00
G0 X69.0050 Y1.5050 Z5.0000
G0 X69.0050 Y-10.4950 Z5.0000
G0 X69.0050 Y-10.4950 Z3.0000
G1 X69.0050 Y-10.4950 Z-1.0000 F3600.00
G1 X68.9950 Y-10.4950 Z-1.0000 F3600.00
G1 X68.5571 Y-10.0571 Z-1.0000 F3600.00
G1 X68.9950 Y-10.4950 Z-1.0000 F3600.00
G1 X68.9950 Y-13.5050 Z-1.0000 F3600.00
G1 X68.5571 Y-13.9429 Z-1.0000 F3600.00
G1 X68.9950 Y-13.5050 Z-1.0000 F3600.00
G1 X69.0050 Y-13.5050 Z-1.0000 F3600.00
G1 X69.4429 Y-13.9429 Z-1.0000 F3600.00
G1 X69.0050 Y-13.5050 Z-1.0000 F3600.00
G1 X69.0050 Y-10.4950 Z-1.0000 F3600.00
G1 X69.4429 Y-10.0571 Z-1.0000 F3600.00
G1 X69.0050 Y-10.4950 Z-1.0000 F3600.00
G1 X69.0050 Y-10.4950 Z-2.0000 F3600.00
G1 X68.9950 Y-10.4950 Z-2.0000 F3600.00
G1 X68.5571 Y-10.0571 Z-2.0000 F3600.00
G1 X68.9950 Y-10.4950 Z-2.0000 F3600.00
G1 X68.9950 Y-13.5050 Z-2.0000 F3600.00
G1 X68.5571 Y-13.9429 Z-2.0000 F3600.00
G1 X68.9950 Y-13.5050 Z-2.0000 F3600.00
G1 X69.0050 Y-13.5050 Z-2.0000 F3600.00
G1 X69.4429 Y-13.9429 Z-2.0000 F3600.00
G1 X69.0050 Y-13.5050 Z-2.0000 F3600.00
G1 X69.0050 Y-10.4950 Z-2.0000 F3600.00
G1 X69.4429 Y-10.0571 Z-2.0000 F3600.00
G1 X69.0050 Y-10.4950 Z-2.0000 F3600.00
G1 X69.0050 Y-10.4950 Z-3.0000 F3600.00
G1 X68.9950 Y-10.4950 Z-3.0000 F3600.00
G1 X68.5571 Y-10.0571 Z-3.0000 F3600.00
G1 X68.9950 Y-10.4950 Z-3.0000 F3600.00
G1 X68.9950 Y-13.5050 Z-3.0000 F3600.00
G1 X68.5571 Y-13.9429 Z-3.0000 F3600.00
G1 X68.9950 Y-13.5050 Z-3.0000 F3600.00
G1 X69.0050 Y-13.5050 Z-3.0000 F3600.00
G1 X69.4429 Y-13.9429 Z-3.0000 F3600.00
G1 X69.0050 Y-13.5050 Z-3.0000 F3600.00
G1 X69.0050 Y-10.4950 Z-3.0000 F3600.00
G1 X69.4429 Y-10.0571 Z-3.0000 F3600.00
G1 X69.0050 Y-10.4950 Z-3.0000 F3600.00
G1 X69.0050 Y-10.4950 Z-4.0000 F3600.00
G1 X68.9950 Y-10.4950 Z-4.0000 F3600.00
G1 X68.5571 Y-10.0571 Z-4.0000 F3600.00
G1 X68.9950 Y-10.4950 Z-4.0000 F3600.00
G1 X68.9950 Y-13.5050 Z-4.0000 F3600.00
G1 X68.5571 Y-13.9429 Z-4.0000 F3600.00
G1 X68.9950 Y-13.5050 Z-4.0000 F3600.00
G1 X69.0050 Y-13.5050 Z-4.0000 F3600.00
G1 X69.4429 Y-13.9429 Z-4.0000 F3600.00
G1 X69.0050 Y-13.5050 Z-4.0000 F3600.00
G1 X69.0050 Y-10.4950 Z-4.0000 F3600.00
G1 X69.4429 Y-10.0571 Z-4.0000 F3600.00
G1 X69.0050 Y-10.4950 Z-4.0000 F3600.00
G1 X69.0050 Y-10.4950 Z-4.5000 F3600.00
G1 X68.9950 Y-10.4950 Z-4.5000 F3600.00
G1 X68.5571 Y-10.0571 Z-4.5000 F3600.00
G1 X68.9950 Y-10.4950 Z-4.5000 F3600.00
G1 X68.9950 Y-13.5050 Z-4.5000 F3600.00
G1 X68.5571 Y-13.9429 Z-4.5000 F3600.00
G1 X68.9950 Y-13.5050 Z-4.5000 F3600.00
G1 X69.0050 Y-13.5050 Z-4.5000 F3600.00
G1 X69.4429 Y-13.9429 Z-4.5000 F3600.00
G1 X69.0050 Y-13.5050 Z-4.5000 F3600.00
G1 X69.0050 Y-10.4950 Z-4.5000 F3600.00
G1 X69.4429 Y-10.0571 Z-4.5000 F3600.00
G1 X69.0050 Y-10.4950 Z-4.5000 F3600.00
G0 X69.0050 Y-10.4950 Z5.0000
G0 X69.0050 Y13.5050 Z5.0000
G0 X69.0050 Y13.5050 Z3.0000
G1 X69.0050 Y13.5050 Z-1.0000 F3600.00
G1 X68.9950 Y13.5050 Z-1.0000 F3600.00
G1 X68.5571 Y13.9429 Z-1.0000 F3600.00
G1 X68.9950 Y13.5050 Z-1.0000 F3600.00
G1 X68.9950 Y10.4950 Z-1.0000 F3600.00
G1 X68.5571 Y10.0571 Z-1.0000 F3600.00
G1 X68.9950 Y10.4950 Z-1.0000 F3600.00
G1 X69.0050 Y10.4950 Z-1.0000 F3600.00
G1 X69.4429 Y10.0571 Z-1.0000 F3600.00
G1 X69.0050 Y10.4950 Z-1.0000 F3600.00
G1 X69.0050 Y13.5050 Z-1.0000 F3600.00
G1 X69.4429 Y13.9429 Z-1.0000 F3600.00
G1 X69.0050 Y13.5050 Z-1.0000 F3600.00
G1 X69.0050 Y13.5050 Z-2.0000 F3600.00
G1 X68.9950 Y13.5050 Z-2.0000 F3600.00
G1 X68.5571 Y13.9429 Z-2.0000 F3600.00
G1 X68.9950 Y13.5050 Z-2.0000 F3600.00
G1 X68.9950 Y10.4950 Z-2.0000 F3600.00
G1 X68.5571 Y10.0571 Z-2.0000 F3600.00
G1 X68.9950 Y10.4950 Z-2.0000 F3600.00
G1 X69.0050 Y10.4950 Z-2.0000 F3600.00
G1 X69.4429 Y10.0571 Z-2.0000 F3600.00
G1 X69.0050 Y10.4950 Z-2.0000 F3600.00
G1 X69.0050 Y13.5050 Z-2.0000 F3600.00
G1 X69.4429 Y13.9429 Z-2.0000 F3600.00
G1 X69.0050 Y13.5050 Z-2.0000 F3600.00
G1 X69.0050 Y13.5050 Z-3.0000 F3600.00
G1 X68.9950 Y13.5050 Z-3.0000 F3600.00
G1 X68.5571 Y13.9429 Z-3.0000 F3600.00
G1 X68.9950 Y13.5050 Z-3.0000 F3600.00
G1 X68.9950 Y10.4950 Z-3.0000 F3600.00
G1 X68.5571 Y10.0571 Z-3.0000 F3600.00
G1 X68.9950 Y10.4950 Z-3.0000 F3600.00
G1 X69.0050 Y10.4950 Z-3.0000 F3600.00
G1 X69.4429 Y10.0571 Z-3.0000 F3600.00
G1 X69.0050 Y10.4950 Z-3.0000 F3600.00
G1 X69.0050 Y13.5050 Z-3.0000 F3600.00
G1 X69.4429 Y13.9429 Z-3.0000 F3600.00
G1 X69.0050 Y13.5050 Z-3.0000 F3600.00
G1 X69.0050 Y13.5050 Z-4.0000 F3600.00
G1 X68.9950 Y13.5050 Z-4.0000 F3600.00
G1 X68.5571 Y13.9429 Z-4.0000 F3600.00
G1 X68.9950 Y13.5050 Z-4.0000 F3600.00
G1 X68.9950 Y10.4950 Z-4.0000 F3600.00
G1 X68.5571 Y10.0571 Z-4.0000 F3600.00
G1 X68.9950 Y10.4950 Z-4.0000 F3600.00
G1 X69.0050 Y10.4950 Z-4.0000 F3600.00
G1 X69.4429 Y10.0571 Z-4.0000 F3600.00
G1 X69.0050 Y10.4950 Z-4.0000 F3600.00
G1 X69.0050 Y13.5050 Z-4.0000 F3600.00
G1 X69.4429 Y13.9429 Z-4.0000 F3600.00
G1 X69.0050 Y13.5050 Z-4.0000 F3600.00
G1 X69.0050 Y13.5050 Z-4.5000 F3600.00
G1 X68.9950 Y13.5050 Z-4.5000 F3600.00
G1 X68.5571 Y13.9429 Z-4.5000 F3600.00
G1 X68.9950 Y13.5050 Z-4.5000 F3600.00
G1 X68.9950 Y10.4950 Z-4.5000 F3600.00
G1 X68.5571 Y10.0571 Z-4.5000 F3600.00
G1 X68.9950 Y10.4950 Z-4.5000 F3600.00
G1 X69.0050 Y10.4950 Z-4.5000 F3600.00
G1 X69.4429 Y10.0571 Z-4.5000 F3600.00
G1 X69.0050 Y10.4950 Z-4.5000 F3600.00
G1 X69.0050 Y13.5050 Z-4.5000 F3600.00
G1 X69.4429 Y13.9429 Z-4.5000 F3600.00
G1 X69.0050 Y13.5050 Z-4.5000 F3600.00
G0 X69.0050 Y13.5050 Z5.0000
G0 X73.9718 Y16.4186 Z5.0000
G0 X73.9718 Y16.4186 Z3.0000
G1 X73.9718 Y16.4186 Z-1.0000 F3600.00
G2 X74.9950 Y15.0000 Z-1.0000 I-0.4718 J-1.4186 F3600.00
G1 X74.9950 Y-15.0000 Z-1.0000 F3600.00
G2 X73.5000 Y-16.4950 Z-1.0000 I-1.4950 J-0.0000 F3600.00
G1 X71.9950 Y-16.4950 Z-1.0000 F3600.00
G1 X71.5571 Y-16.0571 Z-1.0000 F3600.00
G1 X71.9950 Y-16.4950 Z-1.0000 F3600.00
G1 X71.9950 Y-18.0000 Z-1.0000 F3600.00
G2 X70.5000 Y-19.4950 Z-1.0000 I-1.4950 J-0.0000 F3600.00
G1 X64.5000 Y-19.4950 Z-1.0000 F3600.00
G2 X63.0050 Y-18.0000 Z-1.0000 I-0.0000 J1.4950 F3600.00
G1 X63.0050 Y-16.4950 Z-1.0000 F3600.00
G1 X63.4429 Y-16.0571 Z-1.0000 F3600.00
G1 X63.0050 Y-16.4950 Z-1.0000 F3600.00
G1 X59.9950 Y-16.4950 Z-1.0000 F3600.00
G1 X59.5571 Y-16.0571 Z-1.0000 F3600.00
G1 X59.9950 Y-16.4950 Z-1.0000 F3600.00
G1 X59.9950 Y-18.0000 Z-1.0000 F3600.00
G2 X58.5000 Y-19.4950 Z-1.0000 I-1.4950 J-0.0000 F3600.00
G1 X52.5000 Y-19.4950 Z-1.0000 F3600.00
G2 X51.0050 Y-18.0000 Z-1.0000 I-0.0000 J1.4950 F3600.00
G1 X51.0050 Y-16.4950 Z-1.0000 F3600.00
G1 X51.4429 Y-16.0571 Z-1.0000 F3600.00
G1 X51.0050 Y-16.4950 Z-1.0000 F3600.00
G1 X47.9950 Y-16.4950 Z-1.0000 F3600.00
G1 X47.5571 Y-16.0571 Z-1.0000 F3600.00
G1 X47.9950 Y-16.4950 Z-1.0000 F3600.00
G1 X47.9950 Y-18.0000 Z-1.0000 F3600.00
G2 X46.5000 Y-19.4950 Z-1.0000 I-1.4950 J-0.0000 F3600.00
G1 X40.5000 Y-19.4950 Z-1.0000 F3600.00
G2 X39.0050 Y-18.0000 Z-1.0000 I-0.0000 J1.4950 F3600.00
G1 X39.0050 Y-16.4950 Z-1.0000 F3600.00
G1 X39.4429 Y-16.0571 Z-1.0000 F3600.00
G1 X39.0050 Y-16.4950 Z-1.0000 F3600.00
G1 X35.9950 Y-16.4950 Z-1.0000 F3600.00
G1 X35.5571 Y-16.0571 Z-1.0000 F3600.00
G1 X35.9950 Y-16.4950 Z-1.0000 F3600.00
G1 X35.9950 Y-18.0000 Z-1.0000 F3600.00
G2 X34.5000 Y-19.4950 Z-1.0000 I-1.4950 J-0.0000 F3600.00
G1 X28.5000 Y-19.4950 Z-1.0000 F3600.00
G2 X27.0050 Y-18.0000 Z-1.0000 I-0.0000 J1.4950 F3600.00
G1 X27.0050 Y-16.4950 Z-1.0000 F3600.00
G1 X27.4429 Y-16.0571 Z-1.0000 F3600.00
G1 X27.0050 Y-16.4950 Z-1.0000 F3600.00
G1 X23.9950 Y-16.4950 Z-1.0000 F3600.00
G1 X23.5571 Y-16.0571 Z-1.0000 F3600.00
G1 X23.9950 Y-16.4950 Z-1.0000 F3600.00
G1 X23.9950 Y-18.0000 Z-1.0000 F3600.00
G2 X22.5000 Y-19.4950 Z-1.0000 I-1.4950 J-0.0000 F3600.00
G1 X16.5000 Y-19.4950 Z-1.0000 F3600.00
G2 X15.0050 Y-18.0000 Z-1.0000 I-0.0000 J1.4950 F3600.00
G1 X15.0050 Y-16.4950 Z-1.0000 F3600.00
G1 X15.4429 Y-16.0571 Z-1.0000 F3600.00
G1 X15.0050 Y-16.4950 Z-1.0000 F3600.00
G1 X11.9950 Y-16.4950 Z-1.0000 F3600.00
G1 X11.5571 Y-16.0571 Z-1.0000 F3600.00
G1 X11.9950 Y-16.4950 Z-1.0000 F3600.00
G1 X11.9950 Y-18.0000 Z-1.0000 F3600.00
G2 X10.5000 Y-19.4950 Z-1.0000 I-1.4950 J-0.0000 F3600.00
G1 X4.5000 Y-19.4950 Z-1.0000 F3600.00
G2 X3.0050 Y-18.0000 Z-1.0000 I-0.0000 J1.4950 F3600.00
G1 X3.0050 Y-16.4950 Z-1.0000 F3600.00
G1 X3.4429 Y-16.0571 Z-1.0000 F3600.00
G1 X3.0050 Y-16.4950 Z-1.0000 F3600.00
G1 X-0.0050 Y-16.4950 Z-1.0000 F3600.00
G1 X-0.4429 Y-16.0571 Z-1.0000 F3600.00
G1 X-0.0050 Y-16.4950 Z-1.0000 F3600.00
G1 X-0.0050 Y-18.0000 Z-1.0000 F3600.00
G2 X-1.5000 Y-19.4950 Z-1.0000 I-1.4950 J-0.0000 F3600.00
G1 X-7.5000 Y-19.4950 Z-1.0000 F3600.00
G2 X-8.9950 Y-18.0000 Z-1.0000 I-0.0000 J1.4950 F3600.00
G1 X-8.9950 Y-16.4950 Z-1.0000 F3600.00
G1 X-8.5571 Y-16.0571 Z-1.0000 F3600.00
G1 X-8.9950 Y-16.4950 Z-1.0000 F3600.00
G1 X-12.0050 Y-16.4950 Z-1.0000 F3600.00
G1 X-12.4429 Y-16.0571 Z-1.0000 F3600.00
G1 X-12.0050 Y-16.4950 Z-1.0000 F3600.00
G1 X-12.0050 Y-18.0000 Z-1.0000 F3600.00
G2 X-13.5000 Y-19.4950 Z-1.0000 I-1.4950 J-0.0000 F3600.00
G1 X-19.5000 Y-19.4950 Z-1.0000 F3600.00
G2 X-20.9950 Y-18.0000 Z-1.0000 I-0.0000 J1.4950 F3600.00
G1 X-20.9950 Y-16.4950 Z-1.0000 F3600.00
G1 X-20.5571 Y-16.0571 Z-1.0000 F3600.00
G1 X-20.9950 Y-16.4950 Z-1.0000 F3600.00
G1 X-24.0050 Y-16.4950 Z-1.0000 F3600.00
G1 X-24.4429 Y-16.0571 Z-1.0000 F3600.00
G1 X-24.0050 Y-16.4950 Z-1.0000 F3600.00
G1 X-24.0050 Y-18.0000 Z-1.0000 F3600.00
G2 X-25.5000 Y-19.4950 Z-1.0000 I-1.4950 J-0.0000 F3600.00
G1 X-31.5000 Y-19.4950 Z-1.0000 F3600.00
G2 X-32.9950 Y-18.0000 Z-1.0000 I-0.0000 J1.4950 F3600.00
G1 X-32.9950 Y-16.4950 Z-1.0000 F3600.00
G1 X-32.5571 Y-16.0571 Z-1.0000 F3600.00
G1 X-32.9950 Y-16.4950 Z-1.0000 F3600.00
G1 X-36.0050 Y-16.4950 Z-1.0000 F3600.00
G1 X-36.4429 Y-16.0571 Z-1.0000 F3600.00
G1 X-36.0050 Y-16.4950 Z-1.0000 F3600.00
G1 X-36.0050 Y-18.0000 Z-1.0000 F3600.00
G2 X-37.5000 Y-19.4950 Z-1.0000 I-1.4950 J-0.0000 F3600.00
G1 X-43.5000 Y-19.4950 Z-1.0000 F3600.00
G2 X-44.9950 Y-18.0000 Z-1.0000 I-0.0000 J1.4950 F3600.00
G1 X-44.9950 Y-16.4950 Z-1.0000 F3600.00
G1 X-44.5571 Y-16.0571 Z-1.0000 F3600.00
G1 X-44.9950 Y-16.4950 Z-1.0000 F3600.00
G1 X-48.0050 Y-16.4950 Z-1.0000 F3600.00
G1 X-48.4429 Y-16.0571 Z-1.0000 F3600.00
G1 X-48.0050 Y-16.4950 Z-1.0000 F3600.00
G1 X-48.0050 Y-18.0000 Z-1.0000 F3600.00
G2 X-49.5000 Y-19.4950 Z-1.0000 I-1.4950 J-0.0000 F3600.00
G1 X-55.5000 Y-19.4950 Z-1.0000 F3600.00
G2 X-56.9950 Y-18.0000 Z-1.0000 I-0.0000 J1.4950 F3600.00
G1 X-56.9950 Y-16.4950 Z-1.0000 F3600.00
G1 X-56.5571 Y-16.0571 Z-1.0000 F3600.00
G1 X-56.9950 Y-16.4950 Z-1.0000 F3600.00
G1 X-60.0050 Y-16.4950 Z-1.0000 F3600.00
G1 X-60.4429 Y-16.0571 Z-1.0000 F3600.00
G1 X-60.0050 Y-16.4950 Z-1.0000 F3600.00
G1 X-60.0050 Y-18.0000 Z-1.0000 F3600.00
G2 X-61.5000 Y-19.4950 Z-1.0000 I-1.4950 J-0.0000 F3600.00
G1 X-67.5000 Y-19.4950 Z-1.0000 F3600.00
G2 X-68.9950 Y-18.0000 Z-1.0000 I-0.0000 J1.4950 F3600.00
G1 X-68.9950 Y-16.4950 Z-1.0000 F3600.00
G1 X-68.5571 Y-16.0571 Z-1.0000 F3600.00
G1 X-68.9950 Y-16.4950 Z-1.0000 F3600.00
G1 X-73.5000 Y-16.4950 Z-1.0000 F3600.00
G2 X-74.9950 Y-15.0000 Z-1.0000 I-0.0000 J1.4950 F3600.00
G1 X-74.9950 Y-9.0000 Z-1.0000 F3600.00
G2 X-73.5000 Y-7.5050 Z-1.0000 I1.4950 J0.0000 F3600.00
G1 X-71.9950 Y-7.5050 Z-1.0000 F3600.00
G1 X-71.5571 Y-7.9429 Z-1.0000 F3600.00
G1 X-71.9950 Y-7.5050 Z-1.0000 F3600.00
G1 X-71.9950 Y-4.4950 Z-1.0000 F3600.00
G1 X-71.5571 Y-4.0571 Z-1.0000 F3600.00
G1 X-71.9950 Y-4.4950 Z-1.0000 F3600.00
G1 X-73.5000 Y-4.4950 Z-1.0000 F3600.00
G2 X-74.9950 Y-3.0000 Z-1.0000 I-0.0000 J1.4950 F3600.00
G1 X-74.9950 Y3.0000 Z-1.0000 F3600.00
G2 X-73.5000 Y4.4950 Z-1.0000 I1.4950 J-0.0000 F3600.00
G1 X-71.9950 Y4.4950 Z-1.0000 F3600.00
G1 X-71.5571 Y4.0571 Z-1.0000 F3600.00
G1 X-71.9950 Y4.4950 Z-1.0000 F3600.00
G1 X-71.9950 Y7.5050 Z-1.0000 F3600.00
G1 X-71.5571 Y7.9429 Z-1.0000 F3600.00
G1 X-71.9950 Y7.5050 Z-1.0000 F3600.00
G1 X-73.5000 Y7.5050 Z-1.0000 F3600.00
G2 X-74.9950 Y9.0000 Z-1.0000 I-0.0000 J1.4950 F3600.00
G1 X-74.9950 Y15.0000 Z-1.0000 F3600.00
G2 X-73.5000 Y16.4950 Z-1.0000 I1.4950 J0.0000 F3600.00
G1 X-68.9950 Y16.4950 Z-1.0000 F3600.00
G1 X-68.5571 Y16.0571 Z-1.0000 F3600.00
G1 X-68.9950 Y16.4950 Z-1.0000 F3600.00
G1 X-68.9950 Y18.0000 Z-1.0000 F3600.00
G2 X-67.5000 Y19.4950 Z-1.0000 I1.4950 J0.0000 F3600.00
G1 X-61.5000 Y19.4950 Z-1.0000 F3600.00
G2 X-60.0050 Y18.0000 Z-1.0000 I0.0000 J-1.4950 F3600.00
G1 X-60.0050 Y16.4950 Z-1.0000 F3600.00
G1 X-60.4429 Y16.0571 Z-1.0000 F3600.00
G1 X-60.0050 Y16.4950 Z-1.0000 F3600.00
G1 X-56.9950 Y16.4950 Z-1.0000 F3600.00
G1 X-56.5571 Y16.0571 Z-1.0000 F3600.00
G1 X-56.9950 Y16.4950 Z-1.0000 F3600.00
G1 X-56.9950 Y18.0000 Z-1.0000 F3600.00
G2 X-55.5000 Y19.4950 Z-1.0000 I1.4950 J0.0000 F3600.00
G1 X-49.5000 Y19.4950 Z-1.0000 F3600.00
G2 X-48.0050 Y18.0000 Z-1.0000 I0.0000 J-1.4950 F3600.00
G1 X-48.0050 Y16.4950 Z-1.0000 F3600.00
G1 X-48.4429 Y16.0571 Z-1.0000 F3600.00
G1 X-48.0050 Y16.4950 Z-1.0000 F3600.00
G1 X-44.9950 Y16.4950 Z-1.0000 F3600.00
G1 X-44.5571 Y16.0571 Z-1.0000 F3600.00
G1 X-44.9950 Y16.4950 Z-1.0000 F3600.00
G1 X-44.9950 Y18.0000 Z-1.0000 F3600.00
G2 X-43.5000 Y19.4950 Z-1.0000 I1.4950 J0.0000 F3600.00
G1 X-37.5000 Y19.4950 Z-1.0000 F3600.00
G2 X-36.0050 Y18.0000 Z-1.0000 I0.0000 J-1.4950 F3600.00
G1 X-36.0050 Y16.4950 Z-1.0000 F3600.00
G1 X-36.4429 Y16.0571 Z-1.0000 F3600.00
G1 X-36.0050 Y16.4950 Z-1.0000 F3600.00
G1 X-32.9950 Y16.4950 Z-1.0000 F3600.00
G1 X-32.5571 Y16.0571 Z-1.0000 F3600.00
G1 X-32.9950 Y16.4950 Z-1.0000 F3600.00
G1 X-32.9950 Y18.0000 Z-1.0000 F3600.00
G2 X-31.5000 Y19.4950 Z-1.0000 I1.4950 J0.0000 F3600.00
G1 X-25.5000 Y19.4950 Z-1.0000 F3600.00
G2 X-24.0050 Y18.0000 Z-1.0000 I0.0000 J-1.4950 F3600.00
G1 X-24.0050 Y16.4950 Z-1.0000 F3600.00
G1 X-24.4429 Y16.0571 Z-1.0000 F3600.00
G1 X-24.0050 Y16.4950 Z-1.0000 F3600.00
G1 X-20.9950 Y16.4950 Z-1.0000 F3600.00
G1 X-20.5571 Y16.0571 Z-1.0000 F3600.00
G1 X-20.9950 Y16.4950 Z-1.0000 F3600.00
G1 X-20.9950 Y18.0000 Z-1.0000 F3600.00
G2 X-19.5000 Y19.4950 Z-1.0000 I1.4950 J0.0000 F3600.00
G1 X-13.5000 Y19.4950 Z-1.0000 F3600.00
G2 X-12.0050 Y18.0000 Z-1.0000 I0.0000 J-1.4950 F3600.00
G1 X-12.0050 Y16.4950 Z-1.0000 F3600.00
G1 X-12.4429 Y16.0571 Z-1.0000 F3600.00
G1 X-12.0050 Y16.4950 Z-1.0000 F3600.00
G1 X-8.9950 Y16.4950 Z-1.0000 F3600.00
G1 X-8.5571 Y16.0571 Z-1.0000 F3600.00
G1 X-8.9950 Y16.4950 Z-1.0000 F3600.00
G1 X-8.9950 Y18.0000 Z-1.0000 F3600.00
G2 X-7.5000 Y19.4950 Z-1.0000 I1.4950 J0.0000 F3600.00
G1 X-1.5000 Y19.4950 Z-1.0000 F3600.00
G2 X-0.0050 Y18.0000 Z-1.0000 I0.0000 J-1.4950 F3600.00
G1 X-0.0050 Y16.4950 Z-1.0000 F3600.00
G1 X-0.4429 Y16.0571 Z-1.0000 F3600.00
G1 X-0.0050 Y16.4950 Z-1.0000 F3600.00
G1 X3.0050 Y16.4950 Z-1.0000 F3600.00
G1 X3.4429 Y16.0571 Z-1.0000 F3600.00
G1 X3.0050 Y16.4950 Z-1.0000 F3600.00
G1 X3.0050 Y18.0000 Z-1.0000 F3600.00
G2 X4.5000 Y19.4950 Z-1.0000 I1.4950 J0.0000 F3600.00
G1 X10.5000 Y19.4950 Z-1.0000 F3600.00
G2 X11.9950 Y18.0000 Z-1.0000 I0.0000 J-1.4950 F3600.00
G1 X11.9950 Y16.4950 Z-1.0000 F3600.00
G1 X11.5571 Y16.0571 Z-1.0000 F3600.00
G1 X11.9950 Y16.4950 Z-1.0000 F3600.00
G1 X15.0050 Y16.4950 Z-1.0000 F3600.00
G1 X15.4429 Y16.0571 Z-1.0000 F3600.00
G1 X15.0050 Y16.4950 Z-1.0000 F3600.00
G1 X15.0050 Y18.0000 Z-1.0000 F3600.00
G2 X16.5000 Y19.4950 Z-1.0000 I1.4950 J0.0000 F3600.00
G1 X22.5000 Y19.4950 Z-1.0000 F3600.00
G2 X23.9950 Y18.0000 Z-1.0000 I0.0000 J-1.4950 F3600.00
G1 X23.9950 Y16.4950 Z-1.0000 F3600.00
G1 X23.5571 Y16.0571 Z-1.0000 F3600.00
G1 X23.9950 Y16.4950 Z-1.0000 F3600.00
G1 X27.0050 Y16.4950 Z-1.0000 F3600.00
G1 X27.4429 Y16.0571 Z-1.0000 F3600.00
G1 X27.0050 Y16.4950 Z-1.0000 F3600.00
G1 X27.0050 Y18.0000 Z-1.0000 F3600.00
G2 X28.5000 Y19.4950 Z-1.0000 I1.4950 J0.0000 F3600.00
G1 X34.5000 Y19.4950 Z-1.0000 F3600.00
G2 X35.9950 Y18.0000 Z-1.0000 I0.0000 J-1.4950 F3600.00
G1 X35.9950 Y16.4950 Z-1.0000 F3600.00
G1 X35.5571 Y16.0571 Z-1.0000 F3600.00
G1 X35.9950 Y16.4950 Z-1.0000 F3600.00
G1 X39.0050 Y16.4950 Z-1.0000 F3600.00
G1 X39.4429 Y16.0571 Z-1.0000 F3600.00
G1 X39.0050 Y16.4950 Z-1.0000 F3600.00
G1 X39.0050 Y18.0000 Z-1.0000 F3600.00
G2 X40.5000 Y19.4950 Z-1.0000 I1.4950 J0.0000 F3600.00
G1 X46.5000 Y19.4950 Z-1.0000 F3600.00
G2 X47.9950 Y18.0000 Z-1.0000 I0.0000 J-1.4950 F3600.00
G1 X47.9950 Y16.4950 Z-1.0000 F3600.00
G1 X47.5571 Y16.0571 Z-1.0000 F3600.00
G1 X47.9950 Y16.4950 Z-1.0000 F3600.00
G1 X51.0050 Y16.4950 Z-1.0000 F3600.00
G1 X51.4429 Y16.0571 Z-1.0000 F3600.00
G1 X51.0050 Y16.4950 Z-1.0000 F3600.00
G1 X51.0050 Y18.0000 Z-1.0000 F3600.00
G2 X52.5000 Y19.4950 Z-1.0000 I1.4950 J0.0000 F3600.00
G1 X58.5000 Y19.4950 Z-1.0000 F3600.00
G2 X59.9950 Y18.0000 Z-1.0000 I0.0000 J-1.4950 F3600.00
G1 X59.9950 Y16.4950 Z-1.0000 F3600.00
G1 X59.5571 Y16.0571 Z-1.0000 F3600.00
G1 X59.9950 Y16.4950 Z-1.0000 F3600.00
G1 X63.0050 Y16.4950 Z-1.0000 F3600.00
G1 X63.4429 Y16.0571 Z-1.0000 F3600.00
G1 X63.0050 Y16.4950 Z-1.0000 F3600.00
G1 X63.0050 Y18.0000 Z-1.0000 F3600.00
G2 X64.5000 Y19.4950 Z-1.0000 I1.4950 J0.0000 F3600.00
G1 X70.5000 Y19.4950 Z-1.0000 F3600.00
G2 X71.9950 Y18.0000 Z-1.0000 I0.0000 J-1.4950 F3600.00
G1 X71.9950 Y16.4950 Z-1.0000 F3600.00
G1 X71.5571 Y16.0571 Z-1.0000 F3600.00
G1 X71.9950 Y16.4950 Z-1.0000 F3600.00
G1 X73.5000 Y16.4950 Z-1.0000 F3600.00
G2 X73.9718 Y16.4186 Z-1.0000 I0.0000 J-1.4950 F3600.00
G1 X73.9718 Y16.4186 Z-2.0000 F3600.00
G2 X74.9950 Y15.0000 Z-2.0000 I-0.4718 J-1.4186 F3600.00
G1 X74.9950 Y0.4898 Z-2.0000 F3600.00
G1 X74.9950 Y-0.0126 Z-1.5190 F3600.00
G1 X74.9950 Y-0.4898 Z-2.0000 F3600.00
G1 X74.9950 Y-15.0000 Z-2.0000 F3600.00
G2 X73.5000 Y-16.4950 Z-2.0000 I-1.4950 J-0.0000 F3600.00
G1 X71.9950 Y-16.4950 Z-2.0000 F3600.00
G1 X71.5571 Y-16.0571 Z-2.0000 F3600.00
G1 X71.9950 Y-16.4950 Z-2.0000 F3600.00
G1 X71.9950 Y-18.0000 Z-2.0000 F3600.00
G2 X70.5000 Y-19.4950 Z-2.0000 I-1.4950 J-0.0000 F3600.00
G1 X64.5000 Y-19.4950 Z-2.0000 F3600.00
G2 X63.0050 Y-18.0000 Z-2.0000 I-0.0000 J1.4950 F3600.00
G1 X63.0050 Y-16.4950 Z-2.0000 F3600.00
G1 X63.4429 Y-16.0571 Z-2.0000 F3600.00
G1 X63.0050 Y-16.4950 Z-2.0000 F3600.00
G1 X59.9950 Y-16.4950 Z-2.0000 F3600.00
G1 X59.5571 Y-16.0571 Z-2.0000 F3600.00
G1 X59.9950 Y-16.4950 Z-2.0000 F3600.00
G1 X59.9950 Y-18.0000 Z-2.0000 F3600.00
G2 X58.5000 Y-19.4950 Z-2.0000 I-1.4950 J-0.0000 F3600.00
G1 X55.9898 Y-19.4950 Z-2.0000 F3600.00
G1 X55.5142 Y-19.4950 Z-1.5205 F3600.00
G1 X55.4860 Y-19.4950 Z-1.5203 F3600.00
G1 X55.0102 Y-19.4950 Z-2.0000 F3600.00
G1 X52.5000 Y-19.4950 Z-2.0000 F3600.00
G2 X51.0050 Y-18.0000 Z-2.0000 I-0.0000 J1.4950 F3600.00
G1 X51.0050 Y-16.4950 Z-2.0000 F3600.00
G1 X51.4429 Y-16.0571 Z-2.0000 F3600.00
G1 X51.0050 Y-16.4950 Z-2.0000 F3600.00
G1 X47.9950 Y-16.4950 Z-2.0000 F3600.00
G1 X47.5571 Y-16.0571 Z-2.0000 F3600.00
G1 X47.9950 Y-16.4950 Z-2.0000 F3600.00
G1 X47.9950 Y-18.0000 Z-2.0000 F3600.00
G2 X46.5000 Y-19.4950 Z-2.0000 I-1.4950 J-0.0000 F3600.00
G1 X40.5000 Y-19.4950 Z-2.0000 F3600.00
G2 X39.0050 Y-18.0000 Z-2.0000 I-0.0000 J1.4950 F3600.00
G1 X39.0050 Y-16.4950 Z-2.0000 F3600.00
G1 X39.4429 Y-16.0571 Z-2.0000 F3600.00
G1 X39.0050 Y-16.4950 Z-2.0000 F3600.00
G1 X35.9950 Y-16.4950 Z-2.0000 F3600.00
G1 X35.5571 Y-16.0571 Z-2.0000 F3600.00
G1 X35.9950 Y-16.4950 Z-2.0000 F3600.00
G1 X35.9950 Y-18.0000 Z-2.0000 F3600.00
G2 X34.5000 Y-19.4950 Z-2.0000 I-1.4950 J-0.0000 F3600.00
G1 X28.5000 Y-19.4950 Z-2.0000 F3600.00
G2 X27.0050 Y-18.0000 Z-2.0000 I-0.0000 J1.4950 F3600.00
G1 X27.0050 Y-16.4950 Z-2.0000 F3600.00
G1 X27.4429 Y-16.0571 Z-2.0000 F3600.00
G1 X27.0050 Y-16.4950 Z-2.0000 F3600.00
G1 X23.9950 Y-16.4950 Z-2.0000 F3600.00
G1 X23.5571 Y-16.0571 Z-2.0000 F3600.00
G1 X23.9950 Y-16.4950 Z-2.0000 F3600.00
G1 X23.9950 Y-18.0000 Z-2.0000 F3600.00
G2 X22.5000 Y-19.4950 Z-2.0000 I-1.4950 J-0.0000 F3600.00
G1 X16.5000 Y-19.4950 Z-2.0000 F3600.00
G2 X15.0050 Y-18.0000 Z-2.0000 I-0.0000 J1.4950 F3600.00
G1 X15.0050 Y-16.4950 Z-2.0000 F3600.00
G1 X15.4429 Y-16.0571 Z-2.0000 F3600.00
G1 X15.0050 Y-16.4950 Z-2.0000 F3600.00
G1 X11.9950 Y-16.4950 Z-2.0000 F3600.00
G1 X11.5571 Y-16.0571 Z-2.0000 F3600.00
G1 X11.9950 Y-16.4950 Z-2.0000 F3600.00
G1 X11.9950 Y-18.0000 Z-2.0000 F3600.00
G2 X10.5000 Y-19.4950 Z-2.0000 I-1.4950 J-0.0000 F3600.00
G1 X4.5000 Y-19.4950 Z-2.0000 F3600.00
G2 X3.0050 Y-18.0000 Z-2.0000 I-0.0000 J1.4950 F3600.00
G1 X3.0050 Y-16.4950 Z-2.0000 F3600.00
G1 X3.4429 Y-16.0571 Z-2.0000 F3600.00
G1 X3.0050 Y-16.4950 Z-2.0000 F3600.00
G1 X-0.0050 Y-16.4950 Z-2.0000 F3600.00
G1 X-0.4429 Y-16.0571 Z-2.0000 F3600.00
G1 X-0.0050 Y-16.4950 Z-2.0000 F3600.00
G1 X-0.0050 Y-18.0000 Z-2.0000 F3600.00
G2 X-1.5000 Y-19.4950 Z-2.0000 I-1.4950 J-0.0000 F3600.00
G1 X-4.0102 Y-19.4950 Z-2.0000 F3600.00
G1 X-4.5012 Y-19.4950 Z-1.5105 F3600.00
G1 X-4.9898 Y-19.4950 Z-2.0000 F3600.00
G1 X-7.5000 Y-19.4950 Z-2.0000 F3600.00
G2 X-8.9950 Y-18.0000 Z-2.0000 I-0.0000 J1.4950 F3600.00
G1 X-8.9950 Y-16.4950 Z-2.0000 F3600.00
G1 X-8.5571 Y-16.0571 Z-2.0000 F3600.00
G1 X-8.9950 Y-16.4950 Z-2.0000 F3600.00
G1 X-12.0050 Y-16.4950 Z-2.0000 F3600.00
G1 X-12.4429 Y-16.0571 Z-2.0000 F3600.00
G1 X-12.0050 Y-16.4950 Z-2.0000 F3600.00
G1 X-12.0050 Y-18.0000 Z-2.0000 F3600.00
G2 X-13.5000 Y-19.4950 Z-2.0000 I-1.4950 J-0.0000 F3600.00
G1 X-19.5000 Y-19.4950 Z-2.0000 F3600.00
G2 X-20.9950 Y-18.0000 Z-2.0000 I-0.0000 J1.4950 F3600.00
G1 X-20.9950 Y-16.4950 Z-2.0000 F3600.00
G1 X-20.5571 Y-16.0571 Z-2.0000 F3600.00
G1 X-20.9950 Y-16.4950 Z-2.0000 F3600.00
G1 X-24.0050 Y-16.4950 Z-2.0000 F3600.00
G1 X-24.4429 Y-16.0571 Z-2.0000 F3600.00
G1 X-24.0050 Y-16.4950 Z-2.0000 F3600.00
G1 X-24.0050 Y-18.0000 Z-2.0000 F3600.00
G2 X-25.5000 Y-19.4950 Z-2.0000 I-1.4950 J-0.0000 F3600.00
G1 X-31.5000 Y-19.4950 Z-2.0000 F3600.00
G2 X-32.9950 Y-18.0000 Z-2.0000 I-0.0000 J1.4950 F3600.00
G1 X-32.9950 Y-16.4950 Z-2.0000 F3600.00
G1 X-32.5571 Y-16.0571 Z-2.0000 F3600.00
G1 X-32.9950 Y-16.4950 Z-2.0000 F3600.00
G1 X-36.0050 Y-16.4950 Z-2.0000 F3600.00
G1 X-36.4429 Y-16.0571 Z-2.0000 F3600.00
G1 X-36.0050 Y-16.4950 Z-2.0000 F3600.00
G1 X-36.0050 Y-18.0000 Z-2.0000 F3600.00
G2 X-37.5000 Y-19.4950 Z-2.0000 I-1.4950 J-0.0000 F3600.00
G1 X-43.5000 Y-19.4950 Z-2.0000 F3600.00
G2 X-44.9950 Y-18.0000 Z-2.0000 I-0.0000 J1.4950 F3600.00
G1 X-44.9950 Y-16.4950 Z-2.0000 F3600.00
G1 X-44.5571 Y-16.0571 Z-2.0000 F3600.00
G1 X-44.9950 Y-16.4950 Z-2.0000 F3600.00
G1 X-48.0050 Y-16.4950 Z-2.0000 F3600.00
G1 X-48.4429 Y-16.0571 Z-2.0000 F3600.00
G1 X-48.0050 Y-16.4950 Z-2.0000 F3600.00
G1 X-48.0050 Y-18.0000 Z-2.0000 F3600.00
G2 X-49.5000 Y-19.4950 Z-2.0000 I-1.4950 J-0.0000 F3600.00
G1 X-55.5000 Y-19.4950 Z-2.0000 F3600.00
G2 X-56.9950 Y-18.0000 Z-2.0000 I-0.0000 J1.4950 F3600.00
G1 X-56.9950 Y-16.4950 Z-2.0000 F3600.00
G1 X-56.5571 Y-16.0571 Z-2.0000 F3600.00
G1 X-56.9950 Y-16.4950 Z-2.0000 F3600.00
G1 X-60.0050 Y-16.4950 Z-2.0000 F3600.00
G1 X-60.4429 Y-16.0571 Z-2.0000 F3600.00
G1 X-60.0050 Y-16.4950 Z-2.0000 F3600.00
G1 X-60.0050 Y-18.0000 Z-2.0000 F3600.00
G2 X-61.5000 Y-19.4950 Z-2.0000 I-1.4950 J-0.0000 F3600.00
G1 X-64.0102 Y-19.4950 Z-2.0000 F3600.00
G1 X-64.4844 Y-19.4950 Z-1.5218 F3600.00
G1 X-64.5165 Y-19.4950 Z-1.5227 F3600.00
G1 X-64.9898 Y-19.4950 Z-2.0000 F3600.00
G1 X-67.5000 Y-19.4950 Z-2.0000 F3600.00
G2 X-68.9950 Y-18.0000 Z-2.0000 I-0.0000 J1.4950 F3600.00
G1 X-68.9950 Y-16.4950 Z-2.0000 F3600.00
G1 X-68.5571 Y-16.0571 Z-2.0000 F3600.00
G1 X-68.9950 Y-16.4950 Z-2.0000 F3600.00
G1 X-73.5000 Y-16.4950 Z-2.0000 F3600.00
G2 X-74.9950 Y-15.0000 Z-2.0000 I-0.0000 J1.4950 F3600.00
G1 X-74.9950 Y-9.0000 Z-2.0000 F3600.00
G2 X-73.5000 Y-7.5050 Z-2.0000 I1.4950 J0.0000 F3600.00
G1 X-71.9950 Y-7.5050 Z-2.0000 F3600.00
G1 X-71.5571 Y-7.9429 Z-2.0000 F3600.00
G1 X-71.9950 Y-7.5050 Z-2.0000 F3600.00
G1 X-71.9950 Y-4.4950 Z-2.0000 F3600.00
G1 X-71.5571 Y-4.0571 Z-2.0000 F3600.00
G1 X-71.9950 Y-4.4950 Z-2.0000 F3600.00
G1 X-73.5000 Y-4.4950 Z-2.0000 F3600.00
G2 X-74.9950 Y-3.0000 Z-2.0000 I-0.0000 J1.4950 F3600.00
G1 X-74.9950 Y-0.4898 Z-2.0000 F3600.00
G1 X-74.9950 Y0.0126 Z-1.5190 F3600.00
G1 X-74.9950 Y0.4898 Z-2.0000 F3600.00
G1 X-74.9950 Y3.0000 Z-2.0000 F3600.00
G2 X-73.5000 Y4.4950 Z-2.0000 I1.4950 J-0.0000 F3600.00
G1 X-71.9950 Y4.4950 Z-2.0000 F3600.00
G1 X-71.5571 Y4.0571 Z-2.0000 F3600.00
G1 X-71.9950 Y4.4950 Z-2.0000 F3600.00
G1 X-71.9950 Y7.5050 Z-2.0000 F3600.00
G1 X-71.5571 Y7.9429 Z-2.0000 F3600.00
G1 X-71.9950 Y7.5050 Z-2.0000 F3600.00
G1 X-73.5000 Y7.5050 Z-2.0000 F3600.00
G2 X-74.9950 Y9.0000 Z-2.0000 I-0.0000 J1.4950 F3600.00
G1 X-74.9950 Y15.0000 Z-2.0000 F3600.00
G2 X-73.5000 Y16.4950 Z-2.0000 I1.4950 J0.0000 F3600.00
G1 X-68.9950 Y16.4950 Z-2.0000 F3600.00
G1 X-68.5571 Y16.0571 Z-2.0000 F3600.00
G1 X-68.9950 Y16.4950 Z-2.0000 F3600.00
G1 X-68.9950 Y18.0000 Z-2.0000 F3600.00
G2 X-67.5000 Y19.4950 Z-2.0000 I1.4950 J0.0000 F3600.00
G1 X-64.9898 Y19.4950 Z-2.0000 F3600.00
G1 X-64.5165 Y19.4950 Z-1.5227 F3600.00
G1 X-64.4870 Y19.4950 Z-1.5194 F3600.00
G1 X-64.0102 Y19.4950 Z-2.0000 F3600.00
G1 X-61.5000 Y19.4950 Z-2.0000 F3600.00
G2 X-60.0050 Y18.0000 Z-2.0000 I0.0000 J-1.4950 F3600.00
G1 X-60.0050 Y16.4950 Z-2.0000 F3600.00
G1 X-60.4429 Y16.0571 Z-2.0000 F3600.00
G1 X-60.0050 Y16.4950 Z-2.0000 F3600.00
G1 X-56.9950 Y16.4950 Z-2.0000 F3600.00
G1 X-56.5571 Y16.0571 Z-2.0000 F3600.00
G1 X-56.9950 Y16.4950 Z-2.0000 F3600.00
G1 X-56.9950 Y18.0000 Z-2.0000 F3600.00
G2 X-55.5000 Y19.4950 Z-2.0000 I1.4950 J0.0000 F3600.00
G1 X-49.5000 Y19.4950 Z-2.0000 F3600.00
G2 X-48.0050 Y18.0000 Z-2.0000 I0.0000 J-1.4950 F3600.00
G1 X-48.0050 Y16.4950 Z-2.0000 F3600.00
G1 X-48.4429 Y16.0571 Z-2.0000 F3600.00
G1 X-48.0050 Y16.4950 Z-2.0000 F3600.00
G1 X-44.9950 Y16.4950 Z-2.0000 F3600.00
G1 X-44.5571 Y16.0571 Z-2.0000 F3600.00
G1 X-44.9950 Y16.4950 Z-2.0000 F3600.00
G1 X-44.9950 Y18.0000 Z-2.0000 F3600.00
G2 X-43.5000 Y19.4950 Z-2.0000 I1.4950 J0.0000 F3600.00
G1 X-37.5000 Y19.4950 Z-2.0000 F3600.00
G2 X-36.0050 Y18.0000 Z-2.0000 I0.0000 J-1.4950 F3600.00
G1 X-36.0050 Y16.4950 Z-2.0000 F3600.00
G1 X-36.4429 Y16.0571 Z-2.0000 F3600.00
G1 X-36.0050 Y16.4950 Z-2.0000 F3600.00
G1 X-32.9950 Y16.4950 Z-2.0000 F3600.00
G1 X-32.5571 Y16.0571 Z-2.0000 F3600.00
G1 X-32.9950 Y16.4950 Z-2.0000 F3600.00
G1 X-32.9950 Y18.0000 Z-2.0000 F3600.00
G2 X-31.5000 Y19.4950 Z-2.0000 I1.4950 J0.0000 F3600.00
G1 X-25.5000 Y19.4950 Z-2.0000 F3600.00
G2 X-24.0050 Y18.0000 Z-2.0000 I0.0000 J-1.4950 F3600.00
G1 X-24.0050 Y16.4950 Z-2.0000 F3600.00
G1 X-24.4429 Y16.0571 Z-2.0000 F3600.00
G1 X-24.0050 Y16.4950 Z-2.0000 F3600.00
G1 X-20.9950 Y16.4950 Z-2.0000 F3600.00
G1 X-20.5571 Y16.0571 Z-2.0000 F3600.00
G1 X-20.9950 Y16.4950 Z-2.0000 F3600.00
G1 X-20.9950 Y18.0000 Z-2.0000 F3600.00
G2 X-19.5000 Y19.4950 Z-2.0000 I1.4950 J0.0000 F3600.00
G1 X-13.5000 Y19.4950 Z-2.0000 F3600.00
G2 X-12.0050 Y18.0000 Z-2.0000 I0.0000 J-1.4950 F3600.00
G1 X-12.0050 Y16.4950 Z-2.0000 F3600.00
G1 X-12.4429 Y16.0571 Z-2.0000 F3600.00
G1 X-12.0050 Y16.4950 Z-2.0000 F3600.00
G1 X-8.9950 Y16.4950 Z-2.0000 F3600.00
G1 X-8.5571 Y16.0571 Z-2.0000 F3600.00
G1 X-8.9950 Y16.4950 Z-2.0000 F3600.00
G1 X-8.9950 Y18.0000 Z-2.0000 F3600.00
G2 X-7.5000 Y19.4950 Z-2.0000 I1.4950 J0.0000 F3600.00
G1 X-4.9898 Y19.4950 Z-2.0000 F3600.00
G1 X-4.5391 Y19.4950 Z-1.5451 F3600.00
G1 X-4.5012 Y19.4950 Z-1.5105 F3600.00
G1 X-4.0102 Y19.4950 Z-2.0000 F3600.00
G1 X-1.5000 Y19.4950 Z-2.0000 F3600.00
G2 X-0.0050 Y18.0000 Z-2.0000 I0.0000 J-1.4950 F3600.00
G1 X-0.0050 Y16.4950 Z-2.0000 F3600.00
G1 X-0.4429 Y16.0571 Z-2.0000 F3600.00
G1 X-0.0050 Y16.4950 Z-2.0000 F3600.00
G1 X3.0050 Y16.4950 Z-2.0000 F3600.00
G1 X3.4429 Y16.0571 Z-2.0000 F3600.00
G1 X3.0050 Y16.4950 Z-2.0000 F3600.00
G1 X3.0050 Y18.0000 Z-2.0000 F3600.00
G2 X4.5000 Y19.4950 Z-2.0000 I1.4950 J0.0000 F3600.00
G1 X10.5000 Y19.4950 Z-2.0000 F3600.00
G2 X11.9950 Y18.0000 Z-2.0000 I0.0000 J-1.4950 F3600.00
G1 X11.9950 Y16.4950 Z-2.0000 F3600.00
G1 X11.5571 Y16.0571 Z-2.0000 F3600.00
G1 X11.9950 Y16.4950 Z-2.0000 F3600.00
G1 X15.0050 Y16.4950 Z-2.0000 F3600.00
G1 X15.4429 Y16.0571 Z-2.0000 F3600.00
G1 X15.0050 Y16.4950 Z-2.0000 F3600.00
G1 X15.0050 Y18.0000 Z-2.0000 F3600.00
G2 X16.5000 Y19.4950 Z-2.0000 I1.4950 J0.0000 F3600.00
G1 X22.5000 Y19.4950 Z-2.0000 F3600.00
G2 X23.9950 Y18.0000 Z-2.0000 I0.0000 J-1.4950 F3600.00
G1 X23.9950 Y16.4950 Z-2.0000 F3600.00
G1 X23.5571 Y16.0571 Z-2.0000 F3600.00
G1 X23.9950 Y16.4950 Z-2.0000 F3600.00
G1 X27.0050 Y16.4950 Z-2.0000 F3600.00
G1 X27.4429 Y16.0571 Z-2.0000 F3600.00
G1 X27.0050 Y16.4950 Z-2.0000 F3600.00
G1 X27.0050 Y18.0000 Z-2.0000 F3600.00
G2 X28.5000 Y19.4950 Z-2.0000 I1.4950 J0.0000 F3600.00
G1 X34.5000 Y19.4950 Z-2.0000 F3600.00
G2 X35.9950 Y18.0000 Z-2.0000 I0.0000 J-1.4950 F3600.00
G1 X35.9950 Y16.4950 Z-2.0000 F3600.00
G1 X35.5571 Y16.0571 Z-2.0000 F3600.00
G1 X35.9950 Y16.4950 Z-2.0000 F3600.00
G1 X39.0050 Y16.4950 Z-2.0000 F3600.00
G1 X39.4429 Y16.0571 Z-2.0000 F3600.00
G1 X39.0050 Y16.4950 Z-2.0000 F3600.00
G1 X39.0050 Y18.0000 Z-2.0000 F3600.00
G2 X40.5000 Y19.4950 Z-2.0000 I1.4950 J0.0000 F3600.00
G1 X46.5000 Y19.4950 Z-2.0000 F3600.00
G2 X47.9950 Y18.0000 Z-2.0000 I0.0000 J-1.4950 F3600.00
G1 X47.9950 Y16.4950 Z-2.0000 F3600.00
G1 X47.5571 Y16.0571 Z-2.0000 F3600.00
G1 X47.9950 Y16.4950 Z-2.0000 F3600.00
G1 X51.0050 Y16.4950 Z-2.0000 F3600.00
G1 X51.4429 Y16.0571 Z-2.0000 F3600.00
G1 X51.0050 Y16.4950 Z-2.0000 F3600.00
G1 X51.0050 Y18.0000 Z-2.0000 F3600.00
G2 X52.5000 Y19.4950 Z-2.0000 I1.4950 J0.0000 F3600.00
G1 X54.5102 Y19.4950 Z-2.0000 F3600.00
G1 X54.9772 Y19.4950 Z-1.5288 F3600.00
G1 X55.0141 Y19.4950 Z-1.5204 F3600.00
G1 X55.4898 Y19.4950 Z-2.0000 F3600.00
G1 X58.5000 Y19.4950 Z-2.0000 F3600.00
G2 X59.9950 Y18.0000 Z-2.0000 I0.0000 J-1.4950 F3600.00
G1 X59.9950 Y16.4950 Z-2.0000 F3600.00
G1 X59.5571 Y16.0571 Z-2.0000 F3600.00
G1 X59.9950 Y16.4950 Z-2.0000 F3600.00
G1 X63.0050 Y16.4950 Z-2.0000 F3600.00
G1 X63.4429 Y16.0571 Z-2.0000 F3600.00
G1 X63.0050 Y16.4950 Z-2.0000 F3600.00
G1 X63.0050 Y18.0000 Z-2.0000 F3600.00
G2 X64.5000 Y19.4950 Z-2.0000 I1.4950 J0.0000 F3600.00
G1 X70.5000 Y19.4950 Z-2.0000 F3600.00
G2 X71.9950 Y18.0000 Z-2.0000 I0.0000 J-1.4950 F3600.00
G1 X71.9950 Y16.4950 Z-2.0000 F3600.00
G1 X71.5571 Y16.0571 Z-2.0000 F3600.00
G1 X71.9950 Y16.4950 Z-2.0000 F3600.00
G1 X73.5000 Y16.4950 Z-2.0000 F3600.00
G2 X73.9718 Y16.4186 Z-2.0000 I0.0000 J-1.4950 F3600.00
G1 X73.9718 Y16.4186 Z-3.0000 F3600.00
G2 X74.9950 Y15.0000 Z-3.0000 I-0.4718 J-1.4186 F3600.00
G1 X74.9950 Y1.4799 Z-3.0000 F3600.00
G1 X74.9950 Y0.0815 Z-1.5878 F3600.00
G1 X74.9950 Y0.0031 Z-1.5112 F3600.00
G1 X74.9950 Y-0.0553 Z-1.5614 F3600.00
G1 X74.9950 Y-1.4799 Z-3.0000 F3600.00
G1 X74.9950 Y-15.0000 Z-3.0000 F3600.00
G2 X73.5000 Y-16.4950 Z-3.0000 I-1.4950 J-0.0000 F3600.00
G1 X71.9950 Y-16.4950 Z-3.0000 F3600.00
G1 X71.5571 Y-16.0571 Z-3.0000 F3600.00
G1 X71.9950 Y-16.4950 Z-3.0000 F3600.00
G1 X71.9950 Y-18.0000 Z-3.0000 F3600.00
G2 X70.5000 Y-19.4950 Z-3.0000 I-1.4950 J-0.0000 F3600.00
G1 X64.5000 Y-19.4950 Z-3.0000 F3600.00
G2 X63.0050 Y-18.0000 Z-3.0000 I-0.0000 J1.4950 F3600.00
G1 X63.0050 Y-16.4950 Z-3.0000 F3600.00
G1 X63.4429 Y-16.0571 Z-3.0000 F3600.00
G1 X63.0050 Y-16.4950 Z-3.0000 F3600.00
G1 X59.9950 Y-16.4950 Z-3.0000 F3600.00
G1 X59.5571 Y-16.0571 Z-3.0000 F3600.00
G1 X59.9950 Y-16.4950 Z-3.0000 F3600.00
G1 X59.9950 Y-18.0000 Z-3.0000 F3600.00
G2 X58.5000 Y-19.4950 Z-3.0000 I-1.4950 J-0.0000 F3600.00
G1 X56.9799 Y-19.4950 Z-3.0000 F3600.00
G1 X55.5142 Y-19.4950 Z-1.5205 F3600.00
G1 X55.4751 Y-19.4950 Z-1.5309 F3600.00
G1 X54.0201 Y-19.4950 Z-3.0000 F3600.00
G1 X52.5000 Y-19.4950 Z-3.0000 F3600.00
G2 X51.0050 Y-18.0000 Z-3.0000 I-0.0000 J1.4950 F3600.00
G1 X51.0050 Y-16.4950 Z-3.0000 F3600.00
G1 X51.4429 Y-16.0571 Z-3.0000 F3600.00
G1 X51.0050 Y-16.4950 Z-3.0000 F3600.00
G1 X47.9950 Y-16.4950 Z-3.0000 F3600.00
G1 X47.5571 Y-16.0571 Z-3.0000 F3600.00
G1 X47.9950 Y-16.4950 Z-3.0000 F3600.00
G1 X47.9950 Y-18.0000 Z-3.0000 F3600.00
G2 X46.5000 Y-19.4950 Z-3.0000 I-1.4950 J-0.0000 F3600.00
G1 X40.5000 Y-19.4950 Z-3.0000 F3600.00
G2 X39.0050 Y-18.0000 Z-3.0000 I-0.0000 J1.4950 F3600.00
G1 X39.0050 Y-16.4950 Z-3.0000 F3600.00
G1 X39.4429 Y-16.0571 Z-3.0000 F3600.00
G1 X39.0050 Y-16.4950 Z-3.0000 F3600.00
G1 X35.9950 Y-16.4950 Z-3.0000 F3600.00
G1 X35.5571 Y-16.0571 Z-3.0000 F3600.00
G1 X35.9950 Y-16.4950 Z-3.0000 F3600.00
G1 X35.9950 Y-18.0000 Z-3.0000 F3600.00
G2 X34.5000 Y-19.4950 Z-3.0000 I-1.4950 J-0.0000 F3600.00
G1 X28.5000 Y-19.4950 Z-3.0000 F3600.00
G2 X27.0050 Y-18.0000 Z-3.0000 I-0.0000 J1.4950 F3600.00
G1 X27.0050 Y-16.4950 Z-3.0000 F3600.00
G1 X27.4429 Y-16.0571 Z-3.0000 F3600.00
G1 X27.0050 Y-16.4950 Z-3.0000 F3600.00
G1 X23.9950 Y-16.4950 Z-3.0000 F3600.00
G1 X23.5571 Y-16.0571 Z-3.0000 F3600.00
G1 X23.9950 Y-16.4950 Z-3.0000 F3600.00
G1 X23.9950 Y-18.0000 Z-3.0000 F3600.00
G2 X22.5000 Y-19.4950 Z-3.0000 I-1.4950 J-0.0000 F3600.00
G1 X16.5000 Y-19.4950 Z-3.0000 F3600.00
G2 X15.0050 Y-18.0000 Z-3.0000 I-0.0000 J1.4950 F3600.00
G1 X15.0050 Y-16.4950 Z-3.0000 F3600.00
G1 X15.4429 Y-16.0571 Z-3.0000 F3600.00
G1 X15.0050 Y-16.4950 Z-3.0000 F3600.00
G1 X11.9950 Y-16.4950 Z-3.0000 F3600.00
G1 X11.5571 Y-16.0571 Z-3.0000 F3600.00
G1 X11.9950 Y-16.4950 Z-3.0000 F3600.00
G1 X11.9950 Y-18.0000 Z-3.0000 F3600.00
G2 X10.5000 Y-19.4950 Z-3.0000 I-1.4950 J-0.0000 F3600.00
G1 X4.5000 Y-19.4950 Z-3.0000 F3600.00
G2 X3.0050 Y-18.0000 Z-3.0000 I-0.0000 J1.4950 F3600.00
G1 X3.0050 Y-16.4950 Z-3.0000 F3600.00
G1 X3.4429 Y-16.0571 Z-3.0000 F3600.00
G1 X3.0050 Y-16.4950 Z-3.0000 F3600.00
G1 X-0.0050 Y-16.4950 Z-3.0000 F3600.00
G1 X-0.4429 Y-16.0571 Z-3.0000 F3600.00
G1 X-0.0050 Y-16.4950 Z-3.0000 F3600.00
G1 X-0.0050 Y-18.0000 Z-3.0000 F3600.00
G2 X-1.5000 Y-19.4950 Z-3.0000 I-1.4950 J-0.0000 F3600.00
G1 X-3.0201 Y-19.4950 Z-3.0000 F3600.00
G1 X-4.5012 Y-19.4950 Z-1.5105 F3600.00
G1 X-5.9799 Y-19.4950 Z-3.0000 F3600.00
G1 X-7.5000 Y-19.4950 Z-3.0000 F3600.00
G2 X-8.9950 Y-18.0000 Z-3.0000 I-0.0000 J1.4950 F3600.00
G1 X-8.9950 Y-16.4950 Z-3.0000 F3600.00
G1 X-8.5571 Y-16.0571 Z-3.0000 F3600.00
G1 X-8.9950 Y-16.4950 Z-3.0000 F3600.00
G1 X-12.0050 Y-16.4950 Z-3.0000 F3600.00
G1 X-12.4429 Y-16.0571 Z-3.0000 F3600.00
G1 X-12.0050 Y-16.4950 Z-3.0000 F3600.00
G1 X-12.0050 Y-18.0000 Z-3.0000 F3600.00
G2 X-13.5000 Y-19.4950 Z-3.0000 I-1.4950 J-0.0000 F3600.00
G1 X-19.5000 Y-19.4950 Z-3.0000 F3600.00
G2 X-20.9950 Y-18.0000 Z-3.0000 I-0.0000 J1.4950 F3600.00
G1 X-20.9950 Y-16.4950 Z-3.0000 F3600.00
G1 X-20.5571 Y-16.0571 Z-3.0000 F3600.00
G1 X-20.9950 Y-16.4950 Z-3.0000 F3600.00
G1 X-24.0050 Y-16.4950 Z-3.0000 F3600.00
G1 X-24.4429 Y-16.0571 Z-3.0000 F3600.00
G1 X-24.0050 Y-16.4950 Z-3.0000 F3600.00
G1 X-24.0050 Y-18.0000 Z-3.0000 F3600.00
G2 X-25.5000 Y-19.4950 Z-3.0000 I-1.4950 J-0.0000 F3600.00
G1 X-31.5000 Y-19.4950 Z-3.0000 F3600.00
G2 X-32.9950 Y-18.0000 Z-3.0000 I-0.0000 J1.4950 F3600.00
G1 X-32.9950 Y-16.4950 Z-3.0000 F3600.00
G1 X-32.5571 Y-16.0571 Z-3.0000 F3600.00
G1 X-32.9950 Y-16.4950 Z-3.0000 F3600.00
G1 X-36.0050 Y-16.4950 Z-3.0000 F3600.00
G1 X-36.4429 Y-16.0571 Z-3.0000 F3600.00
G1 X-36.0050 Y-16.4950 Z-3.0000 F3600.00
G1 X-36.0050 Y-18.0000 Z-3.0000 F3600.00
G2 X-37.5000 Y-19.4950 Z-3.0000 I-1.4950 J-0.0000 F3600.00
G1 X-43.5000 Y-19.4950 Z-3.0000 F3600.00
G2 X-44.9950 Y-18.0000 Z-3.0000 I-0.0000 J1.4950 F3600.00
G1 X-44.9950 Y-16.4950 Z-3.0000 F3600.00
G1 X-44.5571 Y-16.0571 Z-3.0000 F3600.00
G1 X-44.9950 Y-16.4950 Z-3.0000 F3600.00
G1 X-48.0050 Y-16.4950 Z-3.0000 F3600.00
G1 X-48.4429 Y-16.0571 Z-3.0000 F3600.00
G1 X-48.0050 Y-16.4950 Z-3.0000 F3600.00
G1 X-48.0050 Y-18.0000 Z-3.0000 F3600.00
G2 X-49.5000 Y-19.4950 Z-3.0000 I-1.4950 J-0.0000 F3600.00
G1 X-55.5000 Y-19.4950 Z-3.0000 F3600.00
G2 X-56.9950 Y-18.0000 Z-3.0000 I-0.0000 J1.4950 F3600.00
G1 X-56.9950 Y-16.4950 Z-3.0000 F3600.00
G1 X-56.5571 Y-16.0571 Z-3.0000 F3600.00
G1 X-56.9950 Y-16.4950 Z-3.0000 F3600.00
G1 X-60.0050 Y-16.4950 Z-3.0000 F3600.00
G1 X-60.4429 Y-16.0571 Z-3.0000 F3600.00
G1 X-60.0050 Y-16.4950 Z-3.0000 F3600.00
G1 X-60.0050 Y-18.0000 Z-3.0000 F3600.00
G2 X-61.5000 Y-19.4950 Z-3.0000 I-1.4950 J-0.0000 F3600.00
G1 X-63.0201 Y-19.4950 Z-3.0000 F3600.00
G1 X-64.4754 Y-19.4950 Z-1.5306 F3600.00
G1 X-64.5165 Y-19.4950 Z-1.5227 F3600.00
G1 X-65.9799 Y-19.4950 Z-3.0000 F3600.00
G1 X-67.5000 Y-19.4950 Z-3.0000 F3600.00
G2 X-68.9950 Y-18.0000 Z-3.0000 I-0.0000 J1.4950 F3600.00
G1 X-68.9950 Y-16.4950 Z-3.0000 F3600.00
G1 X-68.5571 Y-16.0571 Z-3.0000 F3600.00
G1 X-68.9950 Y-16.4950 Z-3.0000 F3600.00
G1 X-73.5000 Y-16.4950 Z-3.0000 F3600.00
G2 X-74.9950 Y-15.0000 Z-3.0000 I-0.0000 J1.4950 F3600.00
G1 X-74.9950 Y-9.0000 Z-3.0000 F3600.00
G2 X-73.5000 Y-7.5050 Z-3.0000 I1.4950 J0.0000 F3600.00
G1 X-71.9950 Y-7.5050 Z-3.0000 F3600.00
G1 X-71.5571 Y-7.9429 Z-3.0000 F3600.00
G1 X-71.9950 Y-7.5050 Z-3.0000 F3600.00
G1 X-71.9950 Y-4.4950 Z-3.0000 F3600.00
G1 X-71.5571 Y-4.0571 Z-3.0000 F3600.00
G1 X-71.9950 Y-4.4950 Z-3.0000 F3600.00
G1 X-73.5000 Y-4.4950 Z-3.0000 F3600.00
G2 X-74.9950 Y-3.0000 Z-3.0000 I-0.0000 J1.4950 F3600.00
G1 X-74.9950 Y-1.4799 Z-3.0000 F3600.00
G1 X-74.9950 Y-0.0815 Z-1.5878 F3600.00
G1 X-74.9950 Y-0.0031 Z-1.5112 F3600.00
G1 X-74.9950 Y0.0553 Z-1.5614 F3600.00
G1 X-74.9950 Y1.4799 Z-3.0000 F3600.00
G1 X-74.9950 Y3.0000 Z-3.0000 F3600.00
G2 X-73.5000 Y4.4950 Z-3.0000 I1.4950 J-0.0000 F3600.00
G1 X-71.9950 Y4.4950 Z-3.0000 F3600.00
G1 X-71.5571 Y4.0571 Z-3.0000 F3600.00
G1 X-71.9950 Y4.4950 Z-3.0000 F3600.00
G1 X-71.9950 Y7.5050 Z-3.0000 F3600.00
G1 X-71.5571 Y7.9429 Z-3.0000 F3600.00
G1 X-71.9950 Y7.5050 Z-3.0000 F3600.00
G1 X-73.5000 Y7.5050 Z-3.0000 F3600.00
G2 X-74.9950 Y9.0000 Z-3.0000 I-0.0000 J1.4950 F3600.00
G1 X-74.9950 Y15.0000 Z-3.0000 F3600.00
G2 X-73.5000 Y16.4950 Z-3.0000 I1.4950 J0.0000 F3600.00
G1 X-68.9950 Y16.4950 Z-3.0000 F3600.00
G1 X-68.5571 Y16.0571 Z-3.0000 F3600.00
G1 X-68.9950 Y16.4950 Z-3.0000 F3600.00
G1 X-68.9950 Y18.0000 Z-3.0000 F3600.00
G2 X-67.5000 Y19.4950 Z-3.0000 I1.4950 J0.0000 F3600.00
G1 X-65.9799 Y19.4950 Z-3.0000 F3600.00
G1 X-64.5165 Y19.4950 Z-1.5227 F3600.00
G1 X-64.4769 Y19.4950 Z-1.5292 F3600.00
G1 X-63.0201 Y19.4950 Z-3.0000 F3600.00
G1 X-61.5000 Y19.4950 Z-3.0000 F3600.00
G2 X-60.0050 Y18.0000 Z-3.0000 I0.0000 J-1.4950 F3600.00
G1 X-60.0050 Y16.4950 Z-3.0000 F3600.00
G1 X-60.4429 Y16.0571 Z-3.0000 F3600.00
G1 X-60.0050 Y16.4950 Z-3.0000 F3600.00
G1 X-56.9950 Y16.4950 Z-3.0000 F3600.00
G1 X-56.5571 Y16.0571 Z-3.0000 F3600.00
G1 X-56.9950 Y16.4950 Z-3.0000 F3600.00
G1 X-56.9950 Y18.0000 Z-3.0000 F3600.00
G2 X-55.5000 Y19.4950 Z-3.0000 I1.4950 J0.0000 F3600.00
G1 X-49.5000 Y19.4950 Z-3.0000 F3600.00
G2 X-48.0050 Y18.0000 Z-3.0000 I0.0000 J-1.4950 F3600.00
G1 X-48.0050 Y16.4950 Z-3.0000 F3600.00
G1 X-48.4429 Y16.0571 Z-3.0000 F3600.00
G1 X-48.0050 Y16.4950 Z-3.0000 F3600.00
G1 X-44.9950 Y16.4950 Z-3.0000 F3600.00
G1 X-44.5571 Y16.0571 Z-3.0000 F3600.00
G1 X-44.9950 Y16.4950 Z-3.0000 F3600.00
G1 X-44.9950 Y18.0000 Z-3.0000 F3600.00
G2 X-43.5000 Y19.4950 Z-3.0000 I1.4950 J0.0000 F3600.00
G1 X-37.5000 Y19.4950 Z-3.0000 F3600.00
G2 X-36.0050 Y18.0000 Z-3.0000 I0.0000 J-1.4950 F3600.00
G1 X-36.0050 Y16.4950 Z-3.0000 F3600.00
G1 X-36.4429 Y16.0571 Z-3.0000 F3600.00
G1 X-36.0050 Y16.4950 Z-3.0000 F3600.00
G1 X-32.9950 Y16.4950 Z-3.0000 F3600.00
G1 X-32.5571 Y16.0571 Z-3.0000 F3600.00
G1 X-32.9950 Y16.4950 Z-3.0000 F3600.00
G1 X-32.9950 Y18.0000 Z-3.0000 F3600.00
G2 X-31.5000 Y19.4950 Z-3.0000 I1.4950 J0.0000 F3600.00
G1 X-25.5000 Y19.4950 Z-3.0000 F3600.00
G2 X-24.0050 Y18.0000 Z-3.0000 I0.0000 J-1.4950 F3600.00
G1 X-24.0050 Y16.4950 Z-3.0000 F3600.00
G1 X-24.4429 Y16.0571 Z-3.0000 F3600.00
G1 X-24.0050 Y16.4950 Z-3.0000 F3600.00
G1 X-20.9950 Y16.4950 Z-3.0000 F3600.00
G1 X-20.5571 Y16.0571 Z-3.0000 F3600.00
G1 X-20.9950 Y16.4950 Z-3.0000 F3600.00
G1 X-20.9950 Y18.0000 Z-3.0000 F3600.00
G2 X-19.5000 Y19.4950 Z-3.0000 I1.4950 J0.0000 F3600.00
G1 X-13.5000 Y19.4950 Z-3.0000 F3600.00
G2 X-12.0050 Y18.0000 Z-3.0000 I0.0000 J-1.4950 F3600.00
G1 X-12.0050 Y16.4950 Z-3.0000 F3600.00
G1 X-12.4429 Y16.0571 Z-3.0000 F3600.00
G1 X-12.0050 Y16.4950 Z-3.0000 F3600.00
G1 X-8.9950 Y16.4950 Z-3.0000 F3600.00
G1 X-8.5571 Y16.0571 Z-3.0000 F3600.00
G1 X-8.9950 Y16.4950 Z-3.0000 F3600.00
G1 X-8.9950 Y18.0000 Z-3.0000 F3600.00
G2 X-7.5000 Y19.4950 Z-3.0000 I1.4950 J0.0000 F3600.00
G1 X-5.9799 Y19.4950 Z-3.0000 F3600.00
G1 X-4.5681 Y19.4950 Z-1.5743 F3600.00
G1 X-4.5012 Y19.4950 Z-1.5105 F3600.00
G1 X-3.0201 Y19.4950 Z-3.0000 F3600.00
G1 X-1.5000 Y19.4950 Z-3.0000 F3600.00
G2 X-0.0050 Y18.0000 Z-3.0000 I0.0000 J-1.4950 F3600.00
G1 X-0.0050 Y16.4950 Z-3.0000 F3600.00
G1 X-0.4429 Y16.0571 Z-3.0000 F3600.00
G1 X-0.0050 Y16.4950 Z-3.0000 F3600.00
G1 X3.0050 Y16.4950 Z-3.0000 F3600.00
G1 X3.4429 Y16.0571 Z-3.0000 F3600.00
G1 X3.0050 Y16.4950 Z-3.0000 F3600.00
G1 X3.0050 Y18.0000 Z-3.0000 F3600.00
G2 X4.5000 Y19.4950 Z-3.0000 I1.4950 J0.0000 F3600.00
G1 X10.5000 Y19.4950 Z-3.0000 F3600.00
G2 X11.9950 Y18.0000 Z-3.0000 I0.0000 J-1.4950 F3600.00
G1 X11.9950 Y16.4950 Z-3.0000 F3600.00
G1 X11.5571 Y16.0571 Z-3.0000 F3600.00
G1 X11.9950 Y16.4950 Z-3.0000 F3600.00
G1 X15.0050 Y16.4950 Z-3.0000 F3600.00
G1 X15.4429 Y16.0571 Z-3.0000 F3600.00
G1 X15.0050 Y16.4950 Z-3.0000 F3600.00
G1 X15.0050 Y18.0000 Z-3.0000 F3600.00
G2 X16.5000 Y19.4950 Z-3.0000 I1.4950 J0.0000 F3600.00
G1 X22.5000 Y19.4950 Z-3.0000 F3600.00
G2 X23.9950 Y18.0000 Z-3.0000 I0.0000 J-1.4950 F3600.00
G1 X23.9950 Y16.4950 Z-3.0000 F3600.00
G1 X23.5571 Y16.0571 Z-3.0000 F3600.00
G1 X23.9950 Y16.4950 Z-3.0000 F3600.00
G1 X27.0050 Y16.4950 Z-3.0000 F3600.00
G1 X27.4429 Y16.0571 Z-3.0000 F3600.00
G1 X27.0050 Y16.4950 Z-3.0000 F3600.00
G1 X27.0050 Y18.0000 Z-3.0000 F3600.00
G2 X28.5000 Y19.4950 Z-3.0000 I1.4950 J0.0000 F3600.00
G1 X34.5000 Y19.4950 Z-3.0000 F3600.00
G2 X35.9950 Y18.0000 Z-3.0000 I0.0000 J-1.4950 F3600.00
G1 X35.9950 Y16.4950 Z-3.0000 F3600.00
G1 X35.5571 Y16.0571 Z-3.0000 F3600.00
G1 X35.9950 Y16.4950 Z-3.0000 F3600.00
G1 X39.0050 Y16.4950 Z-3.0000 F3600.00
G1 X39.4429 Y16.0571 Z-3.0000 F3600.00
G1 X39.0050 Y16.4950 Z-3.0000 F3600.00
G1 X39.0050 Y18.0000 Z-3.0000 F3600.00
G2 X40.5000 Y19.4950 Z-3.0000 I1.4950 J0.0000 F3600.00
G1 X46.5000 Y19.4950 Z-3.0000 F3600.00
G2 X47.9950 Y18.0000 Z-3.0000 I0.0000 J-1.4950 F3600.00
G1 X47.9950 Y16.4950 Z-3.0000 F3600.00
G1 X47.5571 Y16.0571 Z-3.0000 F3600.00
G1 X47.9950 Y16.4950 Z-3.0000 F3600.00
G1 X51.0050 Y16.4950 Z-3.0000 F3600.00
G1 X51.4429 Y16.0571 Z-3.0000 F3600.00
G1 X51.0050 Y16.4950 Z-3.0000 F3600.00
G1 X51.0050 Y18.0000 Z-3.0000 F3600.00
G2 X52.5000 Y19.4950 Z-3.0000 I1.4950 J0.0000 F3600.00
G1 X53.5201 Y19.4950 Z-3.0000 F3600.00
G1 X54.9628 Y19.4950 Z-1.5432 F3600.00
G1 X55.0141 Y19.4950 Z-1.5204 F3600.00
G1 X56.4799 Y19.4950 Z-3.0000 F3600.00
G1 X58.5000 Y19.4950 Z-3.0000 F3600.00
G2 X59.9950 Y18.0000 Z-3.0000 I0.0000 J-1.4950 F3600.00
G1 X59.9950 Y16.4950 Z-3.0000 F3600.00
G1 X59.5571 Y16.0571 Z-3.0000 F3600.00
G1 X59.9950 Y16.4950 Z-3.0000 F3600.00
G1 X63.0050 Y16.4950 Z-3.0000 F3600.00
G1 X63.4429 Y16.0571 Z-3.0000 F3600.00
G1 X63.0050 Y16.4950 Z-3.0000 F3600.00
G1 X63.0050 Y18.0000 Z-3.0000 F3600.00
G2 X64.5000 Y19.4950 Z-3.0000 I1.4950 J0.0000 F3600.00
G1 X70.5000 Y19.4950 Z-3.0000 F3600.00
G2 X71.9950 Y18.0000 Z-3.0000 I0.0000 J-1.4950 F3600.00
G1 X71.9950 Y16.4950 Z-3.0000 F3600.00
G1 X71.5571 Y16.0571 Z-3.0000 F3600.00
G1 X71.9950 Y16.4950 Z-3.0000 F3600.00
G1 X73.5000 Y16.4950 Z-3.0000 F3600.00
G2 X73.9718 Y16.4186 Z-3.0000 I0.0000 J-1.4950 F3600.00
G1 X73.9718 Y16.4186 Z-4.0000 F3600.00
G2 X74.9950 Y15.0000 Z-4.0000 I-0.4718 J-1.4186 F3600.00
G1 X74.9950 Y2.4700 Z-4.0000 F3600.00
G1 X74.9950 Y-0.1098 Z-1.6163 F3600.00
G1 X74.9950 Y-2.4700 Z-4.0000 F3600.00
G1 X74.9950 Y-15.0000 Z-4.0000 F3600.00
G2 X73.5000 Y-16.4950 Z-4.0000 I-1.4950 J-0.0000 F3600.00
G1 X71.9950 Y-16.4950 Z-4.0000 F3600.00
G1 X71.5571 Y-16.0571 Z-4.0000 F3600.00
G1 X71.9950 Y-16.4950 Z-4.0000 F3600.00
G1 X71.9950 Y-18.0000 Z-4.0000 F3600.00
G2 X70.5000 Y-19.4950 Z-4.0000 I-1.4950 J-0.0000 F3600.00
G1 X64.5000 Y-19.4950 Z-4.0000 F3600.00
G2 X63.0050 Y-18.0000 Z-4.0000 I-0.0000 J1.4950 F3600.00
G1 X63.0050 Y-16.4950 Z-4.0000 F3600.00
G1 X63.4429 Y-16.0571 Z-4.0000 F3600.00
G1 X63.0050 Y-16.4950 Z-4.0000 F3600.00
G1 X59.9950 Y-16.4950 Z-4.0000 F3600.00
G1 X59.5571 Y-16.0571 Z-4.0000 F3600.00
G1 X59.9950 Y-16.4950 Z-4.0000 F3600.00
G1 X59.9950 Y-18.0000 Z-4.0000 F3600.00
G2 X58.5000 Y-19.4950 Z-4.0000 I-1.4950 J-0.0000 F3600.00
G1 X57.9700 Y-19.4950 Z-4.0000 F3600.00
G1 X55.5142 Y-19.4950 Z-1.5205 F3600.00
G1 X55.4677 Y-19.4950 Z-1.5383 F3600.00
G1 X53.0300 Y-19.4950 Z-4.0000 F3600.00
G1 X52.5000 Y-19.4950 Z-4.0000 F3600.00
G2 X51.0050 Y-18.0000 Z-4.0000 I-0.0000 J1.4950 F3600.00
G1 X51.0050 Y-16.4950 Z-4.0000 F3600.00
G1 X51.4429 Y-16.0571 Z-4.0000 F3600.00
G1 X51.0050 Y-16.4950 Z-4.0000 F3600.00
G1 X47.9950 Y-16.4950 Z-4.0000 F3600.00
G1 X47.5571 Y-16.0571 Z-4.0000 F3600.00
G1 X47.9950 Y-16.4950 Z-4.0000 F3600.00
G1 X47.9950 Y-18.0000 Z-4.0000 F3600.00
G2 X46.5000 Y-19.4950 Z-4.0000 I-1.4950 J-0.0000 F3600.00
G1 X40.5000 Y-19.4950 Z-4.0000 F3600.00
G2 X39.0050 Y-18.0000 Z-4.0000 I-0.0000 J1.4950 F3600.00
G1 X39.0050 Y-16.4950 Z-4.0000 F3600.00
G1 X39.4429 Y-16.0571 Z-4.0000 F3600.00
G1 X39.0050 Y-16.4950 Z-4.0000 F3600.00
G1 X35.9950 Y-16.4950 Z-4.0000 F3600.00
G1 X35.5571 Y-16.0571 Z-4.0000 F3600.00
G1 X35.9950 Y-16.4950 Z-4.0000 F3600.00
G1 X35.9950 Y-18.0000 Z-4.0000 F3600.00
G2 X34.5000 Y-19.4950 Z-4.0000 I-1.4950 J-0.0000 F3600.00
G1 X28.5000 Y-19.4950 Z-4.0000 F3600.00
G2 X27.0050 Y-18.0000 Z-4.0000 I-0.0000 J1.4950 F3600.00
G1 X27.0050 Y-16.4950 Z-4.0000 F3600.00
G1 X27.4429 Y-16.0571 Z-4.0000 F3600.00
G1 X27.0050 Y-16.4950 Z-4.0000 F3600.00
G1 X23.9950 Y-16.4950 Z-4.0000 F3600.00
G1 X23.5571 Y-16.0571 Z-4.0000 F3600.00
G1 X23.9950 Y-16.4950 Z-4.0000 F3600.00
G1 X23.9950 Y-18.0000 Z-4.0000 F3600.00
G2 X22.5000 Y-19.4950 Z-4.0000 I-1.4950 J-0.0000 F3600.00
G1 X16.5000 Y-19.4950 Z-4.0000 F3600.00
G2 X15.0050 Y-18.0000 Z-4.0000 I-0.0000 J1.4950 F3600.00
G1 X15.0050 Y-16.4950 Z-4.0000 F3600.00
G1 X15.4429 Y-16.0571 Z-4.0000 F3600.00
G1 X15.0050 Y-16.4950 Z-4.0000 F3600.00
G1 X11.9950 Y-16.4950 Z-4.0000 F3600.00
G1 X11.5571 Y-16.0571 Z-4.0000 F3600.00
G1 X11.9950 Y-16.4950 Z-4.0000 F3600.00
G1 X11.9950 Y-18.0000 Z-4.0000 F3600.00
G2 X10.5000 Y-19.4950 Z-4.0000 I-1.4950 J-0.0000 F3600.00
G1 X4.5000 Y-19.4950 Z-4.0000 F3600.00
G2 X3.0050 Y-18.0000 Z-4.0000 I-0.0000 J1.4950 F3600.00
G1 X3.0050 Y-16.4950 Z-4.0000 F3600.00
G1 X3.4429 Y-16.0571 Z-4.0000 F3600.00
G1 X3.0050 Y-16.4950 Z-4.0000 F3600.00
G1 X-0.0050 Y-16.4950 Z-4.0000 F3600.00
G1 X-0.4429 Y-16.0571 Z-4.0000 F3600.00
G1 X-0.0050 Y-16.4950 Z-4.0000 F3600.00
G1 X-0.0050 Y-18.0000 Z-4.0000 F3600.00
G2 X-1.5000 Y-19.4950 Z-4.0000 I-1.4950 J-0.0000 F3600.00
G1 X-2.0300 Y-19.4950 Z-4.0000 F3600.00
G1 X-4.5012 Y-19.4950 Z-1.5105 F3600.00
G1 X-6.9700 Y-19.4950 Z-4.0000 F3600.00
G1 X-7.5000 Y-19.4950 Z-4.0000 F3600.00
G2 X-8.9950 Y-18.0000 Z-4.0000 I-0.0000 J1.4950 F3600.00
G1 X-8.9950 Y-16.4950 Z-4.0000 F3600.00
G1 X-8.5571 Y-16.0571 Z-4.0000 F3600.00
G1 X-8.9950 Y-16.4950 Z-4.0000 F3600.00
G1 X-12.0050 Y-16.4950 Z-4.0000 F3600.00
G1 X-12.4429 Y-16.0571 Z-4.0000 F3600.00
G1 X-12.0050 Y-16.4950 Z-4.0000 F3600.00
G1 X-12.0050 Y-18.0000 Z-4.0000 F3600.00
G2 X-13.5000 Y-19.4950 Z-4.0000 I-1.4950 J-0.0000 F3600.00
G1 X-19.5000 Y-19.4950 Z-4.0000 F3600.00
G2 X-20.9950 Y-18.0000 Z-4.0000 I-0.0000 J1.4950 F3600.00
G1 X-20.9950 Y-16.4950 Z-4.0000 F3600.00
G1 X-20.5571 Y-16.0571 Z-4.0000 F3600.00
G1 X-20.9950 Y-16.4950 Z-4.0000 F3600.00
G1 X-24.0050 Y-16.4950 Z-4.0000 F3600.00
G1 X-24.4429 Y-16.0571 Z-4.0000 F3600.00
G1 X-24.0050 Y-16.4950 Z-4.0000 F3600.00
G1 X-24.0050 Y-18.0000 Z-4.0000 F3600.00
G2 X-25.5000 Y-19.4950 Z-4.0000 I-1.4950 J-0.0000 F3600.00
G1 X-31.5000 Y-19.4950 Z-4.0000 F3600.00
G2 X-32.9950 Y-18.0000 Z-4.0000 I-0.0000 J1.4950 F3600.00
G1 X-32.9950 Y-16.4950 Z-4.0000 F3600.00
G1 X-32.5571 Y-16.0571 Z-4.0000 F3600.00
G1 X-32.9950 Y-16.4950 Z-4.0000 F3600.00
G1 X-36.0050 Y-16.4950 Z-4.0000 F3600.00
G1 X-36.4429 Y-16.0571 Z-4.0000 F3600.00
G1 X-36.0050 Y-16.4950 Z-4.0000 F3600.00
G1 X-36.0050 Y-18.0000 Z-4.0000 F3600.00
G2 X-37.5000 Y-19.4950 Z-4.0000 I-1.4950 J-0.0000 F3600.00
G1 X-43.5000 Y-19.4950 Z-4.0000 F3600.00
G2 X-44.9950 Y-18.0000 Z-4.0000 I-0.0000 J1.4950 F3600.00
G1 X-44.9950 Y-16.4950 Z-4.0000 F3600.00
G1 X-44.5571 Y-16.0571 Z-4.0000 F3600.00
G1 X-44.9950 Y-16.4950 Z-4.0000 F3600.00
G1 X-48.0050 Y-16.4950 Z-4.0000 F3600.00
G1 X-48.4429 Y-16.0571 Z-4.0000 F3600.00
G1 X-48.0050 Y-16.4950 Z-4.0000 F3600.00
G1 X-48.0050 Y-18.0000 Z-4.0000 F3600.00
G2 X-49.5000 Y-19.4950 Z-4.0000 I-1.4950 J-0.0000 F3600.00
G1 X-55.5000 Y-19.4950 Z-4.0000 F3600.00
G2 X-56.9950 Y-18.0000 Z-4.0000 I-0.0000 J1.4950 F3600.00
G1 X-56.9950 Y-16.4950 Z-4.0000 F3600.00
G1 X-56.5571 Y-16.0571 Z-4.0000 F3600.00
G1 X-56.9950 Y-16.4950 Z-4.0000 F3600.00
G1 X-60.0050 Y-16.4950 Z-4.0000 F3600.00
G1 X-60.4429 Y-16.0571 Z-4.0000 F3600.00
G1 X-60.0050 Y-16.4950 Z-4.0000 F3600.00
G1 X-60.0050 Y-18.0000 Z-4.0000 F3600.00
G2 X-61.5000 Y-19.4950 Z-4.0000 I-1.4950 J-0.0000 F3600.00
G1 X-62.0300 Y-19.4950 Z-4.0000 F3600.00
G1 X-64.4693 Y-19.4950 Z-1.5367 F3600.00
G1 X-64.5165 Y-19.4950 Z-1.5227 F3600.00
G1 X-66.9700 Y-19.4950 Z-4.0000 F3600.00
G1 X-67.5000 Y-19.4950 Z-4.0000 F3600.00
G2 X-68.9950 Y-18.0000 Z-4.0000 I-0.0000 J1.4950 F3600.00
G1 X-68.9950 Y-16.4950 Z-4.0000 F3600.00
G1 X-68.5571 Y-16.0571 Z-4.0000 F3600.00
G1 X-68.9950 Y-16.4950 Z-4.0000 F3600.00
G1 X-73.5000 Y-16.4950 Z-4.0000 F3600.00
G2 X-74.9950 Y-15.0000 Z-4.0000 I-0.0000 J1.4950 F3600.00
G1 X-74.9950 Y-9.0000 Z-4.0000 F3600.00
G2 X-73.5000 Y-7.5050 Z-4.0000 I1.4950 J0.0000 F3600.00
G1 X-71.9950 Y-7.5050 Z-4.0000 F3600.00
G1 X-71.5571 Y-7.9429 Z-4.0000 F3600.00
G1 X-71.9950 Y-7.5050 Z-4.0000 F3600.00
G1 X-71.9950 Y-4.4950 Z-4.0000 F3600.00
G1 X-71.5571 Y-4.0571 Z-4.0000 F3600.00
G1 X-71.9950 Y-4.4950 Z-4.0000 F3600.00
G1 X-73.5000 Y-4.4950 Z-4.0000 F3600.00
G2 X-74.9950 Y-3.0000 Z-4.0000 I-0.0000 J1.4950 F3600.00
G1 X-74.9950 Y-2.4700 Z-4.0000 F3600.00
G1 X-74.9950 Y0.1098 Z-1.6163 F3600.00
G1 X-74.9950 Y2.4700 Z-4.0000 F3600.00
G1 X-74.9950 Y3.0000 Z-4.0000 F3600.00
G2 X-73.5000 Y4.4950 Z-4.0000 I1.4950 J-0.0000 F3600.00
G1 X-71.9950 Y4.4950 Z-4.0000 F3600.00
G1 X-71.5571 Y4.0571 Z-4.0000 F3600.00
G1 X-71.9950 Y4.4950 Z-4.0000 F3600.00
G1 X-71.9950 Y7.5050 Z-4.0000 F3600.00
G1 X-71.5571 Y7.9429 Z-4.0000 F3600.00
G1 X-71.9950 Y7.5050 Z-4.0000 F3600.00
G1 X-73.5000 Y7.5050 Z-4.0000 F3600.00
G2 X-74.9950 Y9.0000 Z-4.0000 I-0.0000 J1.4950 F3600.00
G1 X-74.9950 Y15.0000 Z-4.0000 F3600.00
G2 X-73.5000 Y16.4950 Z-4.0000 I1.4950 J0.0000 F3600.00
G1 X-68.9950 Y16.4950 Z-4.0000 F3600.00
G1 X-68.5571 Y16.0571 Z-4.0000 F3600.00
G1 X-68.9950 Y16.4950 Z-4.0000 F3600.00
G1 X-68.9950 Y18.0000 Z-4.0000 F3600.00
G2 X-67.5000 Y19.4950 Z-4.0000 I1.4950 J0.0000 F3600.00
G1 X-66.9700 Y19.4950 Z-4.0000 F3600.00
G1 X-64.5165 Y19.4950 Z-1.5227 F3600.00
G1 X-64.4700 Y19.4950 Z-1.5360 F3600.00
G1 X-62.0300 Y19.4950 Z-4.0000 F3600.00
G1 X-61.5000 Y19.4950 Z-4.0000 F3600.00
G2 X-60.0050 Y18.0000 Z-4.0000 I0.0000 J-1.4950 F3600.00
G1 X-60.0050 Y16.4950 Z-4.0000 F3600.00
G1 X-60.4429 Y16.0571 Z-4.0000 F3600.00
G1 X-60.0050 Y16.4950 Z-4.0000 F3600.00
G1 X-56.9950 Y16.4950 Z-4.0000 F3600.00
G1 X-56.5571 Y16.0571 Z-4.0000 F3600.00
G1 X-56.9950 Y16.4950 Z-4.0000 F3600.00
G1 X-56.9950 Y18.0000 Z-4.0000 F3600.00
G2 X-55.5000 Y19.4950 Z-4.0000 I1.4950 J0.0000 F3600.00
G1 X-49.5000 Y19.4950 Z-4.0000 F3600.00
G2 X-48.0050 Y18.0000 Z-4.0000 I0.0000 J-1.4950 F3600.00
G1 X-48.0050 Y16.4950 Z-4.0000 F3600.00
G1 X-48.4429 Y16.0571 Z-4.0000 F3600.00
G1 X-48.0050 Y16.4950 Z-4.0000 F3600.00
G1 X-44.9950 Y16.4950 Z-4.0000 F3600.00
G1 X-44.5571 Y16.0571 Z-4.0000 F3600.00
G1 X-44.9950 Y16.4950 Z-4.0000 F3600.00
G1 X-44.9950 Y18.0000 Z-4.0000 F3600.00
G2 X-43.5000 Y19.4950 Z-4.0000 I1.4950 J0.0000 F3600.00
G1 X-37.5000 Y19.4950 Z-4.0000 F3600.00
G2 X-36.0050 Y18.0000 Z-4.0000 I0.0000 J-1.4950 F3600.00
G1 X-36.0050 Y16.4950 Z-4.0000 F3600.00
G1 X-36.4429 Y16.0571 Z-4.0000 F3600.00
G1 X-36.0050 Y16.4950 Z-4.0000 F3600.00
G1 X-32.9950 Y16.4950 Z-4.0000 F3600.00
G1 X-32.5571 Y16.0571 Z-4.0000 F3600.00
G1 X-32.9950 Y16.4950 Z-4.0000 F3600.00
G1 X-32.9950 Y18.0000 Z-4.0000 F3600.00
G2 X-31.5000 Y19.4950 Z-4.0000 I1.4950 J0.0000 F3600.00
G1 X-25.5000 Y19.4950 Z-4.0000 F3600.00
G2 X-24.0050 Y18.0000 Z-4.0000 I0.0000 J-1.4950 F3600.00
G1 X-24.0050 Y16.4950 Z-4.0000 F3600.00
G1 X-24.4429 Y16.0571 Z-4.0000 F3600.00
G1 X-24.0050 Y16.4950 Z-4.0000 F3600.00
G1 X-20.9950 Y16.4950 Z-4.0000 F3600.00
G1 X-20.5571 Y16.0571 Z-4.0000 F3600.00
G1 X-20.9950 Y16.4950 Z-4.0000 F3600.00
G1 X-20.9950 Y18.0000 Z-4.0000 F3600.00
G2 X-19.5000 Y19.4950 Z-4.0000 I1.4950 J0.0000 F3600.00
G1 X-13.5000 Y19.4950 Z-4.0000 F3600.00
G2 X-12.0050 Y18.0000 Z-4.0000 I0.0000 J-1.4950 F3600.00
G1 X-12.0050 Y16.4950 Z-4.0000 F3600.00
G1 X-12.4429 Y16.0571 Z-4.0000 F3600.00
G1 X-12.0050 Y16.4950 Z-4.0000 F3600.00
G1 X-8.9950 Y16.4950 Z-4.0000 F3600.00
G1 X-8.5571 Y16.0571 Z-4.0000 F3600.00
G1 X-8.9950 Y16.4950 Z-4.0000 F3600.00
G1 X-8.9950 Y18.0000 Z-4.0000 F3600.00
G2 X-7.5000 Y19.4950 Z-4.0000 I1.4950 J0.0000 F3600.00
G1 X-6.9700 Y19.4950 Z-4.0000 F3600.00
G1 X-4.5880 Y19.4950 Z-1.5944 F3600.00
G1 X-4.5012 Y19.4950 Z-1.5105 F3600.00
G1 X-2.0300 Y19.4950 Z-4.0000 F3600.00
G1 X-1.5000 Y19.4950 Z-4.0000 F3600.00
G2 X-0.0050 Y18.0000 Z-4.0000 I0.0000 J-1.4950 F3600.00
G1 X-0.0050 Y16.4950 Z-4.0000 F3600.00
G1 X-0.4429 Y16.0571 Z-4.0000 F3600.00
G1 X-0.0050 Y16.4950 Z-4.0000 F3600.00
G1 X3.0050 Y16.4950 Z-4.0000 F3600.00
G1 X3.4429 Y16.0571 Z-4.0000 F3600.00
G1 X3.0050 Y16.4950 Z-4.0000 F3600.00
G1 X3.0050 Y18.0000 Z-4.0000 F3600.00
G2 X4.5000 Y19.4950 Z-4.0000 I1.4950 J0.0000 F3600.00
G1 X10.5000 Y19.4950 Z-4.0000 F3600.00
G2 X11.9950 Y18.0000 Z-4.0000 I0.0000 J-1.4950 F3600.00
G1 X11.9950 Y16.4950 Z-4.0000 F3600.00
G1 X11.5571 Y16.0571 Z-4.0000 F3600.00
G1 X11.9950 Y16.4950 Z-4.0000 F3600.00
G1 X15.0050 Y16.4950 Z-4.0000 F3600.00
G1 X15.4429 Y16.0571 Z-4.0000 F3600.00
G1 X15.0050 Y16.4950 Z-4.0000 F3600.00
G1 X15.0050 Y18.0000 Z-4.0000 F3600.00
G2 X16.5000 Y19.4950 Z-4.0000 I1.4950 J0.0000 F3600.00
G1 X22.5000 Y19.4950 Z-4.0000 F3600.00
G2 X23.9950 Y18.0000 Z-4.0000 I0.0000 J-1.4950 F3600.00
G1 X23.9950 Y16.4950 Z-4.0000 F3600.00
G1 X23.5571 Y16.0571 Z-4.0000 F3600.00
G1 X23.9950 Y16.4950 Z-4.0000 F3600.00
G1 X27.0050 Y16.4950 Z-4.0000 F3600.00
G1 X27.4429 Y16.0571 Z-4.0000 F3600.00
G1 X27.0050 Y16.4950 Z-4.0000 F3600.00
G1 X27.0050 Y18.0000 Z-4.0000 F3600.00
G2 X28.5000 Y19.4950 Z-4.0000 I1.4950 J0.0000 F3600.00
G1 X34.5000 Y19.4950 Z-4.0000 F3600.00
G2 X35.9950 Y18.0000 Z-4.0000 I0.0000 J-1.4950 F3600.00
G1 X35.9950 Y16.4950 Z-4.0000 F3600.00
G1 X35.5571 Y16.0571 Z-4.0000 F3600.00
G1 X35.9950 Y16.4950 Z-4.0000 F3600.00
G1 X39.0050 Y16.4950 Z-4.0000 F3600.00
G1 X39.4429 Y16.0571 Z-4.0000 F3600.00
G1 X39.0050 Y16.4950 Z-4.0000 F3600.00
G1 X39.0050 Y18.0000 Z-4.0000 F3600.00
G2 X40.5000 Y19.4950 Z-4.0000 I1.4950 J0.0000 F3600.00
G1 X46.5000 Y19.4950 Z-4.0000 F3600.00
G2 X47.9950 Y18.0000 Z-4.0000 I0.0000 J-1.4950 F3600.00
G1 X47.9950 Y16.4950 Z-4.0000 F3600.00
G1 X47.5571 Y16.0571 Z-4.0000 F3600.00
G1 X47.9950 Y16.4950 Z-4.0000 F3600.00
G1 X51.0050 Y16.4950 Z-4.0000 F3600.00
G1 X51.4429 Y16.0571 Z-4.0000 F3600.00
G1 X51.0050 Y16.4950 Z-4.0000 F3600.00
G1 X51.0050 Y18.0000 Z-4.0000 F3600.00
G2 X52.5000 Y19.4950 Z-4.0000 I1.4950 J0.0000 F3600.00
G1 X52.5300 Y19.4950 Z-4.0000 F3600.00
G1 X54.9528 Y19.4950 Z-1.5533 F3600.00
G1 X55.0141 Y19.4950 Z-1.5204 F3600.00
G1 X57.4700 Y19.4950 Z-4.0000 F3600.00
G1 X58.5000 Y19.4950 Z-4.0000 F3600.00
G2 X59.9950 Y18.0000 Z-4.0000 I0.0000 J-1.4950 F3600.00
G1 X59.9950 Y16.4950 Z-4.0000 F3600.00
G1 X59.5571 Y16.0571 Z-4.0000 F3600.00
G1 X59.9950 Y16.4950 Z-4.0000 F3600.00
G1 X63.0050 Y16.4950 Z-4.0000 F3600.00
G1 X63.4429 Y16.0571 Z-4.0000 F3600.00
G1 X63.0050 Y16.4950 Z-4.0000 F3600.00
G1 X63.0050 Y18.0000 Z-4.0000 F3600.00
G2 X64.5000 Y19.4950 Z-4.0000 I1.4950 J0.0000 F3600.00
G1 X70.5000 Y19.4950 Z-4.0000 F3600.00
G2 X71.9950 Y18.0000 Z-4.0000 I0.0000 J-1.4950 F3600.00
G1 X71.9950 Y16.4950 Z-4.0000 F3600.00
G1 X71.5571 Y16.0571 Z-4.0000 F3600.00
G1 X71.9950 Y16.4950 Z-4.0000 F3600.00
G1 X73.5000 Y16.4950 Z-4.0000 F3600.00
G2 X73.9718 Y16.4186 Z-4.0000 I0.0000 J-1.4950 F3600.00
G1 X73.9718 Y16.4186 Z-4.5000 F3600.00
G2 X74.9950 Y15.0000 Z-4.5000 I-0.4718 J-1.4186 F3600.00
G1 X74.9950 Y2.9650 Z-4.5000 F3600.00
G1 X74.9950 Y0.1017 Z-1.6082 F3600.00
G1 X74.9950 Y0.0017 Z-1.5106 F3600.00
G1 X74.9950 Y-0.1403 Z-1.6471 F3600.00
G1 X74.9950 Y-2.9650 Z-4.5000 F3600.00
G1 X74.9950 Y-15.0000 Z-4.5000 F3600.00
G2 X73.5000 Y-16.4950 Z-4.5000 I-1.4950 J-0.0000 F3600.00
G1 X71.9950 Y-16.4950 Z-4.5000 F3600.00
G1 X71.5571 Y-16.0571 Z-4.5000 F3600.00
G1 X71.9950 Y-16.4950 Z-4.5000 F3600.00
G1 X71.9950 Y-18.0000 Z-4.5000 F3600.00
G2 X70.5000 Y-19.4950 Z-4.5000 I-1.4950 J-0.0000 F3600.00
G1 X64.5000 Y-19.4950 Z-4.5000 F3600.00
G2 X63.0050 Y-18.0000 Z-4.5000 I-0.0000 J1.4950 F3600.00
G1 X63.0050 Y-16.4950 Z-4.5000 F3600.00
G1 X63.4429 Y-16.0571 Z-4.5000 F3600.00
G1 X63.0050 Y-16.4950 Z-4.5000 F3600.00
G1 X59.9950 Y-16.4950 Z-4.5000 F3600.00
G1 X59.5571 Y-16.0571 Z-4.5000 F3600.00
G1 X59.9950 Y-16.4950 Z-4.5000 F3600.00
G1 X59.9950 Y-18.0000 Z-4.5000 F3600.00
G2 X58.5000 Y-19.4950 Z-4.5000 I-1.4950 J-0.0000 F3600.00
G1 X58.4650 Y-19.4950 Z-4.5000 F3600.00
G1 X55.5142 Y-19.4950 Z-1.5205 F3600.00
G1 X55.4646 Y-19.4950 Z-1.5414 F3600.00
G1 X52.5350 Y-19.4950 Z-4.5000 F3600.00
G1 X52.5000 Y-19.4950 Z-4.5000 F3600.00
G2 X51.0050 Y-18.0000 Z-4.5000 I-0.0000 J1.4950 F3600.00
G1 X51.0050 Y-16.4950 Z-4.5000 F3600.00
G1 X51.4429 Y-16.0571 Z-4.5000 F3600.00
G1 X51.0050 Y-16.4950 Z-4.5000 F3600.00
G1 X47.9950 Y-16.4950 Z-4.5000 F3600.00
G1 X47.5571 Y-16.0571 Z-4.5000 F3600.00
G1 X47.9950 Y-16.4950 Z-4.5000 F3600.00
G1 X47.9950 Y-18.0000 Z-4.5000 F3600.00
G2 X46.5000 Y-19.4950 Z-4.5000 I-1.4950 J-0.0000 F3600.00
G1 X40.5000 Y-19.4950 Z-4.5000 F3600.00
G2 X39.0050 Y-18.0000 Z-4.5000 I-0.0000 J1.4950 F3600.00
G1 X39.0050 Y-16.4950 Z-4.5000 F3600.00
G1 X39.4429 Y-16.0571 Z-4.5000 F3600.00
G1 X39.0050 Y-16.4950 Z-4.5000 F3600.00
G1 X35.9950 Y-16.4950 Z-4.5000 F3600.00
G1 X35.5571 Y-16.0571 Z-4.5000 F3600.00
G1 X35.9950 Y-16.4950 Z-4.5000 F3600.00
G1 X35.9950 Y-18.0000 Z-4.5000 F3600.00
G2 X34.5000 Y-19.4950 Z-4.5000 I-1.4950 J-0.0000 F3600.00
G1 X28.5000 Y-19.4950 Z-4.5000 F3600.00
G2 X27.0050 Y-18.0000 Z-4.5000 I-0.0000 J1.4950 F3600.00
G1 X27.0050 Y-16.4950 Z-4.5000 F3600.00
G1 X27.4429 Y-16.0571 Z-4.5000 F3600.00
G1 X27.0050 Y-16.4950 Z-4.5000 F3600.00
G1 X23.9950 Y-16.4950 Z-4.5000 F3600.00
G1 X23.5571 Y-16.0571 Z-4.5000 F3600.00
G1 X23.9950 Y-16.4950 Z-4.5000 F3600.00
G1 X23.9950 Y-18.0000 Z-4.5000 F3600.00
G2 X22.5000 Y-19.4950 Z-4.5000 I-1.4950 J-0.0000 F3600.00
G1 X16.5000 Y-19.4950 Z-4.5000 F3600.00
G2 X15.0050 Y-18.0000 Z-4.5000 I-0.0000 J1.4950 F3600.00
G1 X15.0050 Y-16.4950 Z-4.5000 F3600.00
G1 X15.4429 Y-16.0571 Z-4.5000 F3600.00
G1 X15.0050 Y-16.4950 Z-4.5000 F3600.00
G1 X11.9950 Y-16.4950 Z-4.5000 F3600.00
G1 X11.5571 Y-16.0571 Z-4.5000 F3600.00
G1 X11.9950 Y-16.4950 Z-4.5000 F3600.00
G1 X11.9950 Y-18.0000 Z-4.5000 F3600.00
G2 X10.5000 Y-19.4950 Z-4.5000 I-1.4950 J-0.0000 F3600.00
G1 X4.5000 Y-19.4950 Z-4.5000 F3600.00
G2 X3.0050 Y-18.0000 Z-4.5000 I-0.0000 J1.4950 F3600.00
G1 X3.0050 Y-16.4950 Z-4.5000 F3600.00
G1 X3.4429 Y-16.0571 Z-4.5000 F3600.00
G1 X3.0050 Y-16.4950 Z-4.5000 F3600.00
G1 X-0.0050 Y-16.4950 Z-4.5000 F3600.00
G1 X-0.4429 Y-16.0571 Z-4.5000 F3600.00
G1 X-0.0050 Y-16.4950 Z-4.5000 F3600.00
G1 X-0.0050 Y-18.0000 Z-4.5000 F3600.00
G2 X-1.5000 Y-19.4950 Z-4.5000 I-1.4950 J-0.0000 F3600.00
G1 X-1.5350 Y-19.4950 Z-4.5000 F3600.00
G1 X-4.5012 Y-19.4950 Z-1.5105 F3600.00
G1 X-7.4650 Y-19.4950 Z-4.5000 F3600.00
G1 X-7.5000 Y-19.4950 Z-4.5000 F3600.00
G2 X-8.9950 Y-18.0000 Z-4.5000 I-0.0000 J1.4950 F3600.00
G1 X-8.9950 Y-16.4950 Z-4.5000 F3600.00
G1 X-8.5571 Y-16.0571 Z-4.5000 F3600.00
G1 X-8.9950 Y-16.4950 Z-4.5000 F3600.00
G1 X-12.0050 Y-16.4950 Z-4.5000 F3600.00
G1 X-12.4429 Y-16.0571 Z-4.5000 F3600.00
G1 X-12.0050 Y-16.4950 Z-4.5000 F3600.00
G1 X-12.0050 Y-18.0000 Z-4.5000 F3600.00
G2 X-13.5000 Y-19.4950 Z-4.5000 I-1.4950 J-0.0000 F3600.00
G1 X-19.5000 Y-19.4950 Z-4.5000 F3600.00
G2 X-20.9950 Y-18.0000 Z-4.5000 I-0.0000 J1.4950 F3600.00
G1 X-20.9950 Y-16.4950 Z-4.5000 F3600.00
G1 X-20.5571 Y-16.0571 Z-4.5000 F3600.00
G1 X-20.9950 Y-16.4950 Z-4.5000 F3600.00
G1 X-24.0050 Y-16.4950 Z-4.5000 F3600.00
G1 X-24.4429 Y-16.0571 Z-4.5000 F3600.00
G1 X-24.0050 Y-16.4950 Z-4.5000 F3600.00
G1 X-24.0050 Y-18.0000 Z-4.5000 F3600.00
G2 X-25.5000 Y-19.4950 Z-4.5000 I-1.4950 J-0.0000 F3600.00
G1 X-31.5000 Y-19.4950 Z-4.5000 F3600.00
G2 X-32.9950 Y-18.0000 Z-4.5000 I-0.0000 J1.4950 F3600.00
G1 X-32.9950 Y-16.4950 Z-4.5000 F3600.00
G1 X-32.5571 Y-16.0571 Z-4.5000 F3600.00
G1 X-32.9950 Y-16.4950 Z-4.5000 F3600.00
G1 X-36.0050 Y-16.4950 Z-4.5000 F3600.00
G1 X-36.4429 Y-16.0571 Z-4.5000 F3600.00
G1 X-36.0050 Y-16.4950 Z-4.5000 F3600.00
G1 X-36.0050 Y-18.0000 Z-4.5000 F3600.00
G2 X-37.5000 Y-19.4950 Z-4.5000 I-1.4950 J-0.0000 F3600.00
G1 X-43.5000 Y-19.4950 Z-4.5000 F3600.00
G2 X-44.9950 Y-18.0000 Z-4.5000 I-0.0000 J1.4950 F3600.00
G1 X-44.9950 Y-16.4950 Z-4.5000 F3600.00
G1 X-44.5571 Y-16.0571 Z-4.5000 F3600.00
G1 X-44.9950 Y-16.4950 Z-4.5000 F3600.00
G1 X-48.0050 Y-16.4950 Z-4.5000 F3600.00
G1 X-48.4429 Y-16.0571 Z-4.5000 F3600.00
G1 X-48.0050 Y-16.4950 Z-4.5000 F3600.00
G1 X-48.0050 Y-18.0000 Z-4.5000 F3600.00
G2 X-49.5000 Y-19.4950 Z-4.5000 I-1.4950 J-0.0000 F3600.00
G1 X-55.5000 Y-19.4950 Z-4.5000 F3600.00
G2 X-56.9950 Y-18.0000 Z-4.5000 I-0.0000 J1.4950 F3600.00
G1 X-56.9950 Y-16.4950 Z-4.5000 F3600.00
G1 X-56.5571 Y-16.0571 Z-4.5000 F3600.00
G1 X-56.9950 Y-16.4950 Z-4.5000 F3600.00
G1 X-60.0050 Y-16.4950 Z-4.5000 F3600.00
G1 X-60.4429 Y-16.0571 Z-4.5000 F3600.00
G1 X-60.0050 Y-16.4950 Z-4.5000 F3600.00
G1 X-60.0050 Y-18.0000 Z-4.5000 F3600.00
G2 X-61.5000 Y-19.4950 Z-4.5000 I-1.4950 J-0.0000 F3600.00
G1 X-61.5350 Y-19.4950 Z-4.5000 F3600.00
G1 X-64.4667 Y-19.4950 Z-1.5393 F3600.00
G1 X-64.5165 Y-19.4950 Z-1.5227 F3600.00
G1 X-67.4650 Y-19.4950 Z-4.5000 F3600.00
G1 X-67.5000 Y-19.4950 Z-4.5000 F3600.00
G2 X-68.9950 Y-18.0000 Z-4.5000 I-0.0000 J1.4950 F3600.00
G1 X-68.9950 Y-16.4950 Z-4.5000 F3600.00
G1 X-68.5571 Y-16.0571 Z-4.5000 F3600.00
G1 X-68.9950 Y-16.4950 Z-4.5000 F3600.00
G1 X-73.5000 Y-16.4950 Z-4.5000 F3600.00
G2 X-74.9950 Y-15.0000 Z-4.5000 I-0.0000 J1.4950 F3600.00
G1 X-74.9950 Y-9.0000 Z-4.5000 F3600.00
G2 X-73.5000 Y-7.5050 Z-4.5000 I1.4950 J0.0000 F3600.00
G1 X-71.9950 Y-7.5050 Z-4.5000 F3600.00
G1 X-71.5571 Y-7.9429 Z-4.5000 F3600.00
G1 X-71.9950 Y-7.5050 Z-4.5000 F3600.00
G1 X-71.9950 Y-4.4950 Z-4.5000 F3600.00
G1 X-71.5571 Y-4.0571 Z-4.5000 F3600.00
G1 X-71.9950 Y-4.4950 Z-4.5000 F3600.00
G1 X-73.5000 Y-4.4950 Z-4.5000 F3600.00
G2 X-74.9950 Y-3.0000 Z-4.5000 I-0.0000 J1.4950 F3600.00
G1 X-74.9950 Y-2.9650 Z-4.5000 F3600.00
G1 X-74.9950 Y-0.1017 Z-1.6082 F3600.00
G1 X-74.9950 Y-0.0017 Z-1.5106 F3600.00
G1 X-74.9950 Y0.1403 Z-1.6471 F3600.00
G1 X-74.9950 Y2.9650 Z-4.5000 F3600.00
G1 X-74.9950 Y3.0000 Z-4.5000 F3600.00
G2 X-73.5000 Y4.4950 Z-4.5000 I1.4950 J-0.0000 F3600.00
G1 X-71.9950 Y4.4950 Z-4.5000 F3600.00
G1 X-71.5571 Y4.0571 Z-4.5000 F3600.00
G1 X-71.9950 Y4.4950 Z-4.5000 F3600.00
G1 X-71.9950 Y7.5050 Z-4.5000 F3600.00
G1 X-71.5571 Y7.9429 Z-4.5000 F3600.00
G1 X-71.9950 Y7.5050 Z-4.5000 F3600.00
G1 X-73.5000 Y7.5050 Z-4.5000 F3600.00
G2 X-74.9950 Y9.0000 Z-4.5000 I-0.0000 J1.4950 F3600.00
G1 X-74.9950 Y15.0000 Z-4.5000 F3600.00
G2 X-73.5000 Y16.4950 Z-4.5000 I1.4950 J0.0000 F3600.00
G1 X-68.9950 Y16.4950 Z-4.5000 F3600.00
G1 X-68.5571 Y16.0571 Z-4.5000 F3600.00
G1 X-68.9950 Y16.4950 Z-4.5000 F3600.00
G1 X-68.9950 Y18.0000 Z-4.5000 F3600.00
G2 X-67.5000 Y19.4950 Z-4.5000 I1.4950 J0.0000 F3600.00
G1 X-67.4650 Y19.4950 Z-4.5000 F3600.00
G1 X-64.5165 Y19.4950 Z-1.5227 F3600.00
G1 X-64.4671 Y19.4950 Z-1.5389 F3600.00
G1 X-61.5350 Y19.4950 Z-4.5000 F3600.00
G1 X-61.5000 Y19.4950 Z-4.5000 F3600.00
G2 X-60.0050 Y18.0000 Z-4.5000 I0.0000 J-1.4950 F3600.00
G1 X-60.0050 Y16.4950 Z-4.5000 F3600.00
G1 X-60.4429 Y16.0571 Z-4.5000 F3600.00
G1 X-60.0050 Y16.4950 Z-4.5000 F3600.00
G1 X-56.9950 Y16.4950 Z-4.5000 F3600.00
G1 X-56.5571 Y16.0571 Z-4.5000 F3600.00
G1 X-56.9950 Y16.4950 Z-4.5000 F3600.00
G1 X-56.9950 Y18.0000 Z-4.5000 F3600.00
G2 X-55.5000 Y19.4950 Z-4.5000 I1.4950 J0.0000 F3600.00
G1 X-49.5000 Y19.4950 Z-4.5000 F3600.00
G2 X-48.0050 Y18.0000 Z-4.5000 I0.0000 J-1.4950 F3600.00
G1 X-48.0050 Y16.4950 Z-4.5000 F3600.00
G1 X-48.4429 Y16.0571 Z-4.5000 F3600.00
G1 X-48.0050 Y16.4950 Z-4.5000 F3600.00
G1 X-44.9950 Y16.4950 Z-4.5000 F3600.00
G1 X-44.5571 Y16.0571 Z-4.5000 F3600.00
G1 X-44.9950 Y16.4950 Z-4.5000 F3600.00
G1 X-44.9950 Y18.0000 Z-4.5000 F3600.00
G2 X-43.5000 Y19.4950 Z-4.5000 I1.4950 J0.0000 F3600.00
G1 X-37.5000 Y19.4950 Z-4.5000 F3600.00
G2 X-36.0050 Y18.0000 Z-4.5000 I0.0000 J-1.4950 F3600.00
G1 X-36.0050 Y16.4950 Z-4.5000 F3600.00
G1 X-36.4429 Y16.0571 Z-4.5000 F3600.00
G1 X-36.0050 Y16.4950 Z-4.5000 F3600.00
G1 X-32.9950 Y16.4950 Z-4.5000 F3600.00
G1 X-32.5571 Y16.0571 Z-4.5000 F3600.00
G1 X-32.9950 Y16.4950 Z-4.5000 F3600.00
G1 X-32.9950 Y18.0000 Z-4.5000 F3600.00
G2 X-31.5000 Y19.4950 Z-4.5000 I1.4950 J0.0000 F3600.00
G1 X-25.5000 Y19.4950 Z-4.5000 F3600.00
G2 X-24.0050 Y18.0000 Z-4.5000 I0.0000 J-1.4950 F3600.00
G1 X-24.0050 Y16.4950 Z-4.5000 F3600.00
G1 X-24.4429 Y16.0571 Z-4.5000 F3600.00
G1 X-24.0050 Y16.4950 Z-4.5000 F3600.00
G1 X-20.9950 Y16.4950 Z-4.5000 F3600.00
G1 X-20.5571 Y16.0571 Z-4.5000 F3600.00
G1 X-20.9950 Y16.4950 Z-4.5000 F3600.00
G1 X-20.9950 Y18.0000 Z-4.5000 F3600.00
G2 X-19.5000 Y19.4950 Z-4.5000 I1.4950 J0.0000 F3600.00
G1 X-13.5000 Y19.4950 Z-4.5000 F3600.00
G2 X-12.0050 Y18.0000 Z-4.5000 I0.0000 J-1.4950 F3600.00
G1 X-12.0050 Y16.4950 Z-4.5000 F3600.00
G1 X-12.4429 Y16.0571 Z-4.5000 F3600.00
G1 X-12.0050 Y16.4950 Z-4.5000 F3600.00
G1 X-8.9950 Y16.4950 Z-4.5000 F3600.00
G1 X-8.5571 Y16.0571 Z-4.5000 F3600.00
G1 X-8.9950 Y16.4950 Z-4.5000 F3600.00
G1 X-8.9950 Y18.0000 Z-4.5000 F3600.00
G2 X-7.5000 Y19.4950 Z-4.5000 I1.4950 J0.0000 F3600.00
G1 X-7.4650 Y19.4950 Z-4.5000 F3600.00
G1 X-4.5965 Y19.4950 Z-1.6029 F3600.00
G1 X-4.5012 Y19.4950 Z-1.5105 F3600.00
G1 X-1.5350 Y19.4950 Z-4.5000 F3600.00
G1 X-1.5000 Y19.4950 Z-4.5000 F3600.00
G2 X-0.0050 Y18.0000 Z-4.5000 I0.0000 J-1.4950 F3600.00
G1 X-0.0050 Y16.4950 Z-4.5000 F3600.00
G1 X-0.4429 Y16.0571 Z-4.5000 F3600.00
G1 X-0.0050 Y16.4950 Z-4.5000 F3600.00
G1 X3.0050 Y16.4950 Z-4.5000 F3600.00
G1 X3.4429 Y16.0571 Z-4.5000 F3600.00
G1 X3.0050 Y16.4950 Z-4.5000 F3600.00
G1 X3.0050 Y18.0000 Z-4.5000 F3600.00
G2 X4.5000 Y19.4950 Z-4.5000 I1.4950 J0.0000 F3600.00
G1 X10.5000 Y19.4950 Z-4.5000 F3600.00
G2 X11.9950 Y18.0000 Z-4.5000 I0.0000 J-1.4950 F3600.00
G1 X11.9950 Y16.4950 Z-4.5000 F3600.00
G1 X11.5571 Y16.0571 Z-4.5000 F3600.00
G1 X11.9950 Y16.4950 Z-4.5000 F3600.00
G1 X15.0050 Y16.4950 Z-4.5000 F3600.00
G1 X15.4429 Y16.0571 Z-4.5000 F3600.00
G1 X15.0050 Y16.4950 Z-4.5000 F3600.00
G1 X15.0050 Y18.0000 Z-4.5000 F3600.00
G2 X16.5000 Y19.4950 Z-4.5000 I1.4950 J0.0000 F3600.00
G1 X22.5000 Y19.4950 Z-4.5000 F3600.00
G2 X23.9950 Y18.0000 Z-4.5000 I0.0000 J-1.4950 F3600.00
G1 X23.9950 Y16.4950 Z-4.5000 F3600.00
G1 X23.5571 Y16.0571 Z-4.5000 F3600.00
G1 X23.9950 Y16.4950 Z-4.5000 F3600.00
G1 X27.0050 Y16.4950 Z-4.5000 F3600.00
G1 X27.4429 Y16.0571 Z-4.5000 F3600.00
G1 X27.0050 Y16.4950 Z-4.5000 F3600.00
G1 X27.0050 Y18.0000 Z-4.5000 F3600.00
G2 X28.5000 Y19.4950 Z-4.5000 I1.4950 J0.0000 F3600.00
G1 X34.5000 Y19.4950 Z-4.5000 F3600.00
G2 X35.9950 Y18.0000 Z-4.5000 I0.0000 J-1.4950 F3600.00
G1 X35.9950 Y16.4950 Z-4.5000 F3600.00
G1 X35.5571 Y16.0571 Z-4.5000 F3600.00
G1 X35.9950 Y16.4950 Z-4.5000 F3600.00
G1 X39.0050 Y16.4950 Z-4.5000 F3600.00
G1 X39.4429 Y16.0571 Z-4.5000 F3600.00
G1 X39.0050 Y16.4950 Z-4.5000 F3600.00
G1 X39.0050 Y18.0000 Z-4.5000 F3600.00
G2 X40.5000 Y19.4950 Z-4.5000 I1.4950 J0.0000 F3600.00
G1 X46.5000 Y19.4950 Z-4.5000 F3600.00
G2 X47.9950 Y18.0000 Z-4.5000 I0.0000 J-1.4950 F3600.00
G1 X47.9950 Y16.4950 Z-4.5000 F3600.00
G1 X47.5571 Y16.0571 Z-4.5000 F3600.00
G1 X47.9950 Y16.4950 Z-4.5000 F3600.00
G1 X51.0050 Y16.4950 Z-4.5000 F3600.00
G1 X51.4429 Y16.0571 Z-4.5000 F3600.00
G1 X51.0050 Y16.4950 Z-4.5000 F3600.00
G1 X51.0050 Y18.0000 Z-4.5000 F3600.00
G2 X52.0360 Y19.4212 Z-4.5000 I1.4950 J0.0000 F3600.00
G1 X52.2668 Y19.4767 Z-4.2659 F3600.00
G1 X52.5000 Y19.4950 Z-4.0303 F3600.00
G1 X54.9525 Y19.4950 Z-1.5536 F3600.00
G1 X55.0141 Y19.4950 Z-1.5204 F3600.00
G1 X57.9650 Y19.4950 Z-4.5000 F3600.00
G1 X58.5000 Y19.4950 Z-4.5000 F3600.00
G2 X59.9950 Y18.0000 Z-4.5000 I0.0000 J-1.4950 F3600.00
G1 X59.9950 Y16.4950 Z-4.5000 F3600.00
G1 X59.5571 Y16.0571 Z-4.5000 F3600.00
G1 X59.9950 Y16.4950 Z-4.5000 F3600.00
G1 X63.0050 Y16.4950 Z-4.5000 F3600.00
G1 X63.4429 Y16.0571 Z-4.5000 F3600.00
G1 X63.0050 Y16.4950 Z-4.5000 F3600.00
G1 X63.0050 Y18.0000 Z-4.5000 F3600.00
G2 X64.5000 Y19.4950 Z-4.5000 I1.4950 J0.0000 F3600.00
G1 X70.5000 Y19.4950 Z-4.5000 F3600.00
G2 X71.9950 Y18.0000 Z-4.5000 I0.0000 J-1.4950 F3600.00
G1 X71.9950 Y16.4950 Z-4.5000 F3600.00
G1 X71.5571 Y16.0571 Z-4.5000 F3600.00
G1 X71.9950 Y16.4950 Z-4.5000 F3600.00
G1 X73.5000 Y16.4950 Z-4.5000 F3600.00
G2 X73.9718 Y16.4186 Z-4.5000 I0.0000 J-1.4950 F3600.00
G0 X73.9718 Y16.4186 Z5.0000
(finish operation: Job)
(begin postamble)
M5
G17 G90
; M2
