(Exported by FreeCAD)
(Post Processor: PathScripts.post.grbl_post)
(Output Time:2019-01-28 12:36:37.307207)
(begin preamble)
G17 G90
G21
(begin operation: Job)
(Path: Job)
G0 Z5.0000
G0 X76.0571 Y76.0571 Z5.0000
G0 X76.0571 Y76.0571 Z3.0000
G1 X76.0571 Y76.0571 Z-1.0000 F3600.00
G2 X76.4950 Y75.0000 Z-1.0000 I-1.0571 J-1.0571 F3600.00
G1 X76.4950 Y-75.0000 Z-1.0000 F3600.00
G2 X75.0000 Y-76.4950 Z-1.0000 I-1.4950 J-0.0000 F3600.00
G1 X-75.0000 Y-76.4950 Z-1.0000 F3600.00
G2 X-76.4950 Y-75.0000 Z-1.0000 I-0.0000 J1.4950 F3600.00
G1 X-76.4950 Y75.0000 Z-1.0000 F3600.00
G2 X-75.0000 Y76.4950 Z-1.0000 I1.4950 J0.0000 F3600.00
G1 X75.0000 Y76.4950 Z-1.0000 F3600.00
G2 X76.0571 Y76.0571 Z-1.0000 I0.0000 J-1.4950 F3600.00
G1 X76.0571 Y76.0571 Z-2.0000 F3600.00
G2 X76.4950 Y75.0000 Z-2.0000 I-1.0571 J-1.0571 F3600.00
G1 X76.4950 Y-75.0000 Z-2.0000 F3600.00
G2 X75.0000 Y-76.4950 Z-2.0000 I-1.4950 J-0.0000 F3600.00
G1 X-75.0000 Y-76.4950 Z-2.0000 F3600.00
G2 X-76.4950 Y-75.0000 Z-2.0000 I-0.0000 J1.4950 F3600.00
G1 X-76.4950 Y75.0000 Z-2.0000 F3600.00
G2 X-75.0000 Y76.4950 Z-2.0000 I1.4950 J0.0000 F3600.00
G1 X75.0000 Y76.4950 Z-2.0000 F3600.00
G2 X76.0571 Y76.0571 Z-2.0000 I0.0000 J-1.4950 F3600.00
G1 X76.0571 Y76.0571 Z-3.0000 F3600.00
G2 X76.4950 Y75.0000 Z-3.0000 I-1.0571 J-1.0571 F3600.00
G1 X76.4950 Y52.4725 Z-3.0000 F3600.00
G1 X76.4950 Y51.7225 Z-2.2500 F3600.00
G1 X76.4950 Y48.2775 Z-2.2500 F3600.00
G1 X76.4950 Y47.5275 Z-3.0000 F3600.00
G1 X76.4950 Y2.4725 Z-3.0000 F3600.00
G1 X76.4950 Y1.7225 Z-2.2500 F3600.00
G1 X76.4950 Y-1.7225 Z-2.2500 F3600.00
G1 X76.4950 Y-2.4725 Z-3.0000 F3600.00
G1 X76.4950 Y-47.5275 Z-3.0000 F3600.00
G1 X76.4950 Y-48.2775 Z-2.2500 F3600.00
G1 X76.4950 Y-51.7225 Z-2.2500 F3600.00
G1 X76.4950 Y-52.4725 Z-3.0000 F3600.00
G1 X76.4950 Y-75.0000 Z-3.0000 F3600.00
G2 X75.0000 Y-76.4950 Z-3.0000 I-1.4950 J-0.0000 F3600.00
G1 X52.4725 Y-76.4950 Z-3.0000 F3600.00
G1 X51.7225 Y-76.4950 Z-2.2500 F3600.00
G1 X48.2775 Y-76.4950 Z-2.2500 F3600.00
G1 X47.5275 Y-76.4950 Z-3.0000 F3600.00
G1 X2.4725 Y-76.4950 Z-3.0000 F3600.00
G1 X1.7225 Y-76.4950 Z-2.2500 F3600.00
G1 X-1.7225 Y-76.4950 Z-2.2500 F3600.00
G1 X-2.4725 Y-76.4950 Z-3.0000 F3600.00
G1 X-47.5275 Y-76.4950 Z-3.0000 F3600.00
G1 X-48.2775 Y-76.4950 Z-2.2500 F3600.00
G1 X-51.7225 Y-76.4950 Z-2.2500 F3600.00
G1 X-52.4725 Y-76.4950 Z-3.0000 F3600.00
G1 X-75.0000 Y-76.4950 Z-3.0000 F3600.00
G2 X-76.4950 Y-75.0000 Z-3.0000 I-0.0000 J1.4950 F3600.00
G1 X-76.4950 Y-52.4725 Z-3.0000 F3600.00
G1 X-76.4950 Y-51.7225 Z-2.2500 F3600.00
G1 X-76.4950 Y-48.2775 Z-2.2500 F3600.00
G1 X-76.4950 Y-47.5275 Z-3.0000 F3600.00
G1 X-76.4950 Y-2.4725 Z-3.0000 F3600.00
G1 X-76.4950 Y-1.7225 Z-2.2500 F3600.00
G1 X-76.4950 Y1.7225 Z-2.2500 F3600.00
G1 X-76.4950 Y2.4725 Z-3.0000 F3600.00
G1 X-76.4950 Y47.5275 Z-3.0000 F3600.00
G1 X-76.4950 Y48.2775 Z-2.2500 F3600.00
G1 X-76.4950 Y51.7225 Z-2.2500 F3600.00
G1 X-76.4950 Y52.4725 Z-3.0000 F3600.00
G1 X-76.4950 Y75.0000 Z-3.0000 F3600.00
G2 X-75.0000 Y76.4950 Z-3.0000 I1.4950 J0.0000 F3600.00
G1 X-52.4725 Y76.4950 Z-3.0000 F3600.00
G1 X-51.7225 Y76.4950 Z-2.2500 F3600.00
G1 X-48.2775 Y76.4950 Z-2.2500 F3600.00
G1 X-47.5275 Y76.4950 Z-3.0000 F3600.00
G1 X-2.4725 Y76.4950 Z-3.0000 F3600.00
G1 X-1.7225 Y76.4950 Z-2.2500 F3600.00
G1 X1.7225 Y76.4950 Z-2.2500 F3600.00
G1 X2.4725 Y76.4950 Z-3.0000 F3600.00
G1 X47.5275 Y76.4950 Z-3.0000 F3600.00
G1 X48.2775 Y76.4950 Z-2.2500 F3600.00
G1 X51.7225 Y76.4950 Z-2.2500 F3600.00
G1 X52.4725 Y76.4950 Z-3.0000 F3600.00
G1 X75.0000 Y76.4950 Z-3.0000 F3600.00
G2 X76.0571 Y76.0571 Z-3.0000 I0.0000 J-1.4950 F3600.00
G1 X76.0571 Y76.0571 Z-4.0000 F3600.00
G2 X76.4950 Y75.0000 Z-4.0000 I-1.0571 J-1.0571 F3600.00
G1 X76.4950 Y53.4725 Z-4.0000 F3600.00
G1 X76.4950 Y51.7225 Z-2.2500 F3600.00
G1 X76.4950 Y48.2775 Z-2.2500 F3600.00
G1 X76.4950 Y46.5275 Z-4.0000 F3600.00
G1 X76.4950 Y3.4725 Z-4.0000 F3600.00
G1 X76.4950 Y1.7225 Z-2.2500 F3600.00
G1 X76.4950 Y-1.7225 Z-2.2500 F3600.00
G1 X76.4950 Y-3.4725 Z-4.0000 F3600.00
G1 X76.4950 Y-46.5275 Z-4.0000 F3600.00
G1 X76.4950 Y-48.2775 Z-2.2500 F3600.00
G1 X76.4950 Y-51.7225 Z-2.2500 F3600.00
G1 X76.4950 Y-53.4725 Z-4.0000 F3600.00
G1 X76.4950 Y-75.0000 Z-4.0000 F3600.00
G2 X75.0000 Y-76.4950 Z-4.0000 I-1.4950 J-0.0000 F3600.00
G1 X53.4725 Y-76.4950 Z-4.0000 F3600.00
G1 X51.7225 Y-76.4950 Z-2.2500 F3600.00
G1 X48.2775 Y-76.4950 Z-2.2500 F3600.00
G1 X46.5275 Y-76.4950 Z-4.0000 F3600.00
G1 X3.4725 Y-76.4950 Z-4.0000 F3600.00
G1 X1.7225 Y-76.4950 Z-2.2500 F3600.00
G1 X-1.7225 Y-76.4950 Z-2.2500 F3600.00
G1 X-3.4725 Y-76.4950 Z-4.0000 F3600.00
G1 X-46.5275 Y-76.4950 Z-4.0000 F3600.00
G1 X-48.2775 Y-76.4950 Z-2.2500 F3600.00
G1 X-51.7225 Y-76.4950 Z-2.2500 F3600.00
G1 X-53.4725 Y-76.4950 Z-4.0000 F3600.00
G1 X-75.0000 Y-76.4950 Z-4.0000 F3600.00
G2 X-76.4950 Y-75.0000 Z-4.0000 I-0.0000 J1.4950 F3600.00
G1 X-76.4950 Y-53.4725 Z-4.0000 F3600.00
G1 X-76.4950 Y-51.7225 Z-2.2500 F3600.00
G1 X-76.4950 Y-48.2775 Z-2.2500 F3600.00
G1 X-76.4950 Y-46.5275 Z-4.0000 F3600.00
G1 X-76.4950 Y-3.4725 Z-4.0000 F3600.00
G1 X-76.4950 Y-1.7225 Z-2.2500 F3600.00
G1 X-76.4950 Y1.7225 Z-2.2500 F3600.00
G1 X-76.4950 Y3.4725 Z-4.0000 F3600.00
G1 X-76.4950 Y46.5275 Z-4.0000 F3600.00
G1 X-76.4950 Y48.2775 Z-2.2500 F3600.00
G1 X-76.4950 Y51.7225 Z-2.2500 F3600.00
G1 X-76.4950 Y53.4725 Z-4.0000 F3600.00
G1 X-76.4950 Y75.0000 Z-4.0000 F3600.00
G2 X-75.0000 Y76.4950 Z-4.0000 I1.4950 J0.0000 F3600.00
G1 X-53.4725 Y76.4950 Z-4.0000 F3600.00
G1 X-51.7225 Y76.4950 Z-2.2500 F3600.00
G1 X-48.2775 Y76.4950 Z-2.2500 F3600.00
G1 X-46.5275 Y76.4950 Z-4.0000 F3600.00
G1 X-3.4725 Y76.4950 Z-4.0000 F3600.00
G1 X-1.7225 Y76.4950 Z-2.2500 F3600.00
G1 X1.7225 Y76.4950 Z-2.2500 F3600.00
G1 X3.4725 Y76.4950 Z-4.0000 F3600.00
G1 X46.5275 Y76.4950 Z-4.0000 F3600.00
G1 X48.2775 Y76.4950 Z-2.2500 F3600.00
G1 X51.7225 Y76.4950 Z-2.2500 F3600.00
G1 X53.4725 Y76.4950 Z-4.0000 F3600.00
G1 X75.0000 Y76.4950 Z-4.0000 F3600.00
G2 X76.0571 Y76.0571 Z-4.0000 I0.0000 J-1.4950 F3600.00
G1 X76.0571 Y76.0571 Z-4.5000 F3600.00
G2 X76.4950 Y75.0000 Z-4.5000 I-1.0571 J-1.0571 F3600.00
G1 X76.4950 Y53.9725 Z-4.5000 F3600.00
G1 X76.4950 Y51.7225 Z-2.2500 F3600.00
G1 X76.4950 Y48.2775 Z-2.2500 F3600.00
G1 X76.4950 Y46.0275 Z-4.5000 F3600.00
G1 X76.4950 Y3.9725 Z-4.5000 F3600.00
G1 X76.4950 Y1.7225 Z-2.2500 F3600.00
G1 X76.4950 Y-1.7225 Z-2.2500 F3600.00
G1 X76.4950 Y-3.9725 Z-4.5000 F3600.00
G1 X76.4950 Y-46.0275 Z-4.5000 F3600.00
G1 X76.4950 Y-48.2775 Z-2.2500 F3600.00
G1 X76.4950 Y-51.7225 Z-2.2500 F3600.00
G1 X76.4950 Y-53.9725 Z-4.5000 F3600.00
G1 X76.4950 Y-75.0000 Z-4.5000 F3600.00
G2 X75.0000 Y-76.4950 Z-4.5000 I-1.4950 J-0.0000 F3600.00
G1 X53.9725 Y-76.4950 Z-4.5000 F3600.00
G1 X51.7225 Y-76.4950 Z-2.2500 F3600.00
G1 X48.2775 Y-76.4950 Z-2.2500 F3600.00
G1 X46.0275 Y-76.4950 Z-4.5000 F3600.00
G1 X3.9725 Y-76.4950 Z-4.5000 F3600.00
G1 X1.7225 Y-76.4950 Z-2.2500 F3600.00
G1 X-1.7225 Y-76.4950 Z-2.2500 F3600.00
G1 X-3.9725 Y-76.4950 Z-4.5000 F3600.00
G1 X-46.0275 Y-76.4950 Z-4.5000 F3600.00
G1 X-48.2775 Y-76.4950 Z-2.2500 F3600.00
G1 X-51.7225 Y-76.4950 Z-2.2500 F3600.00
G1 X-53.9725 Y-76.4950 Z-4.5000 F3600.00
G1 X-75.0000 Y-76.4950 Z-4.5000 F3600.00
G2 X-76.4950 Y-75.0000 Z-4.5000 I-0.0000 J1.4950 F3600.00
G1 X-76.4950 Y-53.9725 Z-4.5000 F3600.00
G1 X-76.4950 Y-51.7225 Z-2.2500 F3600.00
G1 X-76.4950 Y-48.2775 Z-2.2500 F3600.00
G1 X-76.4950 Y-46.0275 Z-4.5000 F3600.00
G1 X-76.4950 Y-3.9725 Z-4.5000 F3600.00
G1 X-76.4950 Y-1.7225 Z-2.2500 F3600.00
G1 X-76.4950 Y1.7225 Z-2.2500 F3600.00
G1 X-76.4950 Y3.9725 Z-4.5000 F3600.00
G1 X-76.4950 Y46.0275 Z-4.5000 F3600.00
G1 X-76.4950 Y48.2775 Z-2.2500 F3600.00
G1 X-76.4950 Y51.7225 Z-2.2500 F3600.00
G1 X-76.4950 Y53.9725 Z-4.5000 F3600.00
G1 X-76.4950 Y75.0000 Z-4.5000 F3600.00
G2 X-75.0000 Y76.4950 Z-4.5000 I1.4950 J0.0000 F3600.00
G1 X-53.9725 Y76.4950 Z-4.5000 F3600.00
G1 X-51.7225 Y76.4950 Z-2.2500 F3600.00
G1 X-48.2775 Y76.4950 Z-2.2500 F3600.00
G1 X-46.0275 Y76.4950 Z-4.5000 F3600.00
G1 X-3.9725 Y76.4950 Z-4.5000 F3600.00
G1 X-1.7225 Y76.4950 Z-2.2500 F3600.00
G1 X1.7225 Y76.4950 Z-2.2500 F3600.00
G1 X3.9725 Y76.4950 Z-4.5000 F3600.00
G1 X46.0275 Y76.4950 Z-4.5000 F3600.00
G1 X48.2775 Y76.4950 Z-2.2500 F3600.00
G1 X51.7225 Y76.4950 Z-2.2500 F3600.00
G1 X53.9725 Y76.4950 Z-4.5000 F3600.00
G1 X75.0000 Y76.4950 Z-4.5000 F3600.00
G2 X76.0571 Y76.0571 Z-4.5000 I0.0000 J-1.4950 F3600.00
G0 X76.0571 Y76.0571 Z5.0000
(finish operation: Job)
(begin postamble)
M5
G17 G90
; M2
