(Block-name: Header)
(Block-expand: 0)
(Block-enable: 1)
(Exported by FreeCAD)
(Post Processor: PathScripts.post.grbl_post)
(Output Time:2019-01-28 12:36:37.307207)
(begin preamble)
G17 G90
G21
(begin operation: Job)
(Path: Job)
G0 Z5.0000
(Block-name: block)
(Block-expand: 0)
(Block-enable: 1)
G0 X-61.4950 Y-70.4950 Z5.0000
G0 X-61.4950 Y-70.4950 Z3.0000
G1 X-61.4950 Y-70.4950 Z-1.0000 F3600.00
G1 X-64.5050 Y-70.4950 Z-1.0000 F3600.00
G1 X-64.9429 Y-70.0571 Z-1.0000 F3600.00
G1 X-64.5050 Y-70.4950 Z-1.0000 F3600.00
G1 X-64.5050 Y-70.5050 Z-1.0000 F3600.00
G1 X-64.9429 Y-70.9429 Z-1.0000 F3600.00
G1 X-64.5050 Y-70.5050 Z-1.0000 F3600.00
G1 X-61.4950 Y-70.5050 Z-1.0000 F3600.00
G1 X-61.0571 Y-70.9429 Z-1.0000 F3600.00
G1 X-61.4950 Y-70.5050 Z-1.0000 F3600.00
G1 X-61.4950 Y-70.4950 Z-1.0000 F3600.00
G1 X-61.0571 Y-70.0571 Z-1.0000 F3600.00
G1 X-61.4950 Y-70.4950 Z-1.0000 F3600.00
G1 X-61.4950 Y-70.4950 Z-2.0000 F3600.00
G1 X-64.5050 Y-70.4950 Z-2.0000 F3600.00
G1 X-64.9429 Y-70.0571 Z-2.0000 F3600.00
G1 X-64.5050 Y-70.4950 Z-2.0000 F3600.00
G1 X-64.5050 Y-70.5050 Z-2.0000 F3600.00
G1 X-64.9429 Y-70.9429 Z-2.0000 F3600.00
G1 X-64.5050 Y-70.5050 Z-2.0000 F3600.00
G1 X-61.4950 Y-70.5050 Z-2.0000 F3600.00
G1 X-61.0571 Y-70.9429 Z-2.0000 F3600.00
G1 X-61.4950 Y-70.5050 Z-2.0000 F3600.00
G1 X-61.4950 Y-70.4950 Z-2.0000 F3600.00
G1 X-61.0571 Y-70.0571 Z-2.0000 F3600.00
G1 X-61.4950 Y-70.4950 Z-2.0000 F3600.00
G1 X-61.4950 Y-70.4950 Z-3.0000 F3600.00
G1 X-64.5050 Y-70.4950 Z-3.0000 F3600.00
G1 X-64.9429 Y-70.0571 Z-3.0000 F3600.00
G1 X-64.5050 Y-70.4950 Z-3.0000 F3600.00
G1 X-64.5050 Y-70.5050 Z-3.0000 F3600.00
G1 X-64.9429 Y-70.9429 Z-3.0000 F3600.00
G1 X-64.5050 Y-70.5050 Z-3.0000 F3600.00
G1 X-61.4950 Y-70.5050 Z-3.0000 F3600.00
G1 X-61.0571 Y-70.9429 Z-3.0000 F3600.00
G1 X-61.4950 Y-70.5050 Z-3.0000 F3600.00
G1 X-61.4950 Y-70.4950 Z-3.0000 F3600.00
G1 X-61.0571 Y-70.0571 Z-3.0000 F3600.00
G1 X-61.4950 Y-70.4950 Z-3.0000 F3600.00
G1 X-61.4950 Y-70.4950 Z-4.0000 F3600.00
G1 X-64.5050 Y-70.4950 Z-4.0000 F3600.00
G1 X-64.9429 Y-70.0571 Z-4.0000 F3600.00
G1 X-64.5050 Y-70.4950 Z-4.0000 F3600.00
G1 X-64.5050 Y-70.5050 Z-4.0000 F3600.00
G1 X-64.9429 Y-70.9429 Z-4.0000 F3600.00
G1 X-64.5050 Y-70.5050 Z-4.0000 F3600.00
G1 X-61.4950 Y-70.5050 Z-4.0000 F3600.00
G1 X-61.0571 Y-70.9429 Z-4.0000 F3600.00
G1 X-61.4950 Y-70.5050 Z-4.0000 F3600.00
G1 X-61.4950 Y-70.4950 Z-4.0000 F3600.00
G1 X-61.0571 Y-70.0571 Z-4.0000 F3600.00
G1 X-61.4950 Y-70.4950 Z-4.0000 F3600.00
G1 X-61.4950 Y-70.4950 Z-4.5000 F3600.00
G1 X-64.5050 Y-70.4950 Z-4.5000 F3600.00
G1 X-64.9429 Y-70.0571 Z-4.5000 F3600.00
G1 X-64.5050 Y-70.4950 Z-4.5000 F3600.00
G1 X-64.5050 Y-70.5050 Z-4.5000 F3600.00
G1 X-64.9429 Y-70.9429 Z-4.5000 F3600.00
G1 X-64.5050 Y-70.5050 Z-4.5000 F3600.00
G1 X-61.4950 Y-70.5050 Z-4.5000 F3600.00
G1 X-61.0571 Y-70.9429 Z-4.5000 F3600.00
G1 X-61.4950 Y-70.5050 Z-4.5000 F3600.00
G1 X-61.4950 Y-70.4950 Z-4.5000 F3600.00
G1 X-61.0571 Y-70.0571 Z-4.5000 F3600.00
G1 X-61.4950 Y-70.4950 Z-4.5000 F3600.00
G0 X-61.4950 Y-70.4950 Z5.0000
(Block-name: block)
(Block-expand: 0)
(Block-enable: 1)
G0 X-49.4950 Y-70.4950 Z5.0000
G0 X-49.4950 Y-70.4950 Z3.0000
G1 X-49.4950 Y-70.4950 Z-1.0000 F3600.00
G1 X-52.5050 Y-70.4950 Z-1.0000 F3600.00
G1 X-52.9429 Y-70.0571 Z-1.0000 F3600.00
G1 X-52.5050 Y-70.4950 Z-1.0000 F3600.00
G1 X-52.5050 Y-70.5050 Z-1.0000 F3600.00
G1 X-52.9429 Y-70.9429 Z-1.0000 F3600.00
G1 X-52.5050 Y-70.5050 Z-1.0000 F3600.00
G1 X-49.4950 Y-70.5050 Z-1.0000 F3600.00
G1 X-49.0571 Y-70.9429 Z-1.0000 F3600.00
G1 X-49.4950 Y-70.5050 Z-1.0000 F3600.00
G1 X-49.4950 Y-70.4950 Z-1.0000 F3600.00
G1 X-49.0571 Y-70.0571 Z-1.0000 F3600.00
G1 X-49.4950 Y-70.4950 Z-1.0000 F3600.00
G1 X-49.4950 Y-70.4950 Z-2.0000 F3600.00
G1 X-52.5050 Y-70.4950 Z-2.0000 F3600.00
G1 X-52.9429 Y-70.0571 Z-2.0000 F3600.00
G1 X-52.5050 Y-70.4950 Z-2.0000 F3600.00
G1 X-52.5050 Y-70.5050 Z-2.0000 F3600.00
G1 X-52.8655 Y-70.8655 Z-2.0000 F3600.00
G1 X-52.9429 Y-70.9429 Z-1.8947 F3600.00
G1 X-52.5050 Y-70.5050 Z-2.0000 F3600.00
G1 X-49.4950 Y-70.5050 Z-2.0000 F3600.00
G1 X-49.0571 Y-70.9429 Z-2.0000 F3600.00
G1 X-49.4950 Y-70.5050 Z-2.0000 F3600.00
G1 X-49.4950 Y-70.4950 Z-2.0000 F3600.00
G1 X-49.0571 Y-70.0571 Z-2.0000 F3600.00
G1 X-49.4950 Y-70.4950 Z-2.0000 F3600.00
G1 X-49.4950 Y-70.4950 Z-3.0000 F3600.00
G1 X-51.5980 Y-70.4950 Z-3.0000 F3600.00
G1 X-52.5050 Y-70.4950 Z-3.0000 F3600.00
G1 X-52.9429 Y-70.0571 Z-3.0000 F3600.00
G1 X-52.5050 Y-70.4950 Z-3.0000 F3600.00
G1 X-52.5050 Y-70.5050 Z-3.0000 F3600.00
G1 X-52.9429 Y-70.9429 Z-3.0000 F3600.00
G1 X-52.5050 Y-70.5050 Z-3.0000 F3600.00
G1 X-51.5844 Y-70.5050 Z-3.0000 F3600.00
G1 X-49.4950 Y-70.5050 Z-3.0000 F3600.00
G1 X-49.0571 Y-70.9429 Z-3.0000 F3600.00
G1 X-49.4950 Y-70.5050 Z-3.0000 F3600.00
G1 X-49.4950 Y-70.4950 Z-3.0000 F3600.00
G1 X-49.0571 Y-70.0571 Z-3.0000 F3600.00
G1 X-49.4950 Y-70.4950 Z-3.0000 F3600.00
G1 X-49.4950 Y-70.4950 Z-4.0000 F3600.00
G1 X-52.5050 Y-70.4950 Z-4.0000 F3600.00
G1 X-52.9429 Y-70.0571 Z-4.0000 F3600.00
G1 X-52.5050 Y-70.4950 Z-4.0000 F3600.00
G1 X-52.5050 Y-70.5050 Z-4.0000 F3600.00
G1 X-52.9429 Y-70.9429 Z-4.0000 F3600.00
G1 X-52.5050 Y-70.5050 Z-4.0000 F3600.00
G1 X-49.4950 Y-70.5050 Z-4.0000 F3600.00
G1 X-49.0571 Y-70.9429 Z-4.0000 F3600.00
G1 X-49.4950 Y-70.5050 Z-4.0000 F3600.00
G1 X-49.4950 Y-70.4950 Z-4.0000 F3600.00
G1 X-49.0571 Y-70.0571 Z-4.0000 F3600.00
G1 X-49.4950 Y-70.4950 Z-4.0000 F3600.00
G1 X-49.4950 Y-70.4950 Z-4.5000 F3600.00
G1 X-52.5050 Y-70.4950 Z-4.5000 F3600.00
G1 X-52.9429 Y-70.0571 Z-4.5000 F3600.00
G1 X-52.5050 Y-70.4950 Z-4.5000 F3600.00
G1 X-52.5050 Y-70.5050 Z-4.5000 F3600.00
G1 X-52.9429 Y-70.9429 Z-4.5000 F3600.00
G1 X-52.5050 Y-70.5050 Z-4.5000 F3600.00
G1 X-49.4950 Y-70.5050 Z-4.5000 F3600.00
G1 X-49.0571 Y-70.9429 Z-4.5000 F3600.00
G1 X-49.4950 Y-70.5050 Z-4.5000 F3600.00
G1 X-49.4950 Y-70.4950 Z-4.5000 F3600.00
G1 X-49.0571 Y-70.0571 Z-4.5000 F3600.00
G1 X-49.4950 Y-70.4950 Z-4.5000 F3600.00
G0 X-49.4950 Y-70.4950 Z5.0000
(Block-name: block)
(Block-expand: 0)
(Block-enable: 1)
G0 X-37.4950 Y-70.4950 Z5.0000
G0 X-37.4950 Y-70.4950 Z3.0000
G1 X-37.4950 Y-70.4950 Z-1.0000 F3600.00
G1 X-40.5050 Y-70.4950 Z-1.0000 F3600.00
G1 X-40.9429 Y-70.0571 Z-1.0000 F3600.00
G1 X-40.5050 Y-70.4950 Z-1.0000 F3600.00
G1 X-40.5050 Y-70.5050 Z-1.0000 F3600.00
G1 X-40.9429 Y-70.9429 Z-1.0000 F3600.00
G1 X-40.5050 Y-70.5050 Z-1.0000 F3600.00
G1 X-37.4950 Y-70.5050 Z-1.0000 F3600.00
G1 X-37.0571 Y-70.9429 Z-1.0000 F3600.00
G1 X-37.4950 Y-70.5050 Z-1.0000 F3600.00
G1 X-37.4950 Y-70.4950 Z-1.0000 F3600.00
G1 X-37.0571 Y-70.0571 Z-1.0000 F3600.00
G1 X-37.4950 Y-70.4950 Z-1.0000 F3600.00
G1 X-37.4950 Y-70.4950 Z-2.0000 F3600.00
G1 X-40.5050 Y-70.4950 Z-2.0000 F3600.00
G1 X-40.9429 Y-70.0571 Z-2.0000 F3600.00
G1 X-40.5050 Y-70.4950 Z-2.0000 F3600.00
G1 X-40.5050 Y-70.5050 Z-2.0000 F3600.00
G1 X-40.9429 Y-70.9429 Z-2.0000 F3600.00
G1 X-40.5050 Y-70.5050 Z-2.0000 F3600.00
G1 X-37.4950 Y-70.5050 Z-2.0000 F3600.00
G1 X-37.0571 Y-70.9429 Z-2.0000 F3600.00
G1 X-37.4950 Y-70.5050 Z-2.0000 F3600.00
G1 X-37.4950 Y-70.4950 Z-2.0000 F3600.00
G1 X-37.0571 Y-70.0571 Z-2.0000 F3600.00
G1 X-37.4950 Y-70.4950 Z-2.0000 F3600.00
G1 X-37.4950 Y-70.4950 Z-3.0000 F3600.00
G1 X-40.5050 Y-70.4950 Z-3.0000 F3600.00
G1 X-40.9429 Y-70.0571 Z-3.0000 F3600.00
G1 X-40.5050 Y-70.4950 Z-3.0000 F3600.00
G1 X-40.5050 Y-70.5050 Z-3.0000 F3600.00
G1 X-40.9429 Y-70.9429 Z-3.0000 F3600.00
G1 X-40.5050 Y-70.5050 Z-3.0000 F3600.00
G1 X-37.4950 Y-70.5050 Z-3.0000 F3600.00
G1 X-37.0571 Y-70.9429 Z-3.0000 F3600.00
G1 X-37.4950 Y-70.5050 Z-3.0000 F3600.00
G1 X-37.4950 Y-70.4950 Z-3.0000 F3600.00
G1 X-37.0571 Y-70.0571 Z-3.0000 F3600.00
G1 X-37.4950 Y-70.4950 Z-3.0000 F3600.00
G1 X-37.4950 Y-70.4950 Z-4.0000 F3600.00
G1 X-40.5050 Y-70.4950 Z-4.0000 F3600.00
G1 X-40.9429 Y-70.0571 Z-4.0000 F3600.00
G1 X-40.5050 Y-70.4950 Z-4.0000 F3600.00
G1 X-40.5050 Y-70.5050 Z-4.0000 F3600.00
G1 X-40.9429 Y-70.9429 Z-4.0000 F3600.00
G1 X-40.5050 Y-70.5050 Z-4.0000 F3600.00
G1 X-37.4950 Y-70.5050 Z-4.0000 F3600.00
G1 X-37.0571 Y-70.9429 Z-4.0000 F3600.00
G1 X-37.4950 Y-70.5050 Z-4.0000 F3600.00
G1 X-37.4950 Y-70.4950 Z-4.0000 F3600.00
G1 X-37.0571 Y-70.0571 Z-4.0000 F3600.00
G1 X-37.4950 Y-70.4950 Z-4.0000 F3600.00
G1 X-37.4950 Y-70.4950 Z-4.5000 F3600.00
G1 X-40.5050 Y-70.4950 Z-4.5000 F3600.00
G1 X-40.9429 Y-70.0571 Z-4.5000 F3600.00
G1 X-40.5050 Y-70.4950 Z-4.5000 F3600.00
G1 X-40.5050 Y-70.5050 Z-4.5000 F3600.00
G1 X-40.9429 Y-70.9429 Z-4.5000 F3600.00
G1 X-40.5050 Y-70.5050 Z-4.5000 F3600.00
G1 X-37.4950 Y-70.5050 Z-4.5000 F3600.00
G1 X-37.0571 Y-70.9429 Z-4.5000 F3600.00
G1 X-37.4950 Y-70.5050 Z-4.5000 F3600.00
G1 X-37.4950 Y-70.4950 Z-4.5000 F3600.00
G1 X-37.0571 Y-70.0571 Z-4.5000 F3600.00
G1 X-37.4950 Y-70.4950 Z-4.5000 F3600.00
G0 X-37.4950 Y-70.4950 Z5.0000
(Block-name: block)
(Block-expand: 0)
(Block-enable: 1)
G0 X-25.4950 Y-70.4950 Z5.0000
G0 X-25.4950 Y-70.4950 Z3.0000
G1 X-25.4950 Y-70.4950 Z-1.0000 F3600.00
G1 X-28.5050 Y-70.4950 Z-1.0000 F3600.00
G1 X-28.9429 Y-70.0571 Z-1.0000 F3600.00
G1 X-28.5050 Y-70.4950 Z-1.0000 F3600.00
G1 X-28.5050 Y-70.5050 Z-1.0000 F3600.00
G1 X-28.9429 Y-70.9429 Z-1.0000 F3600.00
G1 X-28.5050 Y-70.5050 Z-1.0000 F3600.00
G1 X-25.4950 Y-70.5050 Z-1.0000 F3600.00
G1 X-25.0571 Y-70.9429 Z-1.0000 F3600.00
G1 X-25.4950 Y-70.5050 Z-1.0000 F3600.00
G1 X-25.4950 Y-70.4950 Z-1.0000 F3600.00
G1 X-25.0571 Y-70.0571 Z-1.0000 F3600.00
G1 X-25.4950 Y-70.4950 Z-1.0000 F3600.00
G1 X-25.4950 Y-70.4950 Z-2.0000 F3600.00
G1 X-28.5050 Y-70.4950 Z-2.0000 F3600.00
G1 X-28.9429 Y-70.0571 Z-2.0000 F3600.00
G1 X-28.5050 Y-70.4950 Z-2.0000 F3600.00
G1 X-28.5050 Y-70.5050 Z-2.0000 F3600.00
G1 X-28.9429 Y-70.9429 Z-2.0000 F3600.00
G1 X-28.5050 Y-70.5050 Z-2.0000 F3600.00
G1 X-25.4950 Y-70.5050 Z-2.0000 F3600.00
G1 X-25.0571 Y-70.9429 Z-2.0000 F3600.00
G1 X-25.4950 Y-70.5050 Z-2.0000 F3600.00
G1 X-25.4950 Y-70.4950 Z-2.0000 F3600.00
G1 X-25.0571 Y-70.0571 Z-2.0000 F3600.00
G1 X-25.4950 Y-70.4950 Z-2.0000 F3600.00
G1 X-25.4950 Y-70.4950 Z-3.0000 F3600.00
G1 X-28.5050 Y-70.4950 Z-3.0000 F3600.00
G1 X-28.9429 Y-70.0571 Z-3.0000 F3600.00
G1 X-28.5050 Y-70.4950 Z-3.0000 F3600.00
G1 X-28.5050 Y-70.5050 Z-3.0000 F3600.00
G1 X-28.9429 Y-70.9429 Z-3.0000 F3600.00
G1 X-28.5050 Y-70.5050 Z-3.0000 F3600.00
G1 X-25.4950 Y-70.5050 Z-3.0000 F3600.00
G1 X-25.0571 Y-70.9429 Z-3.0000 F3600.00
G1 X-25.4950 Y-70.5050 Z-3.0000 F3600.00
G1 X-25.4950 Y-70.4950 Z-3.0000 F3600.00
G1 X-25.0571 Y-70.0571 Z-3.0000 F3600.00
G1 X-25.4950 Y-70.4950 Z-3.0000 F3600.00
G1 X-25.4950 Y-70.4950 Z-4.0000 F3600.00
G1 X-28.5050 Y-70.4950 Z-4.0000 F3600.00
G1 X-28.9429 Y-70.0571 Z-4.0000 F3600.00
G1 X-28.5050 Y-70.4950 Z-4.0000 F3600.00
G1 X-28.5050 Y-70.5050 Z-4.0000 F3600.00
G1 X-28.9429 Y-70.9429 Z-4.0000 F3600.00
G1 X-28.5050 Y-70.5050 Z-4.0000 F3600.00
G1 X-25.4950 Y-70.5050 Z-4.0000 F3600.00
G1 X-25.0571 Y-70.9429 Z-4.0000 F3600.00
G1 X-25.4950 Y-70.5050 Z-4.0000 F3600.00
G1 X-25.4950 Y-70.4950 Z-4.0000 F3600.00
G1 X-25.0571 Y-70.0571 Z-4.0000 F3600.00
G1 X-25.4950 Y-70.4950 Z-4.0000 F3600.00
G1 X-25.4950 Y-70.4950 Z-4.5000 F3600.00
G1 X-28.5050 Y-70.4950 Z-4.5000 F3600.00
G1 X-28.9429 Y-70.0571 Z-4.5000 F3600.00
G1 X-28.5050 Y-70.4950 Z-4.5000 F3600.00
G1 X-28.5050 Y-70.5050 Z-4.5000 F3600.00
G1 X-28.9429 Y-70.9429 Z-4.5000 F3600.00
G1 X-28.5050 Y-70.5050 Z-4.5000 F3600.00
G1 X-25.4950 Y-70.5050 Z-4.5000 F3600.00
G1 X-25.0571 Y-70.9429 Z-4.5000 F3600.00
G1 X-25.4950 Y-70.5050 Z-4.5000 F3600.00
G1 X-25.4950 Y-70.4950 Z-4.5000 F3600.00
G1 X-25.0571 Y-70.0571 Z-4.5000 F3600.00
G1 X-25.4950 Y-70.4950 Z-4.5000 F3600.00
G0 X-25.4950 Y-70.4950 Z5.0000
(Block-name: block)
(Block-expand: 0)
(Block-enable: 1)
G0 X-13.4950 Y-70.4950 Z5.0000
G0 X-13.4950 Y-70.4950 Z3.0000
G1 X-13.4950 Y-70.4950 Z-1.0000 F3600.00
G1 X-16.5050 Y-70.4950 Z-1.0000 F3600.00
G1 X-16.9429 Y-70.0571 Z-1.0000 F3600.00
G1 X-16.5050 Y-70.4950 Z-1.0000 F3600.00
G1 X-16.5050 Y-70.5050 Z-1.0000 F3600.00
G1 X-16.9429 Y-70.9429 Z-1.0000 F3600.00
G1 X-16.5050 Y-70.5050 Z-1.0000 F3600.00
G1 X-13.4950 Y-70.5050 Z-1.0000 F3600.00
G1 X-13.0571 Y-70.9429 Z-1.0000 F3600.00
G1 X-13.4950 Y-70.5050 Z-1.0000 F3600.00
G1 X-13.4950 Y-70.4950 Z-1.0000 F3600.00
G1 X-13.0571 Y-70.0571 Z-1.0000 F3600.00
G1 X-13.4950 Y-70.4950 Z-1.0000 F3600.00
G1 X-13.4950 Y-70.4950 Z-2.0000 F3600.00
G1 X-16.5050 Y-70.4950 Z-2.0000 F3600.00
G1 X-16.9429 Y-70.0571 Z-2.0000 F3600.00
G1 X-16.5050 Y-70.4950 Z-2.0000 F3600.00
G1 X-16.5050 Y-70.5050 Z-2.0000 F3600.00
G1 X-16.9429 Y-70.9429 Z-2.0000 F3600.00
G1 X-16.5050 Y-70.5050 Z-2.0000 F3600.00
G1 X-13.4950 Y-70.5050 Z-2.0000 F3600.00
G1 X-13.0571 Y-70.9429 Z-2.0000 F3600.00
G1 X-13.4950 Y-70.5050 Z-2.0000 F3600.00
G1 X-13.4950 Y-70.4950 Z-2.0000 F3600.00
G1 X-13.0571 Y-70.0571 Z-2.0000 F3600.00
G1 X-13.4950 Y-70.4950 Z-2.0000 F3600.00
G1 X-13.4950 Y-70.4950 Z-3.0000 F3600.00
G1 X-16.5050 Y-70.4950 Z-3.0000 F3600.00
G1 X-16.9429 Y-70.0571 Z-3.0000 F3600.00
G1 X-16.5050 Y-70.4950 Z-3.0000 F3600.00
G1 X-16.5050 Y-70.5050 Z-3.0000 F3600.00
G1 X-16.9429 Y-70.9429 Z-3.0000 F3600.00
G1 X-16.5050 Y-70.5050 Z-3.0000 F3600.00
G1 X-13.4950 Y-70.5050 Z-3.0000 F3600.00
G1 X-13.0571 Y-70.9429 Z-3.0000 F3600.00
G1 X-13.4950 Y-70.5050 Z-3.0000 F3600.00
G1 X-13.4950 Y-70.4950 Z-3.0000 F3600.00
G1 X-13.0571 Y-70.0571 Z-3.0000 F3600.00
G1 X-13.4950 Y-70.4950 Z-3.0000 F3600.00
G1 X-13.4950 Y-70.4950 Z-4.0000 F3600.00
G1 X-16.5050 Y-70.4950 Z-4.0000 F3600.00
G1 X-16.9429 Y-70.0571 Z-4.0000 F3600.00
G1 X-16.5050 Y-70.4950 Z-4.0000 F3600.00
G1 X-16.5050 Y-70.5050 Z-4.0000 F3600.00
G1 X-16.9429 Y-70.9429 Z-4.0000 F3600.00
G1 X-16.5050 Y-70.5050 Z-4.0000 F3600.00
G1 X-13.4950 Y-70.5050 Z-4.0000 F3600.00
G1 X-13.0571 Y-70.9429 Z-4.0000 F3600.00
G1 X-13.4950 Y-70.5050 Z-4.0000 F3600.00
G1 X-13.4950 Y-70.4950 Z-4.0000 F3600.00
G1 X-13.0571 Y-70.0571 Z-4.0000 F3600.00
G1 X-13.4950 Y-70.4950 Z-4.0000 F3600.00
G1 X-13.4950 Y-70.4950 Z-4.5000 F3600.00
G1 X-16.5050 Y-70.4950 Z-4.5000 F3600.00
G1 X-16.9429 Y-70.0571 Z-4.5000 F3600.00
G1 X-16.5050 Y-70.4950 Z-4.5000 F3600.00
G1 X-16.5050 Y-70.5050 Z-4.5000 F3600.00
G1 X-16.9429 Y-70.9429 Z-4.5000 F3600.00
G1 X-16.5050 Y-70.5050 Z-4.5000 F3600.00
G1 X-13.4950 Y-70.5050 Z-4.5000 F3600.00
G1 X-13.0571 Y-70.9429 Z-4.5000 F3600.00
G1 X-13.4950 Y-70.5050 Z-4.5000 F3600.00
G1 X-13.4950 Y-70.4950 Z-4.5000 F3600.00
G1 X-13.0571 Y-70.0571 Z-4.5000 F3600.00
G1 X-13.4950 Y-70.4950 Z-4.5000 F3600.00
G0 X-13.4950 Y-70.4950 Z5.0000
(Block-name: block)
(Block-expand: 0)
(Block-enable: 1)
G0 X-1.4950 Y-70.4950 Z5.0000
G0 X-1.4950 Y-70.4950 Z3.0000
G1 X-1.4950 Y-70.4950 Z-1.0000 F3600.00
G1 X-4.5050 Y-70.4950 Z-1.0000 F3600.00
G1 X-4.9429 Y-70.0571 Z-1.0000 F3600.00
G1 X-4.5050 Y-70.4950 Z-1.0000 F3600.00
G1 X-4.5050 Y-70.5050 Z-1.0000 F3600.00
G1 X-4.9429 Y-70.9429 Z-1.0000 F3600.00
G1 X-4.5050 Y-70.5050 Z-1.0000 F3600.00
G1 X-1.4950 Y-70.5050 Z-1.0000 F3600.00
G1 X-1.0571 Y-70.9429 Z-1.0000 F3600.00
G1 X-1.4950 Y-70.5050 Z-1.0000 F3600.00
G1 X-1.4950 Y-70.4950 Z-1.0000 F3600.00
G1 X-1.0571 Y-70.0571 Z-1.0000 F3600.00
G1 X-1.4950 Y-70.4950 Z-1.0000 F3600.00
G1 X-1.4950 Y-70.4950 Z-1.5500 F3600.00
G1 X-1.8011 Y-70.4950 Z-1.5489 F3600.00
G1 X-2.1990 Y-70.4950 Z-1.5708 F3600.00
G1 X-2.5992 Y-70.4950 Z-1.6190 F3600.00
G1 X-3.2988 Y-70.4950 Z-1.7645 F3600.00
G1 X-4.0447 Y-70.4950 Z-2.0000 F3600.00
G1 X-4.5050 Y-70.4950 Z-2.0000 F3600.00
G1 X-4.9429 Y-70.0571 Z-2.0000 F3600.00
G1 X-4.5050 Y-70.4950 Z-2.0000 F3600.00
G1 X-4.5050 Y-70.5050 Z-2.0000 F3600.00
G1 X-4.9199 Y-70.9199 Z-2.0000 F3600.00
G1 X-4.9429 Y-70.9429 Z-1.9918 F3600.00
G1 X-4.5050 Y-70.5050 Z-2.0000 F3600.00
G1 X-4.0699 Y-70.5050 Z-2.0000 F3600.00
G1 X-1.4950 Y-70.5050 Z-2.0000 F3600.00
G1 X-1.0571 Y-70.9429 Z-2.0000 F3600.00
G1 X-1.4950 Y-70.5050 Z-2.0000 F3600.00
G1 X-1.4950 Y-70.4950 Z-2.0000 F3600.00
G1 X-1.0704 Y-70.0704 Z-2.0000 F3600.00
G1 X-1.0571 Y-70.0571 Z-2.0000 F3600.00
G1 X-1.4950 Y-70.4950 Z-2.0000 F3600.00
G1 X-1.4950 Y-70.4950 Z-3.0000 F3600.00
G1 X-4.5050 Y-70.4950 Z-3.0000 F3600.00
G1 X-4.9429 Y-70.0571 Z-3.0000 F3600.00
G1 X-4.5050 Y-70.4950 Z-3.0000 F3600.00
G1 X-4.5050 Y-70.5050 Z-3.0000 F3600.00
G1 X-4.9429 Y-70.9429 Z-3.0000 F3600.00
G1 X-4.5050 Y-70.5050 Z-3.0000 F3600.00
G1 X-1.4950 Y-70.5050 Z-3.0000 F3600.00
G1 X-1.0571 Y-70.9429 Z-3.0000 F3600.00
G1 X-1.4950 Y-70.5050 Z-3.0000 F3600.00
G1 X-1.4950 Y-70.4950 Z-3.0000 F3600.00
G1 X-1.0571 Y-70.0571 Z-3.0000 F3600.00
G1 X-1.4950 Y-70.4950 Z-3.0000 F3600.00
G1 X-1.4950 Y-70.4950 Z-4.0000 F3600.00
G1 X-4.5050 Y-70.4950 Z-4.0000 F3600.00
G1 X-4.9429 Y-70.0571 Z-4.0000 F3600.00
G1 X-4.5050 Y-70.4950 Z-4.0000 F3600.00
G1 X-4.5050 Y-70.5050 Z-4.0000 F3600.00
G1 X-4.9429 Y-70.9429 Z-4.0000 F3600.00
G1 X-4.5050 Y-70.5050 Z-4.0000 F3600.00
G1 X-1.4950 Y-70.5050 Z-4.0000 F3600.00
G1 X-1.0571 Y-70.9429 Z-4.0000 F3600.00
G1 X-1.4950 Y-70.5050 Z-4.0000 F3600.00
G1 X-1.4950 Y-70.4950 Z-4.0000 F3600.00
G1 X-1.0571 Y-70.0571 Z-4.0000 F3600.00
G1 X-1.4950 Y-70.4950 Z-4.0000 F3600.00
G1 X-1.4950 Y-70.4950 Z-4.5000 F3600.00
G1 X-4.5050 Y-70.4950 Z-4.5000 F3600.00
G1 X-4.9429 Y-70.0571 Z-4.5000 F3600.00
G1 X-4.5050 Y-70.4950 Z-4.5000 F3600.00
G1 X-4.5050 Y-70.5050 Z-4.5000 F3600.00
G1 X-4.9429 Y-70.9429 Z-4.5000 F3600.00
G1 X-4.5050 Y-70.5050 Z-4.5000 F3600.00
G1 X-1.4950 Y-70.5050 Z-4.5000 F3600.00
G1 X-1.0571 Y-70.9429 Z-4.5000 F3600.00
G1 X-1.4950 Y-70.5050 Z-4.5000 F3600.00
G1 X-1.4950 Y-70.4950 Z-4.5000 F3600.00
G1 X-1.0571 Y-70.0571 Z-4.5000 F3600.00
G1 X-1.4950 Y-70.4950 Z-4.5000 F3600.00
G0 X-1.4950 Y-70.4950 Z5.0000
(Block-name: block)
(Block-expand: 0)
(Block-enable: 1)
G0 X10.5050 Y-70.4950 Z5.0000
G0 X10.5050 Y-70.4950 Z3.0000
G1 X10.5050 Y-70.4950 Z-1.0000 F3600.00
G1 X7.4950 Y-70.4950 Z-1.0000 F3600.00
G1 X7.0571 Y-70.0571 Z-1.0000 F3600.00
G1 X7.4950 Y-70.4950 Z-1.0000 F3600.00
G1 X7.4950 Y-70.5050 Z-1.0000 F3600.00
G1 X7.0571 Y-70.9429 Z-1.0000 F3600.00
G1 X7.4950 Y-70.5050 Z-1.0000 F3600.00
G1 X10.5050 Y-70.5050 Z-1.0000 F3600.00
G1 X10.9429 Y-70.9429 Z-1.0000 F3600.00
G1 X10.5050 Y-70.5050 Z-1.0000 F3600.00
G1 X10.5050 Y-70.4950 Z-1.0000 F3600.00
G1 X10.9429 Y-70.0571 Z-1.0000 F3600.00
G1 X10.5050 Y-70.4950 Z-1.0000 F3600.00
G1 X10.5050 Y-70.4950 Z-2.0000 F3600.00
G1 X7.4950 Y-70.4950 Z-2.0000 F3600.00
G1 X7.0571 Y-70.0571 Z-2.0000 F3600.00
G1 X7.4950 Y-70.4950 Z-2.0000 F3600.00
G1 X7.4950 Y-70.5050 Z-2.0000 F3600.00
G1 X7.0571 Y-70.9429 Z-2.0000 F3600.00
G1 X7.4950 Y-70.5050 Z-2.0000 F3600.00
G1 X10.5050 Y-70.5050 Z-2.0000 F3600.00
G1 X10.9429 Y-70.9429 Z-2.0000 F3600.00
G1 X10.5050 Y-70.5050 Z-2.0000 F3600.00
G1 X10.5050 Y-70.4950 Z-2.0000 F3600.00
G1 X10.9429 Y-70.0571 Z-2.0000 F3600.00
G1 X10.5050 Y-70.4950 Z-2.0000 F3600.00
G1 X10.5050 Y-70.4950 Z-3.0000 F3600.00
G1 X7.4950 Y-70.4950 Z-3.0000 F3600.00
G1 X7.0571 Y-70.0571 Z-3.0000 F3600.00
G1 X7.4950 Y-70.4950 Z-3.0000 F3600.00
G1 X7.4950 Y-70.5050 Z-3.0000 F3600.00
G1 X7.0571 Y-70.9429 Z-3.0000 F3600.00
G1 X7.4950 Y-70.5050 Z-3.0000 F3600.00
G1 X10.5050 Y-70.5050 Z-3.0000 F3600.00
G1 X10.9429 Y-70.9429 Z-3.0000 F3600.00
G1 X10.5050 Y-70.5050 Z-3.0000 F3600.00
G1 X10.5050 Y-70.4950 Z-3.0000 F3600.00
G1 X10.9429 Y-70.0571 Z-3.0000 F3600.00
G1 X10.5050 Y-70.4950 Z-3.0000 F3600.00
G1 X10.5050 Y-70.4950 Z-4.0000 F3600.00
G1 X7.4950 Y-70.4950 Z-4.0000 F3600.00
G1 X7.0571 Y-70.0571 Z-4.0000 F3600.00
G1 X7.4950 Y-70.4950 Z-4.0000 F3600.00
G1 X7.4950 Y-70.5050 Z-4.0000 F3600.00
G1 X7.0571 Y-70.9429 Z-4.0000 F3600.00
G1 X7.4950 Y-70.5050 Z-4.0000 F3600.00
G1 X10.5050 Y-70.5050 Z-4.0000 F3600.00
G1 X10.9429 Y-70.9429 Z-4.0000 F3600.00
G1 X10.5050 Y-70.5050 Z-4.0000 F3600.00
G1 X10.5050 Y-70.4950 Z-4.0000 F3600.00
G1 X10.9429 Y-70.0571 Z-4.0000 F3600.00
G1 X10.5050 Y-70.4950 Z-4.0000 F3600.00
G1 X10.5050 Y-70.4950 Z-4.5000 F3600.00
G1 X7.4950 Y-70.4950 Z-4.5000 F3600.00
G1 X7.0571 Y-70.0571 Z-4.5000 F3600.00
G1 X7.4950 Y-70.4950 Z-4.5000 F3600.00
G1 X7.4950 Y-70.5050 Z-4.5000 F3600.00
G1 X7.0571 Y-70.9429 Z-4.5000 F3600.00
G1 X7.4950 Y-70.5050 Z-4.5000 F3600.00
G1 X10.5050 Y-70.5050 Z-4.5000 F3600.00
G1 X10.9429 Y-70.9429 Z-4.5000 F3600.00
G1 X10.5050 Y-70.5050 Z-4.5000 F3600.00
G1 X10.5050 Y-70.4950 Z-4.5000 F3600.00
G1 X10.9429 Y-70.0571 Z-4.5000 F3600.00
G1 X10.5050 Y-70.4950 Z-4.5000 F3600.00
G0 X10.5050 Y-70.4950 Z5.0000
(Block-name: block)
(Block-expand: 0)
(Block-enable: 1)
G0 X22.5050 Y-70.4950 Z5.0000
G0 X22.5050 Y-70.4950 Z3.0000
G1 X22.5050 Y-70.4950 Z-1.0000 F3600.00
G1 X19.4950 Y-70.4950 Z-1.0000 F3600.00
G1 X19.0571 Y-70.0571 Z-1.0000 F3600.00
G1 X19.4950 Y-70.4950 Z-1.0000 F3600.00
G1 X19.4950 Y-70.5050 Z-1.0000 F3600.00
G1 X19.0571 Y-70.9429 Z-1.0000 F3600.00
G1 X19.4950 Y-70.5050 Z-1.0000 F3600.00
G1 X22.5050 Y-70.5050 Z-1.0000 F3600.00
G1 X22.9429 Y-70.9429 Z-1.0000 F3600.00
G1 X22.5050 Y-70.5050 Z-1.0000 F3600.00
G1 X22.5050 Y-70.4950 Z-1.0000 F3600.00
G1 X22.9429 Y-70.0571 Z-1.0000 F3600.00
G1 X22.5050 Y-70.4950 Z-1.0000 F3600.00
G1 X22.5050 Y-70.4950 Z-2.0000 F3600.00
G1 X19.4950 Y-70.4950 Z-2.0000 F3600.00
G1 X19.0571 Y-70.0571 Z-2.0000 F3600.00
G1 X19.4950 Y-70.4950 Z-2.0000 F3600.00
G1 X19.4950 Y-70.5050 Z-2.0000 F3600.00
G1 X19.0571 Y-70.9429 Z-2.0000 F3600.00
G1 X19.4950 Y-70.5050 Z-2.0000 F3600.00
G1 X22.5050 Y-70.5050 Z-2.0000 F3600.00
G1 X22.9429 Y-70.9429 Z-2.0000 F3600.00
G1 X22.5050 Y-70.5050 Z-2.0000 F3600.00
G1 X22.5050 Y-70.4950 Z-2.0000 F3600.00
G1 X22.9429 Y-70.0571 Z-2.0000 F3600.00
G1 X22.5050 Y-70.4950 Z-2.0000 F3600.00
G1 X22.5050 Y-70.4950 Z-3.0000 F3600.00
G1 X19.4950 Y-70.4950 Z-3.0000 F3600.00
G1 X19.0571 Y-70.0571 Z-3.0000 F3600.00
G1 X19.4950 Y-70.4950 Z-3.0000 F3600.00
G1 X19.4950 Y-70.5050 Z-3.0000 F3600.00
G1 X19.0571 Y-70.9429 Z-3.0000 F3600.00
G1 X19.4950 Y-70.5050 Z-3.0000 F3600.00
G1 X22.5050 Y-70.5050 Z-3.0000 F3600.00
G1 X22.9429 Y-70.9429 Z-3.0000 F3600.00
G1 X22.5050 Y-70.5050 Z-3.0000 F3600.00
G1 X22.5050 Y-70.4950 Z-3.0000 F3600.00
G1 X22.9429 Y-70.0571 Z-3.0000 F3600.00
G1 X22.5050 Y-70.4950 Z-3.0000 F3600.00
G1 X22.5050 Y-70.4950 Z-4.0000 F3600.00
G1 X19.4950 Y-70.4950 Z-4.0000 F3600.00
G1 X19.0571 Y-70.0571 Z-4.0000 F3600.00
G1 X19.4950 Y-70.4950 Z-4.0000 F3600.00
G1 X19.4950 Y-70.5050 Z-4.0000 F3600.00
G1 X19.0571 Y-70.9429 Z-4.0000 F3600.00
G1 X19.4950 Y-70.5050 Z-4.0000 F3600.00
G1 X22.5050 Y-70.5050 Z-4.0000 F3600.00
G1 X22.9429 Y-70.9429 Z-4.0000 F3600.00
G1 X22.5050 Y-70.5050 Z-4.0000 F3600.00
G1 X22.5050 Y-70.4950 Z-4.0000 F3600.00
G1 X22.9429 Y-70.0571 Z-4.0000 F3600.00
G1 X22.5050 Y-70.4950 Z-4.0000 F3600.00
G1 X22.5050 Y-70.4950 Z-4.5000 F3600.00
G1 X19.4950 Y-70.4950 Z-4.5000 F3600.00
G1 X19.0571 Y-70.0571 Z-4.5000 F3600.00
G1 X19.4950 Y-70.4950 Z-4.5000 F3600.00
G1 X19.4950 Y-70.5050 Z-4.5000 F3600.00
G1 X19.0571 Y-70.9429 Z-4.5000 F3600.00
G1 X19.4950 Y-70.5050 Z-4.5000 F3600.00
G1 X22.5050 Y-70.5050 Z-4.5000 F3600.00
G1 X22.9429 Y-70.9429 Z-4.5000 F3600.00
G1 X22.5050 Y-70.5050 Z-4.5000 F3600.00
G1 X22.5050 Y-70.4950 Z-4.5000 F3600.00
G1 X22.9429 Y-70.0571 Z-4.5000 F3600.00
G1 X22.5050 Y-70.4950 Z-4.5000 F3600.00
G0 X22.5050 Y-70.4950 Z5.0000
(Block-name: block)
(Block-expand: 0)
(Block-enable: 1)
G0 X34.5050 Y-70.4950 Z5.0000
G0 X34.5050 Y-70.4950 Z3.0000
G1 X34.5050 Y-70.4950 Z-1.0000 F3600.00
G1 X31.4950 Y-70.4950 Z-1.0000 F3600.00
G1 X31.0571 Y-70.0571 Z-1.0000 F3600.00
G1 X31.4950 Y-70.4950 Z-1.0000 F3600.00
G1 X31.4950 Y-70.5050 Z-1.0000 F3600.00
G1 X31.0571 Y-70.9429 Z-1.0000 F3600.00
G1 X31.4950 Y-70.5050 Z-1.0000 F3600.00
G1 X34.5050 Y-70.5050 Z-1.0000 F3600.00
G1 X34.9429 Y-70.9429 Z-1.0000 F3600.00
G1 X34.5050 Y-70.5050 Z-1.0000 F3600.00
G1 X34.5050 Y-70.4950 Z-1.0000 F3600.00
G1 X34.9429 Y-70.0571 Z-1.0000 F3600.00
G1 X34.5050 Y-70.4950 Z-1.0000 F3600.00
G1 X34.5050 Y-70.4950 Z-2.0000 F3600.00
G1 X31.4950 Y-70.4950 Z-2.0000 F3600.00
G1 X31.0571 Y-70.0571 Z-2.0000 F3600.00
G1 X31.4950 Y-70.4950 Z-2.0000 F3600.00
G1 X31.4950 Y-70.5050 Z-2.0000 F3600.00
G1 X31.0571 Y-70.9429 Z-2.0000 F3600.00
G1 X31.4950 Y-70.5050 Z-2.0000 F3600.00
G1 X34.5050 Y-70.5050 Z-2.0000 F3600.00
G1 X34.9429 Y-70.9429 Z-2.0000 F3600.00
G1 X34.5050 Y-70.5050 Z-2.0000 F3600.00
G1 X34.5050 Y-70.4950 Z-2.0000 F3600.00
G1 X34.9429 Y-70.0571 Z-2.0000 F3600.00
G1 X34.5050 Y-70.4950 Z-2.0000 F3600.00
G1 X34.5050 Y-70.4950 Z-3.0000 F3600.00
G1 X31.4950 Y-70.4950 Z-3.0000 F3600.00
G1 X31.0571 Y-70.0571 Z-3.0000 F3600.00
G1 X31.4950 Y-70.4950 Z-3.0000 F3600.00
G1 X31.4950 Y-70.5050 Z-3.0000 F3600.00
G1 X31.0571 Y-70.9429 Z-3.0000 F3600.00
G1 X31.4950 Y-70.5050 Z-3.0000 F3600.00
G1 X34.5050 Y-70.5050 Z-3.0000 F3600.00
G1 X34.9429 Y-70.9429 Z-3.0000 F3600.00
G1 X34.5050 Y-70.5050 Z-3.0000 F3600.00
G1 X34.5050 Y-70.4950 Z-3.0000 F3600.00
G1 X34.9429 Y-70.0571 Z-3.0000 F3600.00
G1 X34.5050 Y-70.4950 Z-3.0000 F3600.00
G1 X34.5050 Y-70.4950 Z-4.0000 F3600.00
G1 X31.4950 Y-70.4950 Z-4.0000 F3600.00
G1 X31.0571 Y-70.0571 Z-4.0000 F3600.00
G1 X31.4950 Y-70.4950 Z-4.0000 F3600.00
G1 X31.4950 Y-70.5050 Z-4.0000 F3600.00
G1 X31.0571 Y-70.9429 Z-4.0000 F3600.00
G1 X31.4950 Y-70.5050 Z-4.0000 F3600.00
G1 X34.5050 Y-70.5050 Z-4.0000 F3600.00
G1 X34.9429 Y-70.9429 Z-4.0000 F3600.00
G1 X34.5050 Y-70.5050 Z-4.0000 F3600.00
G1 X34.5050 Y-70.4950 Z-4.0000 F3600.00
G1 X34.9429 Y-70.0571 Z-4.0000 F3600.00
G1 X34.5050 Y-70.4950 Z-4.0000 F3600.00
G1 X34.5050 Y-70.4950 Z-4.5000 F3600.00
G1 X31.4950 Y-70.4950 Z-4.5000 F3600.00
G1 X31.0571 Y-70.0571 Z-4.5000 F3600.00
G1 X31.4950 Y-70.4950 Z-4.5000 F3600.00
G1 X31.4950 Y-70.5050 Z-4.5000 F3600.00
G1 X31.0571 Y-70.9429 Z-4.5000 F3600.00
G1 X31.4950 Y-70.5050 Z-4.5000 F3600.00
G1 X34.5050 Y-70.5050 Z-4.5000 F3600.00
G1 X34.9429 Y-70.9429 Z-4.5000 F3600.00
G1 X34.5050 Y-70.5050 Z-4.5000 F3600.00
G1 X34.5050 Y-70.4950 Z-4.5000 F3600.00
G1 X34.9429 Y-70.0571 Z-4.5000 F3600.00
G1 X34.5050 Y-70.4950 Z-4.5000 F3600.00
G0 X34.5050 Y-70.4950 Z5.0000
(Block-name: block)
(Block-expand: 0)
(Block-enable: 1)
G0 X46.5050 Y-70.4950 Z5.0000
G0 X46.5050 Y-70.4950 Z3.0000
G1 X46.5050 Y-70.4950 Z-1.0000 F3600.00
G1 X43.4950 Y-70.4950 Z-1.0000 F3600.00
G1 X43.0571 Y-70.0571 Z-1.0000 F3600.00
G1 X43.4950 Y-70.4950 Z-1.0000 F3600.00
G1 X43.4950 Y-70.5050 Z-1.0000 F3600.00
G1 X43.0571 Y-70.9429 Z-1.0000 F3600.00
G1 X43.4950 Y-70.5050 Z-1.0000 F3600.00
G1 X46.5050 Y-70.5050 Z-1.0000 F3600.00
G1 X46.9429 Y-70.9429 Z-1.0000 F3600.00
G1 X46.5050 Y-70.5050 Z-1.0000 F3600.00
G1 X46.5050 Y-70.4950 Z-1.0000 F3600.00
G1 X46.9429 Y-70.0571 Z-1.0000 F3600.00
G1 X46.5050 Y-70.4950 Z-1.0000 F3600.00
G1 X46.5050 Y-70.4950 Z-2.0000 F3600.00
G1 X43.4950 Y-70.4950 Z-2.0000 F3600.00
G1 X43.0571 Y-70.0571 Z-2.0000 F3600.00
G1 X43.4950 Y-70.4950 Z-2.0000 F3600.00
G1 X43.4950 Y-70.5050 Z-2.0000 F3600.00
G1 X43.0571 Y-70.9429 Z-2.0000 F3600.00
G1 X43.4950 Y-70.5050 Z-2.0000 F3600.00
G1 X46.5050 Y-70.5050 Z-2.0000 F3600.00
G1 X46.9429 Y-70.9429 Z-2.0000 F3600.00
G1 X46.5050 Y-70.5050 Z-2.0000 F3600.00
G1 X46.5050 Y-70.4950 Z-2.0000 F3600.00
G1 X46.9429 Y-70.0571 Z-2.0000 F3600.00
G1 X46.5050 Y-70.4950 Z-2.0000 F3600.00
G1 X46.5050 Y-70.4950 Z-3.0000 F3600.00
G1 X43.4950 Y-70.4950 Z-3.0000 F3600.00
G1 X43.0571 Y-70.0571 Z-3.0000 F3600.00
G1 X43.4950 Y-70.4950 Z-3.0000 F3600.00
G1 X43.4950 Y-70.5050 Z-3.0000 F3600.00
G1 X43.0571 Y-70.9429 Z-3.0000 F3600.00
G1 X43.4950 Y-70.5050 Z-3.0000 F3600.00
G1 X46.5050 Y-70.5050 Z-3.0000 F3600.00
G1 X46.9429 Y-70.9429 Z-3.0000 F3600.00
G1 X46.5050 Y-70.5050 Z-3.0000 F3600.00
G1 X46.5050 Y-70.4950 Z-3.0000 F3600.00
G1 X46.9429 Y-70.0571 Z-3.0000 F3600.00
G1 X46.5050 Y-70.4950 Z-3.0000 F3600.00
G1 X46.5050 Y-70.4950 Z-4.0000 F3600.00
G1 X43.4950 Y-70.4950 Z-4.0000 F3600.00
G1 X43.0571 Y-70.0571 Z-4.0000 F3600.00
G1 X43.4950 Y-70.4950 Z-4.0000 F3600.00
G1 X43.4950 Y-70.5050 Z-4.0000 F3600.00
G1 X43.0571 Y-70.9429 Z-4.0000 F3600.00
G1 X43.4950 Y-70.5050 Z-4.0000 F3600.00
G1 X46.5050 Y-70.5050 Z-4.0000 F3600.00
G1 X46.9429 Y-70.9429 Z-4.0000 F3600.00
G1 X46.5050 Y-70.5050 Z-4.0000 F3600.00
G1 X46.5050 Y-70.4950 Z-4.0000 F3600.00
G1 X46.9429 Y-70.0571 Z-4.0000 F3600.00
G1 X46.5050 Y-70.4950 Z-4.0000 F3600.00
G1 X46.5050 Y-70.4950 Z-4.5000 F3600.00
G1 X43.4950 Y-70.4950 Z-4.5000 F3600.00
G1 X43.0571 Y-70.0571 Z-4.5000 F3600.00
G1 X43.4950 Y-70.4950 Z-4.5000 F3600.00
G1 X43.4950 Y-70.5050 Z-4.5000 F3600.00
G1 X43.0571 Y-70.9429 Z-4.5000 F3600.00
G1 X43.4950 Y-70.5050 Z-4.5000 F3600.00
G1 X46.5050 Y-70.5050 Z-4.5000 F3600.00
G1 X46.9429 Y-70.9429 Z-4.5000 F3600.00
G1 X46.5050 Y-70.5050 Z-4.5000 F3600.00
G1 X46.5050 Y-70.4950 Z-4.5000 F3600.00
G1 X46.9429 Y-70.0571 Z-4.5000 F3600.00
G1 X46.5050 Y-70.4950 Z-4.5000 F3600.00
G0 X46.5050 Y-70.4950 Z5.0000
(Block-name: block)
(Block-expand: 0)
(Block-enable: 1)
G0 X58.5050 Y-70.4950 Z5.0000
G0 X58.5050 Y-70.4950 Z3.0000
G1 X58.5050 Y-70.4950 Z-1.0000 F3600.00
G1 X55.4950 Y-70.4950 Z-1.0000 F3600.00
G1 X55.0571 Y-70.0571 Z-1.0000 F3600.00
G1 X55.4950 Y-70.4950 Z-1.0000 F3600.00
G1 X55.4950 Y-70.5050 Z-1.0000 F3600.00
G1 X55.0571 Y-70.9429 Z-1.0000 F3600.00
G1 X55.4950 Y-70.5050 Z-1.0000 F3600.00
G1 X58.5050 Y-70.5050 Z-1.0000 F3600.00
G1 X58.9429 Y-70.9429 Z-1.0000 F3600.00
G1 X58.5050 Y-70.5050 Z-1.0000 F3600.00
G1 X58.5050 Y-70.4950 Z-1.0000 F3600.00
G1 X58.9429 Y-70.0571 Z-1.0000 F3600.00
G1 X58.5050 Y-70.4950 Z-1.0000 F3600.00
G1 X58.5050 Y-70.4950 Z-2.0000 F3600.00
G1 X55.4950 Y-70.4950 Z-2.0000 F3600.00
G1 X55.0571 Y-70.0571 Z-2.0000 F3600.00
G1 X55.4950 Y-70.4950 Z-2.0000 F3600.00
G1 X55.4950 Y-70.5050 Z-2.0000 F3600.00
G1 X55.0571 Y-70.9429 Z-2.0000 F3600.00
G1 X55.4950 Y-70.5050 Z-2.0000 F3600.00
G1 X58.5050 Y-70.5050 Z-2.0000 F3600.00
G1 X58.9429 Y-70.9429 Z-2.0000 F3600.00
G1 X58.5050 Y-70.5050 Z-2.0000 F3600.00
G1 X58.5050 Y-70.4950 Z-2.0000 F3600.00
G1 X58.9429 Y-70.0571 Z-2.0000 F3600.00
G1 X58.5050 Y-70.4950 Z-2.0000 F3600.00
G1 X58.5050 Y-70.4950 Z-3.0000 F3600.00
G1 X55.9620 Y-70.4950 Z-3.0000 F3600.00
G1 X55.4950 Y-70.4950 Z-3.0000 F3600.00
G1 X55.0571 Y-70.0571 Z-3.0000 F3600.00
G1 X55.4950 Y-70.4950 Z-3.0000 F3600.00
G1 X55.4950 Y-70.5050 Z-3.0000 F3600.00
G1 X55.0571 Y-70.9429 Z-3.0000 F3600.00
G1 X55.4950 Y-70.5050 Z-3.0000 F3600.00
G1 X55.9756 Y-70.5050 Z-3.0000 F3600.00
G1 X58.5050 Y-70.5050 Z-3.0000 F3600.00
G1 X58.9429 Y-70.9429 Z-3.0000 F3600.00
G1 X58.5050 Y-70.5050 Z-3.0000 F3600.00
G1 X58.5050 Y-70.4950 Z-3.0000 F3600.00
G1 X58.9429 Y-70.0571 Z-3.0000 F3600.00
G1 X58.5050 Y-70.4950 Z-3.0000 F3600.00
G1 X58.5050 Y-70.4950 Z-4.0000 F3600.00
G1 X55.4950 Y-70.4950 Z-4.0000 F3600.00
G1 X55.0571 Y-70.0571 Z-4.0000 F3600.00
G1 X55.4950 Y-70.4950 Z-4.0000 F3600.00
G1 X55.4950 Y-70.5050 Z-4.0000 F3600.00
G1 X55.0571 Y-70.9429 Z-4.0000 F3600.00
G1 X55.4950 Y-70.5050 Z-4.0000 F3600.00
G1 X58.5050 Y-70.5050 Z-4.0000 F3600.00
G1 X58.9429 Y-70.9429 Z-4.0000 F3600.00
G1 X58.5050 Y-70.5050 Z-4.0000 F3600.00
G1 X58.5050 Y-70.4950 Z-4.0000 F3600.00
G1 X58.9429 Y-70.0571 Z-4.0000 F3600.00
G1 X58.5050 Y-70.4950 Z-4.0000 F3600.00
G1 X58.5050 Y-70.4950 Z-4.5000 F3600.00
G1 X55.4950 Y-70.4950 Z-4.5000 F3600.00
G1 X55.0571 Y-70.0571 Z-4.5000 F3600.00
G1 X55.4950 Y-70.4950 Z-4.5000 F3600.00
G1 X55.4950 Y-70.5050 Z-4.5000 F3600.00
G1 X55.0571 Y-70.9429 Z-4.5000 F3600.00
G1 X55.4950 Y-70.5050 Z-4.5000 F3600.00
G1 X58.5050 Y-70.5050 Z-4.5000 F3600.00
G1 X58.9429 Y-70.9429 Z-4.5000 F3600.00
G1 X58.5050 Y-70.5050 Z-4.5000 F3600.00
G1 X58.5050 Y-70.4950 Z-4.5000 F3600.00
G1 X58.9429 Y-70.0571 Z-4.5000 F3600.00
G1 X58.5050 Y-70.4950 Z-4.5000 F3600.00
G0 X58.5050 Y-70.4950 Z5.0000
(Block-name: block)
(Block-expand: 0)
(Block-enable: 1)
G0 X70.5050 Y-70.4950 Z5.0000
G0 X70.5050 Y-70.4950 Z3.0000
G1 X70.5050 Y-70.4950 Z-1.0000 F3600.00
G1 X67.4950 Y-70.4950 Z-1.0000 F3600.00
G1 X67.0571 Y-70.0571 Z-1.0000 F3600.00
G1 X67.4950 Y-70.4950 Z-1.0000 F3600.00
G1 X67.4950 Y-70.5050 Z-1.0000 F3600.00
G1 X67.0571 Y-70.9429 Z-1.0000 F3600.00
G1 X67.4950 Y-70.5050 Z-1.0000 F3600.00
G1 X70.5050 Y-70.5050 Z-1.0000 F3600.00
G1 X70.9429 Y-70.9429 Z-1.0000 F3600.00
G1 X70.5050 Y-70.5050 Z-1.0000 F3600.00
G1 X70.5050 Y-70.4950 Z-1.0000 F3600.00
G1 X70.9429 Y-70.0571 Z-1.0000 F3600.00
G1 X70.5050 Y-70.4950 Z-1.0000 F3600.00
G1 X70.5050 Y-70.4950 Z-2.0000 F3600.00
G1 X67.4950 Y-70.4950 Z-2.0000 F3600.00
G1 X67.0571 Y-70.0571 Z-2.0000 F3600.00
G1 X67.4950 Y-70.4950 Z-2.0000 F3600.00
G1 X67.4950 Y-70.5050 Z-2.0000 F3600.00
G1 X67.0571 Y-70.9429 Z-2.0000 F3600.00
G1 X67.4950 Y-70.5050 Z-2.0000 F3600.00
G1 X70.5050 Y-70.5050 Z-2.0000 F3600.00
G1 X70.9429 Y-70.9429 Z-2.0000 F3600.00
G1 X70.5050 Y-70.5050 Z-2.0000 F3600.00
G1 X70.5050 Y-70.4950 Z-2.0000 F3600.00
G1 X70.9429 Y-70.0571 Z-2.0000 F3600.00
G1 X70.5050 Y-70.4950 Z-2.0000 F3600.00
G1 X70.5050 Y-70.4950 Z-3.0000 F3600.00
G1 X67.4950 Y-70.4950 Z-3.0000 F3600.00
G1 X67.0571 Y-70.0571 Z-3.0000 F3600.00
G1 X67.4950 Y-70.4950 Z-3.0000 F3600.00
G1 X67.4950 Y-70.5050 Z-3.0000 F3600.00
G1 X67.0571 Y-70.9429 Z-3.0000 F3600.00
G1 X67.4950 Y-70.5050 Z-3.0000 F3600.00
G1 X70.5050 Y-70.5050 Z-3.0000 F3600.00
G1 X70.9429 Y-70.9429 Z-3.0000 F3600.00
G1 X70.5050 Y-70.5050 Z-3.0000 F3600.00
G1 X70.5050 Y-70.4950 Z-3.0000 F3600.00
G1 X70.9429 Y-70.0571 Z-3.0000 F3600.00
G1 X70.5050 Y-70.4950 Z-3.0000 F3600.00
G1 X70.5050 Y-70.4950 Z-4.0000 F3600.00
G1 X67.4950 Y-70.4950 Z-4.0000 F3600.00
G1 X67.0571 Y-70.0571 Z-4.0000 F3600.00
G1 X67.4950 Y-70.4950 Z-4.0000 F3600.00
G1 X67.4950 Y-70.5050 Z-4.0000 F3600.00
G1 X67.0571 Y-70.9429 Z-4.0000 F3600.00
G1 X67.4950 Y-70.5050 Z-4.0000 F3600.00
G1 X70.5050 Y-70.5050 Z-4.0000 F3600.00
G1 X70.9429 Y-70.9429 Z-4.0000 F3600.00
G1 X70.5050 Y-70.5050 Z-4.0000 F3600.00
G1 X70.5050 Y-70.4950 Z-4.0000 F3600.00
G1 X70.9429 Y-70.0571 Z-4.0000 F3600.00
G1 X70.5050 Y-70.4950 Z-4.0000 F3600.00
G1 X70.5050 Y-70.4950 Z-4.5000 F3600.00
G1 X67.4950 Y-70.4950 Z-4.5000 F3600.00
G1 X67.0571 Y-70.0571 Z-4.5000 F3600.00
G1 X67.4950 Y-70.4950 Z-4.5000 F3600.00
G1 X67.4950 Y-70.5050 Z-4.5000 F3600.00
G1 X67.0571 Y-70.9429 Z-4.5000 F3600.00
G1 X67.4950 Y-70.5050 Z-4.5000 F3600.00
G1 X70.5050 Y-70.5050 Z-4.5000 F3600.00
G1 X70.9429 Y-70.9429 Z-4.5000 F3600.00
G1 X70.5050 Y-70.5050 Z-4.5000 F3600.00
G1 X70.5050 Y-70.4950 Z-4.5000 F3600.00
G1 X70.9429 Y-70.0571 Z-4.5000 F3600.00
G1 X70.5050 Y-70.4950 Z-4.5000 F3600.00
G0 X70.5050 Y-70.4950 Z5.0000
(Block-name: block)
(Block-expand: 0)
(Block-enable: 1)
G0 X70.5050 Y-61.4950 Z5.0000
G0 X70.5050 Y-61.4950 Z3.0000
G1 X70.5050 Y-61.4950 Z-1.0000 F3600.00
G1 X70.4950 Y-61.4950 Z-1.0000 F3600.00
G1 X70.0571 Y-61.0571 Z-1.0000 F3600.00
G1 X70.4950 Y-61.4950 Z-1.0000 F3600.00
G1 X70.4950 Y-64.5050 Z-1.0000 F3600.00
G1 X70.0571 Y-64.9429 Z-1.0000 F3600.00
G1 X70.4950 Y-64.5050 Z-1.0000 F3600.00
G1 X70.5050 Y-64.5050 Z-1.0000 F3600.00
G1 X70.9429 Y-64.9429 Z-1.0000 F3600.00
G1 X70.5050 Y-64.5050 Z-1.0000 F3600.00
G1 X70.5050 Y-61.4950 Z-1.0000 F3600.00
G1 X70.9429 Y-61.0571 Z-1.0000 F3600.00
G1 X70.5050 Y-61.4950 Z-1.0000 F3600.00
G1 X70.5050 Y-61.4950 Z-2.0000 F3600.00
G1 X70.4950 Y-61.4950 Z-2.0000 F3600.00
G1 X70.0571 Y-61.0571 Z-2.0000 F3600.00
G1 X70.4950 Y-61.4950 Z-2.0000 F3600.00
G1 X70.4950 Y-64.5050 Z-2.0000 F3600.00
G1 X70.0571 Y-64.9429 Z-2.0000 F3600.00
G1 X70.4950 Y-64.5050 Z-2.0000 F3600.00
G1 X70.5050 Y-64.5050 Z-2.0000 F3600.00
G1 X70.9429 Y-64.9429 Z-2.0000 F3600.00
G1 X70.5050 Y-64.5050 Z-2.0000 F3600.00
G1 X70.5050 Y-61.4950 Z-2.0000 F3600.00
G1 X70.6550 Y-61.3450 Z-2.0000 F3600.00
G1 X70.9429 Y-61.0571 Z-1.6186 F3600.00
G1 X70.5050 Y-61.4950 Z-2.0000 F3600.00
G1 X70.5050 Y-61.4950 Z-2.1999 F3600.00
G1 X70.5050 Y-61.4950 Z-3.0000 F3600.00
G1 X70.4950 Y-61.4950 Z-3.0000 F3600.00
G1 X70.0571 Y-61.0571 Z-3.0000 F3600.00
G1 X70.4950 Y-61.4950 Z-3.0000 F3600.00
G1 X70.4950 Y-63.0220 Z-3.0000 F3600.00
G1 X70.4950 Y-64.5050 Z-3.0000 F3600.00
G1 X70.0571 Y-64.9429 Z-3.0000 F3600.00
G1 X70.4950 Y-64.5050 Z-3.0000 F3600.00
G1 X70.5050 Y-64.5050 Z-3.0000 F3600.00
G1 X70.9429 Y-64.9429 Z-3.0000 F3600.00
G1 X70.5050 Y-64.5050 Z-3.0000 F3600.00
G1 X70.5050 Y-61.4950 Z-3.0000 F3600.00
G1 X70.9429 Y-61.0571 Z-3.0000 F3600.00
G1 X70.5050 Y-61.4950 Z-3.0000 F3600.00
G1 X70.5050 Y-61.4950 Z-4.0000 F3600.00
G1 X70.4950 Y-61.4950 Z-4.0000 F3600.00
G1 X70.0571 Y-61.0571 Z-4.0000 F3600.00
G1 X70.4950 Y-61.4950 Z-4.0000 F3600.00
G1 X70.4950 Y-64.5050 Z-4.0000 F3600.00
G1 X70.0571 Y-64.9429 Z-4.0000 F3600.00
G1 X70.4950 Y-64.5050 Z-4.0000 F3600.00
G1 X70.5050 Y-64.5050 Z-4.0000 F3600.00
G1 X70.9429 Y-64.9429 Z-4.0000 F3600.00
G1 X70.5050 Y-64.5050 Z-4.0000 F3600.00
G1 X70.5050 Y-61.4950 Z-4.0000 F3600.00
G1 X70.9429 Y-61.0571 Z-4.0000 F3600.00
G1 X70.5050 Y-61.4950 Z-4.0000 F3600.00
G1 X70.5050 Y-61.4950 Z-4.5000 F3600.00
G1 X70.4950 Y-61.4950 Z-4.5000 F3600.00
G1 X70.0571 Y-61.0571 Z-4.5000 F3600.00
G1 X70.4950 Y-61.4950 Z-4.5000 F3600.00
G1 X70.4950 Y-64.5050 Z-4.5000 F3600.00
G1 X70.0571 Y-64.9429 Z-4.5000 F3600.00
G1 X70.4950 Y-64.5050 Z-4.5000 F3600.00
G1 X70.5050 Y-64.5050 Z-4.5000 F3600.00
G1 X70.9429 Y-64.9429 Z-4.5000 F3600.00
G1 X70.5050 Y-64.5050 Z-4.5000 F3600.00
G1 X70.5050 Y-61.4950 Z-4.5000 F3600.00
G1 X70.9429 Y-61.0571 Z-4.5000 F3600.00
G1 X70.5050 Y-61.4950 Z-4.5000 F3600.00
G0 X70.5050 Y-61.4950 Z5.0000
(Block-name: block)
(Block-expand: 0)
(Block-enable: 1)
G0 X70.5050 Y-49.4950 Z5.0000
G0 X70.5050 Y-49.4950 Z3.0000
G1 X70.5050 Y-49.4950 Z-1.0000 F3600.00
G1 X70.4950 Y-49.4950 Z-1.0000 F3600.00
G1 X70.0571 Y-49.0571 Z-1.0000 F3600.00
G1 X70.4950 Y-49.4950 Z-1.0000 F3600.00
G1 X70.4950 Y-52.5050 Z-1.0000 F3600.00
G1 X70.0571 Y-52.9429 Z-1.0000 F3600.00
G1 X70.4950 Y-52.5050 Z-1.0000 F3600.00
G1 X70.5050 Y-52.5050 Z-1.0000 F3600.00
G1 X70.9429 Y-52.9429 Z-1.0000 F3600.00
G1 X70.5050 Y-52.5050 Z-1.0000 F3600.00
G1 X70.5050 Y-49.4950 Z-1.0000 F3600.00
G1 X70.9429 Y-49.0571 Z-1.0000 F3600.00
G1 X70.5050 Y-49.4950 Z-1.0000 F3600.00
G1 X70.5050 Y-49.4950 Z-2.0000 F3600.00
G1 X70.4950 Y-49.4950 Z-2.0000 F3600.00
G1 X70.0571 Y-49.0571 Z-2.0000 F3600.00
G1 X70.4950 Y-49.4950 Z-2.0000 F3600.00
G1 X70.4950 Y-52.5050 Z-2.0000 F3600.00
G1 X70.0571 Y-52.9429 Z-2.0000 F3600.00
G1 X70.4950 Y-52.5050 Z-2.0000 F3600.00
G1 X70.5050 Y-52.5050 Z-2.0000 F3600.00
G1 X70.9429 Y-52.9429 Z-2.0000 F3600.00
G1 X70.5050 Y-52.5050 Z-2.0000 F3600.00
G1 X70.5050 Y-49.4950 Z-2.0000 F3600.00
G1 X70.9429 Y-49.0571 Z-2.0000 F3600.00
G1 X70.5050 Y-49.4950 Z-2.0000 F3600.00
G1 X70.5050 Y-49.4950 Z-3.0000 F3600.00
G1 X70.4950 Y-49.4950 Z-3.0000 F3600.00
G1 X70.0571 Y-49.0571 Z-3.0000 F3600.00
G1 X70.4950 Y-49.4950 Z-3.0000 F3600.00
G1 X70.4950 Y-52.5050 Z-3.0000 F3600.00
G1 X70.0571 Y-52.9429 Z-3.0000 F3600.00
G1 X70.4950 Y-52.5050 Z-3.0000 F3600.00
G1 X70.5050 Y-52.5050 Z-3.0000 F3600.00
G1 X70.9429 Y-52.9429 Z-3.0000 F3600.00
G1 X70.5050 Y-52.5050 Z-3.0000 F3600.00
G1 X70.5050 Y-49.4950 Z-3.0000 F3600.00
G1 X70.9429 Y-49.0571 Z-3.0000 F3600.00
G1 X70.5050 Y-49.4950 Z-3.0000 F3600.00
G1 X70.5050 Y-49.4950 Z-4.0000 F3600.00
G1 X70.4950 Y-49.4950 Z-4.0000 F3600.00
G1 X70.0571 Y-49.0571 Z-4.0000 F3600.00
G1 X70.4950 Y-49.4950 Z-4.0000 F3600.00
G1 X70.4950 Y-52.5050 Z-4.0000 F3600.00
G1 X70.0571 Y-52.9429 Z-4.0000 F3600.00
G1 X70.4950 Y-52.5050 Z-4.0000 F3600.00
G1 X70.5050 Y-52.5050 Z-4.0000 F3600.00
G1 X70.9429 Y-52.9429 Z-4.0000 F3600.00
G1 X70.5050 Y-52.5050 Z-4.0000 F3600.00
G1 X70.5050 Y-49.4950 Z-4.0000 F3600.00
G1 X70.9429 Y-49.0571 Z-4.0000 F3600.00
G1 X70.5050 Y-49.4950 Z-4.0000 F3600.00
G1 X70.5050 Y-49.4950 Z-4.5000 F3600.00
G1 X70.4950 Y-49.4950 Z-4.5000 F3600.00
G1 X70.0571 Y-49.0571 Z-4.5000 F3600.00
G1 X70.4950 Y-49.4950 Z-4.5000 F3600.00
G1 X70.4950 Y-52.5050 Z-4.5000 F3600.00
G1 X70.0571 Y-52.9429 Z-4.5000 F3600.00
G1 X70.4950 Y-52.5050 Z-4.5000 F3600.00
G1 X70.5050 Y-52.5050 Z-4.5000 F3600.00
G1 X70.9429 Y-52.9429 Z-4.5000 F3600.00
G1 X70.5050 Y-52.5050 Z-4.5000 F3600.00
G1 X70.5050 Y-49.4950 Z-4.5000 F3600.00
G1 X70.9429 Y-49.0571 Z-4.5000 F3600.00
G1 X70.5050 Y-49.4950 Z-4.5000 F3600.00
G0 X70.5050 Y-49.4950 Z5.0000
(Block-name: block)
(Block-expand: 0)
(Block-enable: 1)
G0 X70.5050 Y-37.4950 Z5.0000
G0 X70.5050 Y-37.4950 Z3.0000
G1 X70.5050 Y-37.4950 Z-1.0000 F3600.00
G1 X70.4950 Y-37.4950 Z-1.0000 F3600.00
G1 X70.0571 Y-37.0571 Z-1.0000 F3600.00
G1 X70.4950 Y-37.4950 Z-1.0000 F3600.00
G1 X70.4950 Y-40.5050 Z-1.0000 F3600.00
G1 X70.0571 Y-40.9429 Z-1.0000 F3600.00
G1 X70.4950 Y-40.5050 Z-1.0000 F3600.00
G1 X70.5050 Y-40.5050 Z-1.0000 F3600.00
G1 X70.9429 Y-40.9429 Z-1.0000 F3600.00
G1 X70.5050 Y-40.5050 Z-1.0000 F3600.00
G1 X70.5050 Y-37.4950 Z-1.0000 F3600.00
G1 X70.9429 Y-37.0571 Z-1.0000 F3600.00
G1 X70.5050 Y-37.4950 Z-1.0000 F3600.00
G1 X70.5050 Y-37.4950 Z-2.0000 F3600.00
G1 X70.4950 Y-37.4950 Z-2.0000 F3600.00
G1 X70.0571 Y-37.0571 Z-2.0000 F3600.00
G1 X70.4950 Y-37.4950 Z-2.0000 F3600.00
G1 X70.4950 Y-40.5050 Z-2.0000 F3600.00
G1 X70.0571 Y-40.9429 Z-2.0000 F3600.00
G1 X70.4950 Y-40.5050 Z-2.0000 F3600.00
G1 X70.5050 Y-40.5050 Z-2.0000 F3600.00
G1 X70.9429 Y-40.9429 Z-2.0000 F3600.00
G1 X70.5050 Y-40.5050 Z-2.0000 F3600.00
G1 X70.5050 Y-37.4950 Z-2.0000 F3600.00
G1 X70.9429 Y-37.0571 Z-2.0000 F3600.00
G1 X70.5050 Y-37.4950 Z-2.0000 F3600.00
G1 X70.5050 Y-37.4950 Z-3.0000 F3600.00
G1 X70.4950 Y-37.4950 Z-3.0000 F3600.00
G1 X70.0571 Y-37.0571 Z-3.0000 F3600.00
G1 X70.4950 Y-37.4950 Z-3.0000 F3600.00
G1 X70.4950 Y-40.5050 Z-3.0000 F3600.00
G1 X70.0571 Y-40.9429 Z-3.0000 F3600.00
G1 X70.4950 Y-40.5050 Z-3.0000 F3600.00
G1 X70.5050 Y-40.5050 Z-3.0000 F3600.00
G1 X70.9429 Y-40.9429 Z-3.0000 F3600.00
G1 X70.5050 Y-40.5050 Z-3.0000 F3600.00
G1 X70.5050 Y-37.4950 Z-3.0000 F3600.00
G1 X70.9429 Y-37.0571 Z-3.0000 F3600.00
G1 X70.5050 Y-37.4950 Z-3.0000 F3600.00
G1 X70.5050 Y-37.4950 Z-4.0000 F3600.00
G1 X70.4950 Y-37.4950 Z-4.0000 F3600.00
G1 X70.0571 Y-37.0571 Z-4.0000 F3600.00
G1 X70.4950 Y-37.4950 Z-4.0000 F3600.00
G1 X70.4950 Y-40.5050 Z-4.0000 F3600.00
G1 X70.0571 Y-40.9429 Z-4.0000 F3600.00
G1 X70.4950 Y-40.5050 Z-4.0000 F3600.00
G1 X70.5050 Y-40.5050 Z-4.0000 F3600.00
G1 X70.9429 Y-40.9429 Z-4.0000 F3600.00
G1 X70.5050 Y-40.5050 Z-4.0000 F3600.00
G1 X70.5050 Y-37.4950 Z-4.0000 F3600.00
G1 X70.9429 Y-37.0571 Z-4.0000 F3600.00
G1 X70.5050 Y-37.4950 Z-4.0000 F3600.00
G1 X70.5050 Y-37.4950 Z-4.5000 F3600.00
G1 X70.4950 Y-37.4950 Z-4.5000 F3600.00
G1 X70.0571 Y-37.0571 Z-4.5000 F3600.00
G1 X70.4950 Y-37.4950 Z-4.5000 F3600.00
G1 X70.4950 Y-40.5050 Z-4.5000 F3600.00
G1 X70.0571 Y-40.9429 Z-4.5000 F3600.00
G1 X70.4950 Y-40.5050 Z-4.5000 F3600.00
G1 X70.5050 Y-40.5050 Z-4.5000 F3600.00
G1 X70.9429 Y-40.9429 Z-4.5000 F3600.00
G1 X70.5050 Y-40.5050 Z-4.5000 F3600.00
G1 X70.5050 Y-37.4950 Z-4.5000 F3600.00
G1 X70.9429 Y-37.0571 Z-4.5000 F3600.00
G1 X70.5050 Y-37.4950 Z-4.5000 F3600.00
G0 X70.5050 Y-37.4950 Z5.0000
(Block-name: block)
(Block-expand: 0)
(Block-enable: 1)
G0 X70.5050 Y-25.4950 Z5.0000
G0 X70.5050 Y-25.4950 Z3.0000
G1 X70.5050 Y-25.4950 Z-1.0000 F3600.00
G1 X70.4950 Y-25.4950 Z-1.0000 F3600.00
G1 X70.0571 Y-25.0571 Z-1.0000 F3600.00
G1 X70.4950 Y-25.4950 Z-1.0000 F3600.00
G1 X70.4950 Y-28.5050 Z-1.0000 F3600.00
G1 X70.0571 Y-28.9429 Z-1.0000 F3600.00
G1 X70.4950 Y-28.5050 Z-1.0000 F3600.00
G1 X70.5050 Y-28.5050 Z-1.0000 F3600.00
G1 X70.9429 Y-28.9429 Z-1.0000 F3600.00
G1 X70.5050 Y-28.5050 Z-1.0000 F3600.00
G1 X70.5050 Y-25.4950 Z-1.0000 F3600.00
G1 X70.9429 Y-25.0571 Z-1.0000 F3600.00
G1 X70.5050 Y-25.4950 Z-1.0000 F3600.00
G1 X70.5050 Y-25.4950 Z-2.0000 F3600.00
G1 X70.4950 Y-25.4950 Z-2.0000 F3600.00
G1 X70.0571 Y-25.0571 Z-2.0000 F3600.00
G1 X70.4950 Y-25.4950 Z-2.0000 F3600.00
G1 X70.4950 Y-28.5050 Z-2.0000 F3600.00
G1 X70.0571 Y-28.9429 Z-2.0000 F3600.00
G1 X70.4950 Y-28.5050 Z-2.0000 F3600.00
G1 X70.5050 Y-28.5050 Z-2.0000 F3600.00
G1 X70.9429 Y-28.9429 Z-2.0000 F3600.00
G1 X70.5050 Y-28.5050 Z-2.0000 F3600.00
G1 X70.5050 Y-25.4950 Z-2.0000 F3600.00
G1 X70.9429 Y-25.0571 Z-2.0000 F3600.00
G1 X70.5050 Y-25.4950 Z-2.0000 F3600.00
G1 X70.5050 Y-25.4950 Z-3.0000 F3600.00
G1 X70.4950 Y-25.4950 Z-3.0000 F3600.00
G1 X70.0571 Y-25.0571 Z-3.0000 F3600.00
G1 X70.4950 Y-25.4950 Z-3.0000 F3600.00
G1 X70.4950 Y-28.5050 Z-3.0000 F3600.00
G1 X70.0571 Y-28.9429 Z-3.0000 F3600.00
G1 X70.4950 Y-28.5050 Z-3.0000 F3600.00
G1 X70.5050 Y-28.5050 Z-3.0000 F3600.00
G1 X70.9429 Y-28.9429 Z-3.0000 F3600.00
G1 X70.5050 Y-28.5050 Z-3.0000 F3600.00
G1 X70.5050 Y-25.4950 Z-3.0000 F3600.00
G1 X70.9429 Y-25.0571 Z-3.0000 F3600.00
G1 X70.5050 Y-25.4950 Z-3.0000 F3600.00
G1 X70.5050 Y-25.4950 Z-4.0000 F3600.00
G1 X70.4950 Y-25.4950 Z-4.0000 F3600.00
G1 X70.0571 Y-25.0571 Z-4.0000 F3600.00
G1 X70.4950 Y-25.4950 Z-4.0000 F3600.00
G1 X70.4950 Y-28.5050 Z-4.0000 F3600.00
G1 X70.0571 Y-28.9429 Z-4.0000 F3600.00
G1 X70.4950 Y-28.5050 Z-4.0000 F3600.00
G1 X70.5050 Y-28.5050 Z-4.0000 F3600.00
G1 X70.9429 Y-28.9429 Z-4.0000 F3600.00
G1 X70.5050 Y-28.5050 Z-4.0000 F3600.00
G1 X70.5050 Y-25.4950 Z-4.0000 F3600.00
G1 X70.9429 Y-25.0571 Z-4.0000 F3600.00
G1 X70.5050 Y-25.4950 Z-4.0000 F3600.00
G1 X70.5050 Y-25.4950 Z-4.5000 F3600.00
G1 X70.4950 Y-25.4950 Z-4.5000 F3600.00
G1 X70.0571 Y-25.0571 Z-4.5000 F3600.00
G1 X70.4950 Y-25.4950 Z-4.5000 F3600.00
G1 X70.4950 Y-28.5050 Z-4.5000 F3600.00
G1 X70.0571 Y-28.9429 Z-4.5000 F3600.00
G1 X70.4950 Y-28.5050 Z-4.5000 F3600.00
G1 X70.5050 Y-28.5050 Z-4.5000 F3600.00
G1 X70.9429 Y-28.9429 Z-4.5000 F3600.00
G1 X70.5050 Y-28.5050 Z-4.5000 F3600.00
G1 X70.5050 Y-25.4950 Z-4.5000 F3600.00
G1 X70.9429 Y-25.0571 Z-4.5000 F3600.00
G1 X70.5050 Y-25.4950 Z-4.5000 F3600.00
G0 X70.5050 Y-25.4950 Z5.0000
(Block-name: block)
(Block-expand: 0)
(Block-enable: 1)
G0 X70.5050 Y-13.4950 Z5.0000
G0 X70.5050 Y-13.4950 Z3.0000
G1 X70.5050 Y-13.4950 Z-1.0000 F3600.00
G1 X70.4950 Y-13.4950 Z-1.0000 F3600.00
G1 X70.0571 Y-13.0571 Z-1.0000 F3600.00
G1 X70.4950 Y-13.4950 Z-1.0000 F3600.00
G1 X70.4950 Y-16.5050 Z-1.0000 F3600.00
G1 X70.0571 Y-16.9429 Z-1.0000 F3600.00
G1 X70.4950 Y-16.5050 Z-1.0000 F3600.00
G1 X70.5050 Y-16.5050 Z-1.0000 F3600.00
G1 X70.9429 Y-16.9429 Z-1.0000 F3600.00
G1 X70.5050 Y-16.5050 Z-1.0000 F3600.00
G1 X70.5050 Y-13.4950 Z-1.0000 F3600.00
G1 X70.9429 Y-13.0571 Z-1.0000 F3600.00
G1 X70.5050 Y-13.4950 Z-1.0000 F3600.00
G1 X70.5050 Y-13.4950 Z-2.0000 F3600.00
G1 X70.4950 Y-13.4950 Z-2.0000 F3600.00
G1 X70.0571 Y-13.0571 Z-2.0000 F3600.00
G1 X70.4950 Y-13.4950 Z-2.0000 F3600.00
G1 X70.4950 Y-16.5050 Z-2.0000 F3600.00
G1 X70.0571 Y-16.9429 Z-2.0000 F3600.00
G1 X70.4950 Y-16.5050 Z-2.0000 F3600.00
G1 X70.5050 Y-16.5050 Z-2.0000 F3600.00
G1 X70.9429 Y-16.9429 Z-2.0000 F3600.00
G1 X70.5050 Y-16.5050 Z-2.0000 F3600.00
G1 X70.5050 Y-13.4950 Z-2.0000 F3600.00
G1 X70.9429 Y-13.0571 Z-2.0000 F3600.00
G1 X70.5050 Y-13.4950 Z-2.0000 F3600.00
G1 X70.5050 Y-13.4950 Z-3.0000 F3600.00
G1 X70.4950 Y-13.4950 Z-3.0000 F3600.00
G1 X70.0571 Y-13.0571 Z-3.0000 F3600.00
G1 X70.4950 Y-13.4950 Z-3.0000 F3600.00
G1 X70.4950 Y-16.5050 Z-3.0000 F3600.00
G1 X70.0571 Y-16.9429 Z-3.0000 F3600.00
G1 X70.4950 Y-16.5050 Z-3.0000 F3600.00
G1 X70.5050 Y-16.5050 Z-3.0000 F3600.00
G1 X70.9429 Y-16.9429 Z-3.0000 F3600.00
G1 X70.5050 Y-16.5050 Z-3.0000 F3600.00
G1 X70.5050 Y-13.4950 Z-3.0000 F3600.00
G1 X70.9429 Y-13.0571 Z-3.0000 F3600.00
G1 X70.5050 Y-13.4950 Z-3.0000 F3600.00
G1 X70.5050 Y-13.4950 Z-4.0000 F3600.00
G1 X70.4950 Y-13.4950 Z-4.0000 F3600.00
G1 X70.0571 Y-13.0571 Z-4.0000 F3600.00
G1 X70.4950 Y-13.4950 Z-4.0000 F3600.00
G1 X70.4950 Y-16.5050 Z-4.0000 F3600.00
G1 X70.0571 Y-16.9429 Z-4.0000 F3600.00
G1 X70.4950 Y-16.5050 Z-4.0000 F3600.00
G1 X70.5050 Y-16.5050 Z-4.0000 F3600.00
G1 X70.9429 Y-16.9429 Z-4.0000 F3600.00
G1 X70.5050 Y-16.5050 Z-4.0000 F3600.00
G1 X70.5050 Y-13.4950 Z-4.0000 F3600.00
G1 X70.9429 Y-13.0571 Z-4.0000 F3600.00
G1 X70.5050 Y-13.4950 Z-4.0000 F3600.00
G1 X70.5050 Y-13.4950 Z-4.5000 F3600.00
G1 X70.4950 Y-13.4950 Z-4.5000 F3600.00
G1 X70.0571 Y-13.0571 Z-4.5000 F3600.00
G1 X70.4950 Y-13.4950 Z-4.5000 F3600.00
G1 X70.4950 Y-16.5050 Z-4.5000 F3600.00
G1 X70.0571 Y-16.9429 Z-4.5000 F3600.00
G1 X70.4950 Y-16.5050 Z-4.5000 F3600.00
G1 X70.5050 Y-16.5050 Z-4.5000 F3600.00
G1 X70.9429 Y-16.9429 Z-4.5000 F3600.00
G1 X70.5050 Y-16.5050 Z-4.5000 F3600.00
G1 X70.5050 Y-13.4950 Z-4.5000 F3600.00
G1 X70.9429 Y-13.0571 Z-4.5000 F3600.00
G1 X70.5050 Y-13.4950 Z-4.5000 F3600.00
G0 X70.5050 Y-13.4950 Z5.0000
(Block-name: block)
(Block-expand: 0)
(Block-enable: 1)
G0 X70.5050 Y-1.4950 Z5.0000
G0 X70.5050 Y-1.4950 Z3.0000
G1 X70.5050 Y-1.4950 Z-1.0000 F3600.00
G1 X70.4950 Y-1.4950 Z-1.0000 F3600.00
G1 X70.0571 Y-1.0571 Z-1.0000 F3600.00
G1 X70.4950 Y-1.4950 Z-1.0000 F3600.00
G1 X70.4950 Y-4.5050 Z-1.0000 F3600.00
G1 X70.0571 Y-4.9429 Z-1.0000 F3600.00
G1 X70.4950 Y-4.5050 Z-1.0000 F3600.00
G1 X70.5050 Y-4.5050 Z-1.0000 F3600.00
G1 X70.9429 Y-4.9429 Z-1.0000 F3600.00
G1 X70.5050 Y-4.5050 Z-1.0000 F3600.00
G1 X70.5050 Y-1.4950 Z-1.0000 F3600.00
G1 X70.9429 Y-1.0571 Z-1.0000 F3600.00
G1 X70.5050 Y-1.4950 Z-1.0000 F3600.00
G1 X70.5050 Y-1.4950 Z-2.0000 F3600.00
G1 X70.4950 Y-1.4950 Z-2.0000 F3600.00
G1 X70.0571 Y-1.0571 Z-2.0000 F3600.00
G1 X70.4950 Y-1.4950 Z-2.0000 F3600.00
G1 X70.4950 Y-4.5050 Z-2.0000 F3600.00
G1 X70.0571 Y-4.9429 Z-2.0000 F3600.00
G1 X70.4950 Y-4.5050 Z-2.0000 F3600.00
G1 X70.5050 Y-4.5050 Z-2.0000 F3600.00
G1 X70.9429 Y-4.9429 Z-2.0000 F3600.00
G1 X70.5050 Y-4.5050 Z-2.0000 F3600.00
G1 X70.5050 Y-1.4950 Z-2.0000 F3600.00
G1 X70.7004 Y-1.2996 Z-2.0000 F3600.00
G1 X70.9429 Y-1.0571 Z-1.6766 F3600.00
G1 X70.5050 Y-1.4950 Z-2.0000 F3600.00
G1 X70.5050 Y-1.4950 Z-2.2620 F3600.00
G1 X70.5050 Y-1.4950 Z-3.0000 F3600.00
G1 X70.4950 Y-1.4950 Z-3.0000 F3600.00
G1 X70.0571 Y-1.0571 Z-3.0000 F3600.00
G1 X70.4950 Y-1.4950 Z-3.0000 F3600.00
G1 X70.4950 Y-2.8820 Z-3.0000 F3600.00
G1 X70.4950 Y-4.5050 Z-3.0000 F3600.00
G1 X70.0571 Y-4.9429 Z-3.0000 F3600.00
G1 X70.4950 Y-4.5050 Z-3.0000 F3600.00
G1 X70.5050 Y-4.5050 Z-3.0000 F3600.00
G1 X70.9429 Y-4.9429 Z-3.0000 F3600.00
G1 X70.5050 Y-4.5050 Z-3.0000 F3600.00
G1 X70.5050 Y-1.4950 Z-3.0000 F3600.00
G1 X70.9429 Y-1.0571 Z-3.0000 F3600.00
G1 X70.5050 Y-1.4950 Z-3.0000 F3600.00
G1 X70.5050 Y-1.4950 Z-4.0000 F3600.00
G1 X70.4950 Y-1.4950 Z-4.0000 F3600.00
G1 X70.0571 Y-1.0571 Z-4.0000 F3600.00
G1 X70.4950 Y-1.4950 Z-4.0000 F3600.00
G1 X70.4950 Y-4.5050 Z-4.0000 F3600.00
G1 X70.0571 Y-4.9429 Z-4.0000 F3600.00
G1 X70.4950 Y-4.5050 Z-4.0000 F3600.00
G1 X70.5050 Y-4.5050 Z-4.0000 F3600.00
G1 X70.9429 Y-4.9429 Z-4.0000 F3600.00
G1 X70.5050 Y-4.5050 Z-4.0000 F3600.00
G1 X70.5050 Y-1.4950 Z-4.0000 F3600.00
G1 X70.9429 Y-1.0571 Z-4.0000 F3600.00
G1 X70.5050 Y-1.4950 Z-4.0000 F3600.00
G1 X70.5050 Y-1.4950 Z-4.5000 F3600.00
G1 X70.4950 Y-1.4950 Z-4.5000 F3600.00
G1 X70.0571 Y-1.0571 Z-4.5000 F3600.00
G1 X70.4950 Y-1.4950 Z-4.5000 F3600.00
G1 X70.4950 Y-4.5050 Z-4.5000 F3600.00
G1 X70.0571 Y-4.9429 Z-4.5000 F3600.00
G1 X70.4950 Y-4.5050 Z-4.5000 F3600.00
G1 X70.5050 Y-4.5050 Z-4.5000 F3600.00
G1 X70.9429 Y-4.9429 Z-4.5000 F3600.00
G1 X70.5050 Y-4.5050 Z-4.5000 F3600.00
G1 X70.5050 Y-1.4950 Z-4.5000 F3600.00
G1 X70.9429 Y-1.0571 Z-4.5000 F3600.00
G1 X70.5050 Y-1.4950 Z-4.5000 F3600.00
G0 X70.5050 Y-1.4950 Z5.0000
(Block-name: block)
(Block-expand: 0)
(Block-enable: 1)
G0 X70.5050 Y10.5050 Z5.0000
G0 X70.5050 Y10.5050 Z3.0000
G1 X70.5050 Y10.5050 Z-1.0000 F3600.00
G1 X70.4950 Y10.5050 Z-1.0000 F3600.00
G1 X70.0571 Y10.9429 Z-1.0000 F3600.00
G1 X70.4950 Y10.5050 Z-1.0000 F3600.00
G1 X70.4950 Y7.4950 Z-1.0000 F3600.00
G1 X70.0571 Y7.0571 Z-1.0000 F3600.00
G1 X70.4950 Y7.4950 Z-1.0000 F3600.00
G1 X70.5050 Y7.4950 Z-1.0000 F3600.00
G1 X70.9429 Y7.0571 Z-1.0000 F3600.00
G1 X70.5050 Y7.4950 Z-1.0000 F3600.00
G1 X70.5050 Y10.5050 Z-1.0000 F3600.00
G1 X70.9429 Y10.9429 Z-1.0000 F3600.00
G1 X70.5050 Y10.5050 Z-1.0000 F3600.00
G1 X70.5050 Y10.5050 Z-2.0000 F3600.00
G1 X70.4950 Y10.5050 Z-2.0000 F3600.00
G1 X70.0571 Y10.9429 Z-2.0000 F3600.00
G1 X70.4950 Y10.5050 Z-2.0000 F3600.00
G1 X70.4950 Y7.4950 Z-2.0000 F3600.00
G1 X70.0571 Y7.0571 Z-2.0000 F3600.00
G1 X70.4950 Y7.4950 Z-2.0000 F3600.00
G1 X70.5050 Y7.4950 Z-2.0000 F3600.00
G1 X70.9429 Y7.0571 Z-2.0000 F3600.00
G1 X70.5050 Y7.4950 Z-2.0000 F3600.00
G1 X70.5050 Y10.5050 Z-2.0000 F3600.00
G1 X70.9429 Y10.9429 Z-2.0000 F3600.00
G1 X70.5050 Y10.5050 Z-2.0000 F3600.00
G1 X70.5050 Y10.5050 Z-3.0000 F3600.00
G1 X70.4950 Y10.5050 Z-3.0000 F3600.00
G1 X70.0571 Y10.9429 Z-3.0000 F3600.00
G1 X70.4950 Y10.5050 Z-3.0000 F3600.00
G1 X70.4950 Y7.4950 Z-3.0000 F3600.00
G1 X70.0571 Y7.0571 Z-3.0000 F3600.00
G1 X70.4950 Y7.4950 Z-3.0000 F3600.00
G1 X70.5050 Y7.4950 Z-3.0000 F3600.00
G1 X70.9429 Y7.0571 Z-3.0000 F3600.00
G1 X70.5050 Y7.4950 Z-3.0000 F3600.00
G1 X70.5050 Y10.5050 Z-3.0000 F3600.00
G1 X70.9429 Y10.9429 Z-3.0000 F3600.00
G1 X70.5050 Y10.5050 Z-3.0000 F3600.00
G1 X70.5050 Y10.5050 Z-4.0000 F3600.00
G1 X70.4950 Y10.5050 Z-4.0000 F3600.00
G1 X70.0571 Y10.9429 Z-4.0000 F3600.00
G1 X70.4950 Y10.5050 Z-4.0000 F3600.00
G1 X70.4950 Y7.4950 Z-4.0000 F3600.00
G1 X70.0571 Y7.0571 Z-4.0000 F3600.00
G1 X70.4950 Y7.4950 Z-4.0000 F3600.00
G1 X70.5050 Y7.4950 Z-4.0000 F3600.00
G1 X70.9429 Y7.0571 Z-4.0000 F3600.00
G1 X70.5050 Y7.4950 Z-4.0000 F3600.00
G1 X70.5050 Y10.5050 Z-4.0000 F3600.00
G1 X70.9429 Y10.9429 Z-4.0000 F3600.00
G1 X70.5050 Y10.5050 Z-4.0000 F3600.00
G1 X70.5050 Y10.5050 Z-4.5000 F3600.00
G1 X70.4950 Y10.5050 Z-4.5000 F3600.00
G1 X70.0571 Y10.9429 Z-4.5000 F3600.00
G1 X70.4950 Y10.5050 Z-4.5000 F3600.00
G1 X70.4950 Y7.4950 Z-4.5000 F3600.00
G1 X70.0571 Y7.0571 Z-4.5000 F3600.00
G1 X70.4950 Y7.4950 Z-4.5000 F3600.00
G1 X70.5050 Y7.4950 Z-4.5000 F3600.00
G1 X70.9429 Y7.0571 Z-4.5000 F3600.00
G1 X70.5050 Y7.4950 Z-4.5000 F3600.00
G1 X70.5050 Y10.5050 Z-4.5000 F3600.00
G1 X70.9429 Y10.9429 Z-4.5000 F3600.00
G1 X70.5050 Y10.5050 Z-4.5000 F3600.00
G0 X70.5050 Y10.5050 Z5.0000
(Block-name: block)
(Block-expand: 0)
(Block-enable: 1)
G0 X70.5050 Y58.5050 Z5.0000
G0 X70.5050 Y58.5050 Z3.0000
G1 X70.5050 Y58.5050 Z-1.0000 F3600.00
G1 X70.4950 Y58.5050 Z-1.0000 F3600.00
G1 X70.0571 Y58.9429 Z-1.0000 F3600.00
G1 X70.4950 Y58.5050 Z-1.0000 F3600.00
G1 X70.4950 Y55.4950 Z-1.0000 F3600.00
G1 X70.0571 Y55.0571 Z-1.0000 F3600.00
G1 X70.4950 Y55.4950 Z-1.0000 F3600.00
G1 X70.5050 Y55.4950 Z-1.0000 F3600.00
G1 X70.9429 Y55.0571 Z-1.0000 F3600.00
G1 X70.5050 Y55.4950 Z-1.0000 F3600.00
G1 X70.5050 Y58.5050 Z-1.0000 F3600.00
G1 X70.9429 Y58.9429 Z-1.0000 F3600.00
G1 X70.5050 Y58.5050 Z-1.0000 F3600.00
G1 X70.5050 Y58.5050 Z-1.8735 F3600.00
G1 X70.4950 Y58.5050 Z-1.8829 F3600.00
G1 X70.4029 Y58.5971 Z-2.0000 F3600.00
G1 X70.0571 Y58.9429 Z-2.0000 F3600.00
G1 X70.4029 Y58.5971 Z-2.0000 F3600.00
G1 X70.4950 Y58.5050 Z-1.8829 F3600.00
G1 X70.4950 Y57.9961 Z-1.7384 F3600.00
G1 X70.4950 Y57.4973 Z-1.6347 F3600.00
G1 X70.4950 Y56.8305 Z-1.5583 F3600.00
G1 X70.4950 Y56.1685 Z-1.5551 F3600.00
G1 X70.4950 Y55.4950 Z-1.6261 F3600.00
G1 X70.1739 Y55.1739 Z-2.0000 F3600.00
G1 X70.0571 Y55.0571 Z-2.0000 F3600.00
G1 X70.1739 Y55.1739 Z-2.0000 F3600.00
G1 X70.4950 Y55.4950 Z-2.0000 F3600.00
G1 X70.5050 Y55.4950 Z-2.0000 F3600.00
G1 X70.9429 Y55.0571 Z-2.0000 F3600.00
G1 X70.5050 Y55.4950 Z-2.0000 F3600.00
G1 X70.5050 Y58.5050 Z-2.0000 F3600.00
G1 X70.9429 Y58.9429 Z-2.0000 F3600.00
G1 X70.5050 Y58.5050 Z-2.0000 F3600.00
G1 X70.5050 Y58.5050 Z-3.0000 F3600.00
G1 X70.4950 Y58.5050 Z-3.0000 F3600.00
G1 X70.0571 Y58.9429 Z-3.0000 F3600.00
G1 X70.4950 Y58.5050 Z-3.0000 F3600.00
G1 X70.4950 Y55.4950 Z-3.0000 F3600.00
G1 X70.0571 Y55.0571 Z-3.0000 F3600.00
G1 X70.4950 Y55.4950 Z-3.0000 F3600.00
G1 X70.5050 Y55.4950 Z-3.0000 F3600.00
G1 X70.9429 Y55.0571 Z-3.0000 F3600.00
G1 X70.5050 Y55.4950 Z-3.0000 F3600.00
G1 X70.5050 Y58.5050 Z-3.0000 F3600.00
G1 X70.9429 Y58.9429 Z-3.0000 F3600.00
G1 X70.5050 Y58.5050 Z-3.0000 F3600.00
G1 X70.5050 Y58.5050 Z-4.0000 F3600.00
G1 X70.4950 Y58.5050 Z-4.0000 F3600.00
G1 X70.0571 Y58.9429 Z-4.0000 F3600.00
G1 X70.4950 Y58.5050 Z-4.0000 F3600.00
G1 X70.4950 Y55.4950 Z-4.0000 F3600.00
G1 X70.0571 Y55.0571 Z-4.0000 F3600.00
G1 X70.4950 Y55.4950 Z-4.0000 F3600.00
G1 X70.5050 Y55.4950 Z-4.0000 F3600.00
G1 X70.9429 Y55.0571 Z-4.0000 F3600.00
G1 X70.5050 Y55.4950 Z-4.0000 F3600.00
G1 X70.5050 Y58.5050 Z-4.0000 F3600.00
G1 X70.9429 Y58.9429 Z-4.0000 F3600.00
G1 X70.5050 Y58.5050 Z-4.0000 F3600.00
G1 X70.5050 Y58.5050 Z-4.5000 F3600.00
G1 X70.4950 Y58.5050 Z-4.5000 F3600.00
G1 X70.0571 Y58.9429 Z-4.5000 F3600.00
G1 X70.4950 Y58.5050 Z-4.5000 F3600.00
G1 X70.4950 Y55.4950 Z-4.5000 F3600.00
G1 X70.0571 Y55.0571 Z-4.5000 F3600.00
G1 X70.4950 Y55.4950 Z-4.5000 F3600.00
G1 X70.5050 Y55.4950 Z-4.5000 F3600.00
G1 X70.9429 Y55.0571 Z-4.5000 F3600.00
G1 X70.5050 Y55.4950 Z-4.5000 F3600.00
G1 X70.5050 Y58.5050 Z-4.5000 F3600.00
G1 X70.9429 Y58.9429 Z-4.5000 F3600.00
G1 X70.5050 Y58.5050 Z-4.5000 F3600.00
G1 X70.5050 Y58.5050 Z-1.8735 F3600.00
G1 X70.5050 Y58.5050 Z5.0000 F3600.00
G0 X70.5050 Y22.5050 Z5.0000
G0 X70.5050 Y22.5050 Z3.0000
G1 X70.5050 Y22.5050 Z-1.0000 F3600.00
G1 X70.4950 Y22.5050 Z-1.0000 F3600.00
G1 X70.0571 Y22.9429 Z-1.0000 F3600.00
G1 X70.4950 Y22.5050 Z-1.0000 F3600.00
G1 X70.4950 Y19.4950 Z-1.0000 F3600.00
G1 X70.0571 Y19.0571 Z-1.0000 F3600.00
G1 X70.4950 Y19.4950 Z-1.0000 F3600.00
G1 X70.5050 Y19.4950 Z-1.0000 F3600.00
G1 X70.9429 Y19.0571 Z-1.0000 F3600.00
G1 X70.5050 Y19.4950 Z-1.0000 F3600.00
G1 X70.5050 Y22.5050 Z-1.0000 F3600.00
G1 X70.9429 Y22.9429 Z-1.0000 F3600.00
G1 X70.5050 Y22.5050 Z-1.0000 F3600.00
G1 X70.5050 Y22.5050 Z-2.0000 F3600.00
G1 X70.4950 Y22.5050 Z-2.0000 F3600.00
G1 X70.0571 Y22.9429 Z-2.0000 F3600.00
G1 X70.4950 Y22.5050 Z-2.0000 F3600.00
G1 X70.4950 Y19.4950 Z-2.0000 F3600.00
G1 X70.0571 Y19.0571 Z-2.0000 F3600.00
G1 X70.4950 Y19.4950 Z-2.0000 F3600.00
G1 X70.5050 Y19.4950 Z-2.0000 F3600.00
G1 X70.9429 Y19.0571 Z-2.0000 F3600.00
G1 X70.5050 Y19.4950 Z-2.0000 F3600.00
G1 X70.5050 Y22.5050 Z-2.0000 F3600.00
G1 X70.9429 Y22.9429 Z-2.0000 F3600.00
G1 X70.5050 Y22.5050 Z-2.0000 F3600.00
G1 X70.5050 Y22.5050 Z-3.0000 F3600.00
G1 X70.4950 Y22.5050 Z-3.0000 F3600.00
G1 X70.0571 Y22.9429 Z-3.0000 F3600.00
G1 X70.4950 Y22.5050 Z-3.0000 F3600.00
G1 X70.4950 Y19.4950 Z-3.0000 F3600.00
G1 X70.0571 Y19.0571 Z-3.0000 F3600.00
G1 X70.4950 Y19.4950 Z-3.0000 F3600.00
G1 X70.5050 Y19.4950 Z-3.0000 F3600.00
G1 X70.9429 Y19.0571 Z-3.0000 F3600.00
G1 X70.5050 Y19.4950 Z-3.0000 F3600.00
G1 X70.5050 Y22.5050 Z-3.0000 F3600.00
G1 X70.9429 Y22.9429 Z-3.0000 F3600.00
G1 X70.5050 Y22.5050 Z-3.0000 F3600.00
G1 X70.5050 Y22.5050 Z-4.0000 F3600.00
G1 X70.4950 Y22.5050 Z-4.0000 F3600.00
G1 X70.0571 Y22.9429 Z-4.0000 F3600.00
G1 X70.4950 Y22.5050 Z-4.0000 F3600.00
G1 X70.4950 Y19.4950 Z-4.0000 F3600.00
G1 X70.0571 Y19.0571 Z-4.0000 F3600.00
G1 X70.4950 Y19.4950 Z-4.0000 F3600.00
G1 X70.5050 Y19.4950 Z-4.0000 F3600.00
G1 X70.9429 Y19.0571 Z-4.0000 F3600.00
G1 X70.5050 Y19.4950 Z-4.0000 F3600.00
G1 X70.5050 Y22.5050 Z-4.0000 F3600.00
G1 X70.9429 Y22.9429 Z-4.0000 F3600.00
G1 X70.5050 Y22.5050 Z-4.0000 F3600.00
G1 X70.5050 Y22.5050 Z-4.5000 F3600.00
G1 X70.4950 Y22.5050 Z-4.5000 F3600.00
G1 X70.0571 Y22.9429 Z-4.5000 F3600.00
G1 X70.4950 Y22.5050 Z-4.5000 F3600.00
G1 X70.4950 Y19.4950 Z-4.5000 F3600.00
G1 X70.0571 Y19.0571 Z-4.5000 F3600.00
G1 X70.4950 Y19.4950 Z-4.5000 F3600.00
G1 X70.5050 Y19.4950 Z-4.5000 F3600.00
G1 X70.9429 Y19.0571 Z-4.5000 F3600.00
G1 X70.5050 Y19.4950 Z-4.5000 F3600.00
G1 X70.5050 Y22.5050 Z-4.5000 F3600.00
G1 X70.9429 Y22.9429 Z-4.5000 F3600.00
G1 X70.5050 Y22.5050 Z-4.5000 F3600.00
G0 X70.5050 Y22.5050 Z5.0000
(Block-name: block)
(Block-expand: 0)
(Block-enable: 1)
G0 X70.5050 Y34.5050 Z5.0000
G0 X70.5050 Y34.5050 Z3.0000
G1 X70.5050 Y34.5050 Z-1.0000 F3600.00
G1 X70.4950 Y34.5050 Z-1.0000 F3600.00
G1 X70.0571 Y34.9429 Z-1.0000 F3600.00
G1 X70.4950 Y34.5050 Z-1.0000 F3600.00
G1 X70.4950 Y31.4950 Z-1.0000 F3600.00
G1 X70.0571 Y31.0571 Z-1.0000 F3600.00
G1 X70.4950 Y31.4950 Z-1.0000 F3600.00
G1 X70.5050 Y31.4950 Z-1.0000 F3600.00
G1 X70.9429 Y31.0571 Z-1.0000 F3600.00
G1 X70.5050 Y31.4950 Z-1.0000 F3600.00
G1 X70.5050 Y34.5050 Z-1.0000 F3600.00
G1 X70.9429 Y34.9429 Z-1.0000 F3600.00
G1 X70.5050 Y34.5050 Z-1.0000 F3600.00
G1 X70.5050 Y34.5050 Z-2.0000 F3600.00
G1 X70.4950 Y34.5050 Z-2.0000 F3600.00
G1 X70.0571 Y34.9429 Z-2.0000 F3600.00
G1 X70.4950 Y34.5050 Z-2.0000 F3600.00
G1 X70.4950 Y31.4950 Z-2.0000 F3600.00
G1 X70.0571 Y31.0571 Z-2.0000 F3600.00
G1 X70.4950 Y31.4950 Z-2.0000 F3600.00
G1 X70.5050 Y31.4950 Z-2.0000 F3600.00
G1 X70.9429 Y31.0571 Z-2.0000 F3600.00
G1 X70.5050 Y31.4950 Z-2.0000 F3600.00
G1 X70.5050 Y34.5050 Z-2.0000 F3600.00
G1 X70.9429 Y34.9429 Z-2.0000 F3600.00
G1 X70.5050 Y34.5050 Z-2.0000 F3600.00
G1 X70.5050 Y34.5050 Z-3.0000 F3600.00
G1 X70.4950 Y34.5050 Z-3.0000 F3600.00
G1 X70.0571 Y34.9429 Z-3.0000 F3600.00
G1 X70.4950 Y34.5050 Z-3.0000 F3600.00
G1 X70.4950 Y31.4950 Z-3.0000 F3600.00
G1 X70.0571 Y31.0571 Z-3.0000 F3600.00
G1 X70.4950 Y31.4950 Z-3.0000 F3600.00
G1 X70.5050 Y31.4950 Z-3.0000 F3600.00
G1 X70.9429 Y31.0571 Z-3.0000 F3600.00
G1 X70.5050 Y31.4950 Z-3.0000 F3600.00
G1 X70.5050 Y34.5050 Z-3.0000 F3600.00
G1 X70.9429 Y34.9429 Z-3.0000 F3600.00
G1 X70.5050 Y34.5050 Z-3.0000 F3600.00
G1 X70.5050 Y34.5050 Z-4.0000 F3600.00
G1 X70.4950 Y34.5050 Z-4.0000 F3600.00
G1 X70.0571 Y34.9429 Z-4.0000 F3600.00
G1 X70.4950 Y34.5050 Z-4.0000 F3600.00
G1 X70.4950 Y31.4950 Z-4.0000 F3600.00
G1 X70.0571 Y31.0571 Z-4.0000 F3600.00
G1 X70.4950 Y31.4950 Z-4.0000 F3600.00
G1 X70.5050 Y31.4950 Z-4.0000 F3600.00
G1 X70.9429 Y31.0571 Z-4.0000 F3600.00
G1 X70.5050 Y31.4950 Z-4.0000 F3600.00
G1 X70.5050 Y34.5050 Z-4.0000 F3600.00
G1 X70.9429 Y34.9429 Z-4.0000 F3600.00
G1 X70.5050 Y34.5050 Z-4.0000 F3600.00
G1 X70.5050 Y34.5050 Z-4.5000 F3600.00
G1 X70.4950 Y34.5050 Z-4.5000 F3600.00
G1 X70.0571 Y34.9429 Z-4.5000 F3600.00
G1 X70.4950 Y34.5050 Z-4.5000 F3600.00
G1 X70.4950 Y31.4950 Z-4.5000 F3600.00
G1 X70.0571 Y31.0571 Z-4.5000 F3600.00
G1 X70.4950 Y31.4950 Z-4.5000 F3600.00
G1 X70.5050 Y31.4950 Z-4.5000 F3600.00
G1 X70.9429 Y31.0571 Z-4.5000 F3600.00
G1 X70.5050 Y31.4950 Z-4.5000 F3600.00
G1 X70.5050 Y34.5050 Z-4.5000 F3600.00
G1 X70.9429 Y34.9429 Z-4.5000 F3600.00
G1 X70.5050 Y34.5050 Z-4.5000 F3600.00
G0 X70.5050 Y34.5050 Z5.0000
(Block-name: block)
(Block-expand: 0)
(Block-enable: 1)
G0 X70.5050 Y46.5050 Z5.0000
G0 X70.5050 Y46.5050 Z3.0000
G1 X70.5050 Y46.5050 Z-1.0000 F3600.00
G1 X70.4950 Y46.5050 Z-1.0000 F3600.00
G1 X70.0571 Y46.9429 Z-1.0000 F3600.00
G1 X70.4950 Y46.5050 Z-1.0000 F3600.00
G1 X70.4950 Y43.4950 Z-1.0000 F3600.00
G1 X70.0571 Y43.0571 Z-1.0000 F3600.00
G1 X70.4950 Y43.4950 Z-1.0000 F3600.00
G1 X70.5050 Y43.4950 Z-1.0000 F3600.00
G1 X70.9429 Y43.0571 Z-1.0000 F3600.00
G1 X70.5050 Y43.4950 Z-1.0000 F3600.00
G1 X70.5050 Y46.5050 Z-1.0000 F3600.00
G1 X70.9429 Y46.9429 Z-1.0000 F3600.00
G1 X70.5050 Y46.5050 Z-1.0000 F3600.00
G1 X70.5050 Y46.5050 Z-2.0000 F3600.00
G1 X70.4950 Y46.5050 Z-2.0000 F3600.00
G1 X70.0571 Y46.9429 Z-2.0000 F3600.00
G1 X70.4950 Y46.5050 Z-2.0000 F3600.00
G1 X70.4950 Y43.4950 Z-2.0000 F3600.00
G1 X70.0571 Y43.0571 Z-2.0000 F3600.00
G1 X70.4950 Y43.4950 Z-2.0000 F3600.00
G1 X70.5050 Y43.4950 Z-2.0000 F3600.00
G1 X70.9429 Y43.0571 Z-2.0000 F3600.00
G1 X70.5050 Y43.4950 Z-2.0000 F3600.00
G1 X70.5050 Y46.5050 Z-2.0000 F3600.00
G1 X70.9429 Y46.9429 Z-2.0000 F3600.00
G1 X70.5050 Y46.5050 Z-2.0000 F3600.00
G1 X70.5050 Y46.5050 Z-3.0000 F3600.00
G1 X70.4950 Y46.5050 Z-3.0000 F3600.00
G1 X70.0571 Y46.9429 Z-3.0000 F3600.00
G1 X70.4950 Y46.5050 Z-3.0000 F3600.00
G1 X70.4950 Y43.4950 Z-3.0000 F3600.00
G1 X70.0571 Y43.0571 Z-3.0000 F3600.00
G1 X70.4950 Y43.4950 Z-3.0000 F3600.00
G1 X70.5050 Y43.4950 Z-3.0000 F3600.00
G1 X70.9429 Y43.0571 Z-3.0000 F3600.00
G1 X70.5050 Y43.4950 Z-3.0000 F3600.00
G1 X70.5050 Y46.5050 Z-3.0000 F3600.00
G1 X70.9429 Y46.9429 Z-3.0000 F3600.00
G1 X70.5050 Y46.5050 Z-3.0000 F3600.00
G1 X70.5050 Y46.5050 Z-4.0000 F3600.00
G1 X70.4950 Y46.5050 Z-4.0000 F3600.00
G1 X70.0571 Y46.9429 Z-4.0000 F3600.00
G1 X70.4950 Y46.5050 Z-4.0000 F3600.00
G1 X70.4950 Y43.4950 Z-4.0000 F3600.00
G1 X70.0571 Y43.0571 Z-4.0000 F3600.00
G1 X70.4950 Y43.4950 Z-4.0000 F3600.00
G1 X70.5050 Y43.4950 Z-4.0000 F3600.00
G1 X70.9429 Y43.0571 Z-4.0000 F3600.00
G1 X70.5050 Y43.4950 Z-4.0000 F3600.00
G1 X70.5050 Y46.5050 Z-4.0000 F3600.00
G1 X70.9429 Y46.9429 Z-4.0000 F3600.00
G1 X70.5050 Y46.5050 Z-4.0000 F3600.00
G1 X70.5050 Y46.5050 Z-4.5000 F3600.00
G1 X70.4950 Y46.5050 Z-4.5000 F3600.00
G1 X70.0571 Y46.9429 Z-4.5000 F3600.00
G1 X70.4950 Y46.5050 Z-4.5000 F3600.00
G1 X70.4950 Y43.4950 Z-4.5000 F3600.00
G1 X70.0571 Y43.0571 Z-4.5000 F3600.00
G1 X70.4950 Y43.4950 Z-4.5000 F3600.00
G1 X70.5050 Y43.4950 Z-4.5000 F3600.00
G1 X70.9429 Y43.0571 Z-4.5000 F3600.00
G1 X70.5050 Y43.4950 Z-4.5000 F3600.00
G1 X70.5050 Y46.5050 Z-4.5000 F3600.00
G1 X70.9429 Y46.9429 Z-4.5000 F3600.00
G1 X70.5050 Y46.5050 Z-4.5000 F3600.00
G0 X70.5050 Y46.5050 Z5.0000
(Block-name: block)
(Block-expand: 0)
(Block-enable: 1)
G0 X70.5050 Y70.5050 Z5.0000
G0 X70.5050 Y70.5050 Z3.0000
G1 X70.5050 Y70.5050 Z-1.0000 F3600.00
G1 X70.4950 Y70.5050 Z-1.0000 F3600.00
G1 X70.0571 Y70.9429 Z-1.0000 F3600.00
G1 X70.4950 Y70.5050 Z-1.0000 F3600.00
G1 X70.4950 Y67.4950 Z-1.0000 F3600.00
G1 X70.0571 Y67.0571 Z-1.0000 F3600.00
G1 X70.4950 Y67.4950 Z-1.0000 F3600.00
G1 X70.5050 Y67.4950 Z-1.0000 F3600.00
G1 X70.9429 Y67.0571 Z-1.0000 F3600.00
G1 X70.5050 Y67.4950 Z-1.0000 F3600.00
G1 X70.5050 Y70.5050 Z-1.0000 F3600.00
G1 X70.9429 Y70.9429 Z-1.0000 F3600.00
G1 X70.5050 Y70.5050 Z-1.0000 F3600.00
G1 X70.5050 Y70.5050 Z-2.0000 F3600.00
G1 X70.4950 Y70.5050 Z-2.0000 F3600.00
G1 X70.0571 Y70.9429 Z-2.0000 F3600.00
G1 X70.4950 Y70.5050 Z-2.0000 F3600.00
G1 X70.4950 Y67.4950 Z-2.0000 F3600.00
G1 X70.0571 Y67.0571 Z-2.0000 F3600.00
G1 X70.4950 Y67.4950 Z-2.0000 F3600.00
G1 X70.5050 Y67.4950 Z-2.0000 F3600.00
G1 X70.9429 Y67.0571 Z-2.0000 F3600.00
G1 X70.5050 Y67.4950 Z-2.0000 F3600.00
G1 X70.5050 Y70.5050 Z-2.0000 F3600.00
G1 X70.9429 Y70.9429 Z-2.0000 F3600.00
G1 X70.5050 Y70.5050 Z-2.0000 F3600.00
G1 X70.5050 Y70.5050 Z-3.0000 F3600.00
G1 X70.4950 Y70.5050 Z-3.0000 F3600.00
G1 X70.0571 Y70.9429 Z-3.0000 F3600.00
G1 X70.4950 Y70.5050 Z-3.0000 F3600.00
G1 X70.4950 Y67.4950 Z-3.0000 F3600.00
G1 X70.0571 Y67.0571 Z-3.0000 F3600.00
G1 X70.4950 Y67.4950 Z-3.0000 F3600.00
G1 X70.5050 Y67.4950 Z-3.0000 F3600.00
G1 X70.9429 Y67.0571 Z-3.0000 F3600.00
G1 X70.5050 Y67.4950 Z-3.0000 F3600.00
G1 X70.5050 Y70.5050 Z-3.0000 F3600.00
G1 X70.9429 Y70.9429 Z-3.0000 F3600.00
G1 X70.5050 Y70.5050 Z-3.0000 F3600.00
G1 X70.5050 Y70.5050 Z-4.0000 F3600.00
G1 X70.4950 Y70.5050 Z-4.0000 F3600.00
G1 X70.0571 Y70.9429 Z-4.0000 F3600.00
G1 X70.4950 Y70.5050 Z-4.0000 F3600.00
G1 X70.4950 Y67.4950 Z-4.0000 F3600.00
G1 X70.0571 Y67.0571 Z-4.0000 F3600.00
G1 X70.4950 Y67.4950 Z-4.0000 F3600.00
G1 X70.5050 Y67.4950 Z-4.0000 F3600.00
G1 X70.9429 Y67.0571 Z-4.0000 F3600.00
G1 X70.5050 Y67.4950 Z-4.0000 F3600.00
G1 X70.5050 Y70.5050 Z-4.0000 F3600.00
G1 X70.9429 Y70.9429 Z-4.0000 F3600.00
G1 X70.5050 Y70.5050 Z-4.0000 F3600.00
G1 X70.5050 Y70.5050 Z-4.5000 F3600.00
G1 X70.4950 Y70.5050 Z-4.5000 F3600.00
G1 X70.0571 Y70.9429 Z-4.5000 F3600.00
G1 X70.4950 Y70.5050 Z-4.5000 F3600.00
G1 X70.4950 Y67.4950 Z-4.5000 F3600.00
G1 X70.0571 Y67.0571 Z-4.5000 F3600.00
G1 X70.4950 Y67.4950 Z-4.5000 F3600.00
G1 X70.5050 Y67.4950 Z-4.5000 F3600.00
G1 X70.9429 Y67.0571 Z-4.5000 F3600.00
G1 X70.5050 Y67.4950 Z-4.5000 F3600.00
G1 X70.5050 Y70.5050 Z-4.5000 F3600.00
G1 X70.9429 Y70.9429 Z-4.5000 F3600.00
G1 X70.5050 Y70.5050 Z-4.5000 F3600.00
G0 X70.5050 Y70.5050 Z5.0000
(Block-name: block)
(Block-expand: 0)
(Block-enable: 1)
G0 X64.5050 Y70.5050 Z5.0000
G0 X64.5050 Y70.5050 Z3.0000
G1 X64.5050 Y70.5050 Z-1.0000 F3600.00
G1 X61.4950 Y70.5050 Z-1.0000 F3600.00
G1 X61.0571 Y70.9429 Z-1.0000 F3600.00
G1 X61.4950 Y70.5050 Z-1.0000 F3600.00
G1 X61.4950 Y70.4950 Z-1.0000 F3600.00
G1 X61.0571 Y70.0571 Z-1.0000 F3600.00
G1 X61.4950 Y70.4950 Z-1.0000 F3600.00
G1 X64.5050 Y70.4950 Z-1.0000 F3600.00
G1 X64.9429 Y70.0571 Z-1.0000 F3600.00
G1 X64.5050 Y70.4950 Z-1.0000 F3600.00
G1 X64.5050 Y70.5050 Z-1.0000 F3600.00
G1 X64.9429 Y70.9429 Z-1.0000 F3600.00
G1 X64.5050 Y70.5050 Z-1.0000 F3600.00
G1 X64.5050 Y70.5050 Z-2.0000 F3600.00
G1 X62.3599 Y70.5050 Z-2.0000 F3600.00
G1 X61.4950 Y70.5050 Z-2.0000 F3600.00
G1 X61.0571 Y70.9429 Z-2.0000 F3600.00
G1 X61.4950 Y70.5050 Z-2.0000 F3600.00
G1 X61.4950 Y70.4950 Z-2.0000 F3600.00
G1 X61.1538 Y70.1538 Z-2.0000 F3600.00
G1 X61.0571 Y70.0571 Z-2.0000 F3600.00
G1 X61.4950 Y70.4950 Z-2.0000 F3600.00
G1 X64.5050 Y70.4950 Z-2.0000 F3600.00
G1 X64.9429 Y70.0571 Z-2.0000 F3600.00
G1 X64.5050 Y70.4950 Z-2.0000 F3600.00
G1 X64.5050 Y70.5050 Z-2.0000 F3600.00
G1 X64.9429 Y70.9429 Z-2.0000 F3600.00
G1 X64.5050 Y70.5050 Z-2.0000 F3600.00
G1 X64.5050 Y70.5050 Z-3.0000 F3600.00
G1 X61.4950 Y70.5050 Z-3.0000 F3600.00
G1 X61.0571 Y70.9429 Z-3.0000 F3600.00
G1 X61.4950 Y70.5050 Z-3.0000 F3600.00
G1 X61.4950 Y70.4950 Z-3.0000 F3600.00
G1 X61.0571 Y70.0571 Z-3.0000 F3600.00
G1 X61.4950 Y70.4950 Z-3.0000 F3600.00
G1 X64.5050 Y70.4950 Z-3.0000 F3600.00
G1 X64.9429 Y70.0571 Z-3.0000 F3600.00
G1 X64.5050 Y70.4950 Z-3.0000 F3600.00
G1 X64.5050 Y70.5050 Z-3.0000 F3600.00
G1 X64.9429 Y70.9429 Z-3.0000 F3600.00
G1 X64.5050 Y70.5050 Z-3.0000 F3600.00
G1 X64.5050 Y70.5050 Z-4.0000 F3600.00
G1 X61.4950 Y70.5050 Z-4.0000 F3600.00
G1 X61.0571 Y70.9429 Z-4.0000 F3600.00
G1 X61.4950 Y70.5050 Z-4.0000 F3600.00
G1 X61.4950 Y70.4950 Z-4.0000 F3600.00
G1 X61.0571 Y70.0571 Z-4.0000 F3600.00
G1 X61.4950 Y70.4950 Z-4.0000 F3600.00
G1 X64.5050 Y70.4950 Z-4.0000 F3600.00
G1 X64.9429 Y70.0571 Z-4.0000 F3600.00
G1 X64.5050 Y70.4950 Z-4.0000 F3600.00
G1 X64.5050 Y70.5050 Z-4.0000 F3600.00
G1 X64.9429 Y70.9429 Z-4.0000 F3600.00
G1 X64.5050 Y70.5050 Z-4.0000 F3600.00
G1 X64.5050 Y70.5050 Z-4.5000 F3600.00
G1 X61.4950 Y70.5050 Z-4.5000 F3600.00
G1 X61.0571 Y70.9429 Z-4.5000 F3600.00
G1 X61.4950 Y70.5050 Z-4.5000 F3600.00
G1 X61.4950 Y70.4950 Z-4.5000 F3600.00
G1 X61.0571 Y70.0571 Z-4.5000 F3600.00
G1 X61.4950 Y70.4950 Z-4.5000 F3600.00
G1 X64.5050 Y70.4950 Z-4.5000 F3600.00
G1 X64.9429 Y70.0571 Z-4.5000 F3600.00
G1 X64.5050 Y70.4950 Z-4.5000 F3600.00
G1 X64.5050 Y70.5050 Z-4.5000 F3600.00
G1 X64.9429 Y70.9429 Z-4.5000 F3600.00
G1 X64.5050 Y70.5050 Z-4.5000 F3600.00
G0 X64.5050 Y70.5050 Z5.0000
(Block-name: block)
(Block-expand: 0)
(Block-enable: 1)
G0 X52.5050 Y70.5050 Z5.0000
G0 X52.5050 Y70.5050 Z3.0000
G1 X52.5050 Y70.5050 Z-1.0000 F3600.00
G1 X49.4950 Y70.5050 Z-1.0000 F3600.00
G1 X49.0571 Y70.9429 Z-1.0000 F3600.00
G1 X49.4950 Y70.5050 Z-1.0000 F3600.00
G1 X49.4950 Y70.4950 Z-1.0000 F3600.00
G1 X49.0571 Y70.0571 Z-1.0000 F3600.00
G1 X49.4950 Y70.4950 Z-1.0000 F3600.00
G1 X52.5050 Y70.4950 Z-1.0000 F3600.00
G1 X52.9429 Y70.0571 Z-1.0000 F3600.00
G1 X52.5050 Y70.4950 Z-1.0000 F3600.00
G1 X52.5050 Y70.5050 Z-1.0000 F3600.00
G1 X52.9429 Y70.9429 Z-1.0000 F3600.00
G1 X52.5050 Y70.5050 Z-1.0000 F3600.00
G1 X52.5050 Y70.5050 Z-2.0000 F3600.00
G1 X49.4950 Y70.5050 Z-2.0000 F3600.00
G1 X49.0571 Y70.9429 Z-2.0000 F3600.00
G1 X49.4950 Y70.5050 Z-2.0000 F3600.00
G1 X49.4950 Y70.4950 Z-2.0000 F3600.00
G1 X49.0571 Y70.0571 Z-2.0000 F3600.00
G1 X49.4950 Y70.4950 Z-2.0000 F3600.00
G1 X52.5050 Y70.4950 Z-2.0000 F3600.00
G1 X52.9429 Y70.0571 Z-2.0000 F3600.00
G1 X52.5050 Y70.4950 Z-2.0000 F3600.00
G1 X52.5050 Y70.5050 Z-2.0000 F3600.00
G1 X52.9429 Y70.9429 Z-2.0000 F3600.00
G1 X52.5050 Y70.5050 Z-2.0000 F3600.00
G1 X52.5050 Y70.5050 Z-3.0000 F3600.00
G1 X49.4950 Y70.5050 Z-3.0000 F3600.00
G1 X49.0571 Y70.9429 Z-3.0000 F3600.00
G1 X49.4950 Y70.5050 Z-3.0000 F3600.00
G1 X49.4950 Y70.4950 Z-3.0000 F3600.00
G1 X49.0571 Y70.0571 Z-3.0000 F3600.00
G1 X49.4950 Y70.4950 Z-3.0000 F3600.00
G1 X52.5050 Y70.4950 Z-3.0000 F3600.00
G1 X52.9429 Y70.0571 Z-3.0000 F3600.00
G1 X52.5050 Y70.4950 Z-3.0000 F3600.00
G1 X52.5050 Y70.5050 Z-3.0000 F3600.00
G1 X52.9429 Y70.9429 Z-3.0000 F3600.00
G1 X52.5050 Y70.5050 Z-3.0000 F3600.00
G1 X52.5050 Y70.5050 Z-4.0000 F3600.00
G1 X49.4950 Y70.5050 Z-4.0000 F3600.00
G1 X49.0571 Y70.9429 Z-4.0000 F3600.00
G1 X49.4950 Y70.5050 Z-4.0000 F3600.00
G1 X49.4950 Y70.4950 Z-4.0000 F3600.00
G1 X49.0571 Y70.0571 Z-4.0000 F3600.00
G1 X49.4950 Y70.4950 Z-4.0000 F3600.00
G1 X52.5050 Y70.4950 Z-4.0000 F3600.00
G1 X52.9429 Y70.0571 Z-4.0000 F3600.00
G1 X52.5050 Y70.4950 Z-4.0000 F3600.00
G1 X52.5050 Y70.5050 Z-4.0000 F3600.00
G1 X52.9429 Y70.9429 Z-4.0000 F3600.00
G1 X52.5050 Y70.5050 Z-4.0000 F3600.00
G1 X52.5050 Y70.5050 Z-4.5000 F3600.00
G1 X49.4950 Y70.5050 Z-4.5000 F3600.00
G1 X49.0571 Y70.9429 Z-4.5000 F3600.00
G1 X49.4950 Y70.5050 Z-4.5000 F3600.00
G1 X49.4950 Y70.4950 Z-4.5000 F3600.00
G1 X49.0571 Y70.0571 Z-4.5000 F3600.00
G1 X49.4950 Y70.4950 Z-4.5000 F3600.00
G1 X52.5050 Y70.4950 Z-4.5000 F3600.00
G1 X52.9429 Y70.0571 Z-4.5000 F3600.00
G1 X52.5050 Y70.4950 Z-4.5000 F3600.00
G1 X52.5050 Y70.5050 Z-4.5000 F3600.00
G1 X52.9429 Y70.9429 Z-4.5000 F3600.00
G1 X52.5050 Y70.5050 Z-4.5000 F3600.00
G0 X52.5050 Y70.5050 Z5.0000
(Block-name: block)
(Block-expand: 0)
(Block-enable: 1)
G0 X40.5050 Y70.5050 Z5.0000
G0 X40.5050 Y70.5050 Z3.0000
G1 X40.5050 Y70.5050 Z-1.0000 F3600.00
G1 X37.4950 Y70.5050 Z-1.0000 F3600.00
G1 X37.0571 Y70.9429 Z-1.0000 F3600.00
G1 X37.4950 Y70.5050 Z-1.0000 F3600.00
G1 X37.4950 Y70.4950 Z-1.0000 F3600.00
G1 X37.0571 Y70.0571 Z-1.0000 F3600.00
G1 X37.4950 Y70.4950 Z-1.0000 F3600.00
G1 X40.5050 Y70.4950 Z-1.0000 F3600.00
G1 X40.9429 Y70.0571 Z-1.0000 F3600.00
G1 X40.5050 Y70.4950 Z-1.0000 F3600.00
G1 X40.5050 Y70.5050 Z-1.0000 F3600.00
G1 X40.9429 Y70.9429 Z-1.0000 F3600.00
G1 X40.5050 Y70.5050 Z-1.0000 F3600.00
G1 X40.5050 Y70.5050 Z-2.0000 F3600.00
G1 X37.4950 Y70.5050 Z-2.0000 F3600.00
G1 X37.0571 Y70.9429 Z-2.0000 F3600.00
G1 X37.4950 Y70.5050 Z-2.0000 F3600.00
G1 X37.4950 Y70.4950 Z-2.0000 F3600.00
G1 X37.0571 Y70.0571 Z-2.0000 F3600.00
G1 X37.4950 Y70.4950 Z-2.0000 F3600.00
G1 X40.5050 Y70.4950 Z-2.0000 F3600.00
G1 X40.9429 Y70.0571 Z-2.0000 F3600.00
G1 X40.5050 Y70.4950 Z-2.0000 F3600.00
G1 X40.5050 Y70.5050 Z-2.0000 F3600.00
G1 X40.9429 Y70.9429 Z-2.0000 F3600.00
G1 X40.5050 Y70.5050 Z-2.0000 F3600.00
G1 X40.5050 Y70.5050 Z-3.0000 F3600.00
G1 X37.4950 Y70.5050 Z-3.0000 F3600.00
G1 X37.0571 Y70.9429 Z-3.0000 F3600.00
G1 X37.4950 Y70.5050 Z-3.0000 F3600.00
G1 X37.4950 Y70.4950 Z-3.0000 F3600.00
G1 X37.0571 Y70.0571 Z-3.0000 F3600.00
G1 X37.4950 Y70.4950 Z-3.0000 F3600.00
G1 X40.5050 Y70.4950 Z-3.0000 F3600.00
G1 X40.9429 Y70.0571 Z-3.0000 F3600.00
G1 X40.5050 Y70.4950 Z-3.0000 F3600.00
G1 X40.5050 Y70.5050 Z-3.0000 F3600.00
G1 X40.9429 Y70.9429 Z-3.0000 F3600.00
G1 X40.5050 Y70.5050 Z-3.0000 F3600.00
G1 X40.5050 Y70.5050 Z-4.0000 F3600.00
G1 X37.4950 Y70.5050 Z-4.0000 F3600.00
G1 X37.0571 Y70.9429 Z-4.0000 F3600.00
G1 X37.4950 Y70.5050 Z-4.0000 F3600.00
G1 X37.4950 Y70.4950 Z-4.0000 F3600.00
G1 X37.0571 Y70.0571 Z-4.0000 F3600.00
G1 X37.4950 Y70.4950 Z-4.0000 F3600.00
G1 X40.5050 Y70.4950 Z-4.0000 F3600.00
G1 X40.9429 Y70.0571 Z-4.0000 F3600.00
G1 X40.5050 Y70.4950 Z-4.0000 F3600.00
G1 X40.5050 Y70.5050 Z-4.0000 F3600.00
G1 X40.9429 Y70.9429 Z-4.0000 F3600.00
G1 X40.5050 Y70.5050 Z-4.0000 F3600.00
G1 X40.5050 Y70.5050 Z-4.5000 F3600.00
G1 X37.4950 Y70.5050 Z-4.5000 F3600.00
G1 X37.0571 Y70.9429 Z-4.5000 F3600.00
G1 X37.4950 Y70.5050 Z-4.5000 F3600.00
G1 X37.4950 Y70.4950 Z-4.5000 F3600.00
G1 X37.0571 Y70.0571 Z-4.5000 F3600.00
G1 X37.4950 Y70.4950 Z-4.5000 F3600.00
G1 X40.5050 Y70.4950 Z-4.5000 F3600.00
G1 X40.9429 Y70.0571 Z-4.5000 F3600.00
G1 X40.5050 Y70.4950 Z-4.5000 F3600.00
G1 X40.5050 Y70.5050 Z-4.5000 F3600.00
G1 X40.9429 Y70.9429 Z-4.5000 F3600.00
G1 X40.5050 Y70.5050 Z-4.5000 F3600.00
G0 X40.5050 Y70.5050 Z5.0000
(Block-name: block)
(Block-expand: 0)
(Block-enable: 1)
G0 X28.5050 Y70.5050 Z5.0000
G0 X28.5050 Y70.5050 Z3.0000
G1 X28.5050 Y70.5050 Z-1.0000 F3600.00
G1 X25.4950 Y70.5050 Z-1.0000 F3600.00
G1 X25.0571 Y70.9429 Z-1.0000 F3600.00
G1 X25.4950 Y70.5050 Z-1.0000 F3600.00
G1 X25.4950 Y70.4950 Z-1.0000 F3600.00
G1 X25.0571 Y70.0571 Z-1.0000 F3600.00
G1 X25.4950 Y70.4950 Z-1.0000 F3600.00
G1 X28.5050 Y70.4950 Z-1.0000 F3600.00
G1 X28.9429 Y70.0571 Z-1.0000 F3600.00
G1 X28.5050 Y70.4950 Z-1.0000 F3600.00
G1 X28.5050 Y70.5050 Z-1.0000 F3600.00
G1 X28.9429 Y70.9429 Z-1.0000 F3600.00
G1 X28.5050 Y70.5050 Z-1.0000 F3600.00
G1 X28.5050 Y70.5050 Z-2.0000 F3600.00
G1 X25.4950 Y70.5050 Z-2.0000 F3600.00
G1 X25.0571 Y70.9429 Z-2.0000 F3600.00
G1 X25.4950 Y70.5050 Z-2.0000 F3600.00
G1 X25.4950 Y70.4950 Z-2.0000 F3600.00
G1 X25.0571 Y70.0571 Z-2.0000 F3600.00
G1 X25.4950 Y70.4950 Z-2.0000 F3600.00
G1 X28.5050 Y70.4950 Z-2.0000 F3600.00
G1 X28.9429 Y70.0571 Z-2.0000 F3600.00
G1 X28.5050 Y70.4950 Z-2.0000 F3600.00
G1 X28.5050 Y70.5050 Z-2.0000 F3600.00
G1 X28.9429 Y70.9429 Z-2.0000 F3600.00
G1 X28.5050 Y70.5050 Z-2.0000 F3600.00
G1 X28.5050 Y70.5050 Z-3.0000 F3600.00
G1 X25.4950 Y70.5050 Z-3.0000 F3600.00
G1 X25.0571 Y70.9429 Z-3.0000 F3600.00
G1 X25.4950 Y70.5050 Z-3.0000 F3600.00
G1 X25.4950 Y70.4950 Z-3.0000 F3600.00
G1 X25.0571 Y70.0571 Z-3.0000 F3600.00
G1 X25.4950 Y70.4950 Z-3.0000 F3600.00
G1 X28.5050 Y70.4950 Z-3.0000 F3600.00
G1 X28.9429 Y70.0571 Z-3.0000 F3600.00
G1 X28.5050 Y70.4950 Z-3.0000 F3600.00
G1 X28.5050 Y70.5050 Z-3.0000 F3600.00
G1 X28.9429 Y70.9429 Z-3.0000 F3600.00
G1 X28.5050 Y70.5050 Z-3.0000 F3600.00
G1 X28.5050 Y70.5050 Z-4.0000 F3600.00
G1 X25.4950 Y70.5050 Z-4.0000 F3600.00
G1 X25.0571 Y70.9429 Z-4.0000 F3600.00
G1 X25.4950 Y70.5050 Z-4.0000 F3600.00
G1 X25.4950 Y70.4950 Z-4.0000 F3600.00
G1 X25.0571 Y70.0571 Z-4.0000 F3600.00
G1 X25.4950 Y70.4950 Z-4.0000 F3600.00
G1 X28.5050 Y70.4950 Z-4.0000 F3600.00
G1 X28.9429 Y70.0571 Z-4.0000 F3600.00
G1 X28.5050 Y70.4950 Z-4.0000 F3600.00
G1 X28.5050 Y70.5050 Z-4.0000 F3600.00
G1 X28.9429 Y70.9429 Z-4.0000 F3600.00
G1 X28.5050 Y70.5050 Z-4.0000 F3600.00
G1 X28.5050 Y70.5050 Z-4.5000 F3600.00
G1 X25.4950 Y70.5050 Z-4.5000 F3600.00
G1 X25.0571 Y70.9429 Z-4.5000 F3600.00
G1 X25.4950 Y70.5050 Z-4.5000 F3600.00
G1 X25.4950 Y70.4950 Z-4.5000 F3600.00
G1 X25.0571 Y70.0571 Z-4.5000 F3600.00
G1 X25.4950 Y70.4950 Z-4.5000 F3600.00
G1 X28.5050 Y70.4950 Z-4.5000 F3600.00
G1 X28.9429 Y70.0571 Z-4.5000 F3600.00
G1 X28.5050 Y70.4950 Z-4.5000 F3600.00
G1 X28.5050 Y70.5050 Z-4.5000 F3600.00
G1 X28.9429 Y70.9429 Z-4.5000 F3600.00
G1 X28.5050 Y70.5050 Z-4.5000 F3600.00
G0 X28.5050 Y70.5050 Z5.0000
(Block-name: block)
(Block-expand: 0)
(Block-enable: 1)
G0 X16.5050 Y70.5050 Z5.0000
G0 X16.5050 Y70.5050 Z3.0000
G1 X16.5050 Y70.5050 Z-1.0000 F3600.00
G1 X13.4950 Y70.5050 Z-1.0000 F3600.00
G1 X13.0571 Y70.9429 Z-1.0000 F3600.00
G1 X13.4950 Y70.5050 Z-1.0000 F3600.00
G1 X13.4950 Y70.4950 Z-1.0000 F3600.00
G1 X13.0571 Y70.0571 Z-1.0000 F3600.00
G1 X13.4950 Y70.4950 Z-1.0000 F3600.00
G1 X16.5050 Y70.4950 Z-1.0000 F3600.00
G1 X16.9429 Y70.0571 Z-1.0000 F3600.00
G1 X16.5050 Y70.4950 Z-1.0000 F3600.00
G1 X16.5050 Y70.5050 Z-1.0000 F3600.00
G1 X16.9429 Y70.9429 Z-1.0000 F3600.00
G1 X16.5050 Y70.5050 Z-1.0000 F3600.00
G1 X16.5050 Y70.5050 Z-2.0000 F3600.00
G1 X13.4950 Y70.5050 Z-2.0000 F3600.00
G1 X13.0571 Y70.9429 Z-2.0000 F3600.00
G1 X13.4950 Y70.5050 Z-2.0000 F3600.00
G1 X13.4950 Y70.4950 Z-2.0000 F3600.00
G1 X13.0571 Y70.0571 Z-2.0000 F3600.00
G1 X13.4950 Y70.4950 Z-2.0000 F3600.00
G1 X16.5050 Y70.4950 Z-2.0000 F3600.00
G1 X16.9429 Y70.0571 Z-2.0000 F3600.00
G1 X16.5050 Y70.4950 Z-2.0000 F3600.00
G1 X16.5050 Y70.5050 Z-2.0000 F3600.00
G1 X16.9429 Y70.9429 Z-2.0000 F3600.00
G1 X16.5050 Y70.5050 Z-2.0000 F3600.00
G1 X16.5050 Y70.5050 Z-3.0000 F3600.00
G1 X13.4950 Y70.5050 Z-3.0000 F3600.00
G1 X13.0571 Y70.9429 Z-3.0000 F3600.00
G1 X13.4950 Y70.5050 Z-3.0000 F3600.00
G1 X13.4950 Y70.4950 Z-3.0000 F3600.00
G1 X13.0571 Y70.0571 Z-3.0000 F3600.00
G1 X13.4950 Y70.4950 Z-3.0000 F3600.00
G1 X16.5050 Y70.4950 Z-3.0000 F3600.00
G1 X16.9429 Y70.0571 Z-3.0000 F3600.00
G1 X16.5050 Y70.4950 Z-3.0000 F3600.00
G1 X16.5050 Y70.5050 Z-3.0000 F3600.00
G1 X16.9429 Y70.9429 Z-3.0000 F3600.00
G1 X16.5050 Y70.5050 Z-3.0000 F3600.00
G1 X16.5050 Y70.5050 Z-4.0000 F3600.00
G1 X13.4950 Y70.5050 Z-4.0000 F3600.00
G1 X13.0571 Y70.9429 Z-4.0000 F3600.00
G1 X13.4950 Y70.5050 Z-4.0000 F3600.00
G1 X13.4950 Y70.4950 Z-4.0000 F3600.00
G1 X13.0571 Y70.0571 Z-4.0000 F3600.00
G1 X13.4950 Y70.4950 Z-4.0000 F3600.00
G1 X16.5050 Y70.4950 Z-4.0000 F3600.00
G1 X16.9429 Y70.0571 Z-4.0000 F3600.00
G1 X16.5050 Y70.4950 Z-4.0000 F3600.00
G1 X16.5050 Y70.5050 Z-4.0000 F3600.00
G1 X16.9429 Y70.9429 Z-4.0000 F3600.00
G1 X16.5050 Y70.5050 Z-4.0000 F3600.00
G1 X16.5050 Y70.5050 Z-4.5000 F3600.00
G1 X13.4950 Y70.5050 Z-4.5000 F3600.00
G1 X13.0571 Y70.9429 Z-4.5000 F3600.00
G1 X13.4950 Y70.5050 Z-4.5000 F3600.00
G1 X13.4950 Y70.4950 Z-4.5000 F3600.00
G1 X13.0571 Y70.0571 Z-4.5000 F3600.00
G1 X13.4950 Y70.4950 Z-4.5000 F3600.00
G1 X16.5050 Y70.4950 Z-4.5000 F3600.00
G1 X16.9429 Y70.0571 Z-4.5000 F3600.00
G1 X16.5050 Y70.4950 Z-4.5000 F3600.00
G1 X16.5050 Y70.5050 Z-4.5000 F3600.00
G1 X16.9429 Y70.9429 Z-4.5000 F3600.00
G1 X16.5050 Y70.5050 Z-4.5000 F3600.00
G0 X16.5050 Y70.5050 Z5.0000
(Block-name: block)
(Block-expand: 0)
(Block-enable: 1)
G0 X4.5050 Y70.5050 Z5.0000
G0 X4.5050 Y70.5050 Z3.0000
G1 X4.5050 Y70.5050 Z-1.0000 F3600.00
G1 X1.4950 Y70.5050 Z-1.0000 F3600.00
G1 X1.0571 Y70.9429 Z-1.0000 F3600.00
G1 X1.4950 Y70.5050 Z-1.0000 F3600.00
G1 X1.4950 Y70.4950 Z-1.0000 F3600.00
G1 X1.0571 Y70.0571 Z-1.0000 F3600.00
G1 X1.4950 Y70.4950 Z-1.0000 F3600.00
G1 X4.5050 Y70.4950 Z-1.0000 F3600.00
G1 X4.9429 Y70.0571 Z-1.0000 F3600.00
G1 X4.5050 Y70.4950 Z-1.0000 F3600.00
G1 X4.5050 Y70.5050 Z-1.0000 F3600.00
G1 X4.9429 Y70.9429 Z-1.0000 F3600.00
G1 X4.5050 Y70.5050 Z-1.0000 F3600.00
G1 X4.5050 Y70.5050 Z-2.0000 F3600.00
G1 X1.4950 Y70.5050 Z-2.0000 F3600.00
G1 X1.0571 Y70.9429 Z-2.0000 F3600.00
G1 X1.4950 Y70.5050 Z-2.0000 F3600.00
G1 X1.4950 Y70.4950 Z-2.0000 F3600.00
G1 X1.0571 Y70.0571 Z-2.0000 F3600.00
G1 X1.4950 Y70.4950 Z-2.0000 F3600.00
G1 X4.5050 Y70.4950 Z-2.0000 F3600.00
G1 X4.9429 Y70.0571 Z-2.0000 F3600.00
G1 X4.5050 Y70.4950 Z-2.0000 F3600.00
G1 X4.5050 Y70.5050 Z-2.0000 F3600.00
G1 X4.9429 Y70.9429 Z-2.0000 F3600.00
G1 X4.5050 Y70.5050 Z-2.0000 F3600.00
G1 X4.5050 Y70.5050 Z-3.0000 F3600.00
G1 X1.4950 Y70.5050 Z-3.0000 F3600.00
G1 X1.0571 Y70.9429 Z-3.0000 F3600.00
G1 X1.4950 Y70.5050 Z-3.0000 F3600.00
G1 X1.4950 Y70.4950 Z-3.0000 F3600.00
G1 X1.0571 Y70.0571 Z-3.0000 F3600.00
G1 X1.4950 Y70.4950 Z-3.0000 F3600.00
G1 X4.5050 Y70.4950 Z-3.0000 F3600.00
G1 X4.9429 Y70.0571 Z-3.0000 F3600.00
G1 X4.5050 Y70.4950 Z-3.0000 F3600.00
G1 X4.5050 Y70.5050 Z-3.0000 F3600.00
G1 X4.9429 Y70.9429 Z-3.0000 F3600.00
G1 X4.5050 Y70.5050 Z-3.0000 F3600.00
G1 X4.5050 Y70.5050 Z-4.0000 F3600.00
G1 X1.4950 Y70.5050 Z-4.0000 F3600.00
G1 X1.0571 Y70.9429 Z-4.0000 F3600.00
G1 X1.4950 Y70.5050 Z-4.0000 F3600.00
G1 X1.4950 Y70.4950 Z-4.0000 F3600.00
G1 X1.0571 Y70.0571 Z-4.0000 F3600.00
G1 X1.4950 Y70.4950 Z-4.0000 F3600.00
G1 X4.5050 Y70.4950 Z-4.0000 F3600.00
G1 X4.9429 Y70.0571 Z-4.0000 F3600.00
G1 X4.5050 Y70.4950 Z-4.0000 F3600.00
G1 X4.5050 Y70.5050 Z-4.0000 F3600.00
G1 X4.9429 Y70.9429 Z-4.0000 F3600.00
G1 X4.5050 Y70.5050 Z-4.0000 F3600.00
G1 X4.5050 Y70.5050 Z-4.5000 F3600.00
G1 X1.4950 Y70.5050 Z-4.5000 F3600.00
G1 X1.0571 Y70.9429 Z-4.5000 F3600.00
G1 X1.4950 Y70.5050 Z-4.5000 F3600.00
G1 X1.4950 Y70.4950 Z-4.5000 F3600.00
G1 X1.0571 Y70.0571 Z-4.5000 F3600.00
G1 X1.4950 Y70.4950 Z-4.5000 F3600.00
G1 X4.5050 Y70.4950 Z-4.5000 F3600.00
G1 X4.9429 Y70.0571 Z-4.5000 F3600.00
G1 X4.5050 Y70.4950 Z-4.5000 F3600.00
G1 X4.5050 Y70.5050 Z-4.5000 F3600.00
G1 X4.9429 Y70.9429 Z-4.5000 F3600.00
G1 X4.5050 Y70.5050 Z-4.5000 F3600.00
G0 X4.5050 Y70.5050 Z5.0000
(Block-name: block)
(Block-expand: 0)
(Block-enable: 1)
G0 X-7.4950 Y70.5050 Z5.0000
G0 X-7.4950 Y70.5050 Z3.0000
G1 X-7.4950 Y70.5050 Z-1.0000 F3600.00
G1 X-10.5050 Y70.5050 Z-1.0000 F3600.00
G1 X-10.9429 Y70.9429 Z-1.0000 F3600.00
G1 X-10.5050 Y70.5050 Z-1.0000 F3600.00
G1 X-10.5050 Y70.4950 Z-1.0000 F3600.00
G1 X-10.9429 Y70.0571 Z-1.0000 F3600.00
G1 X-10.5050 Y70.4950 Z-1.0000 F3600.00
G1 X-7.4950 Y70.4950 Z-1.0000 F3600.00
G1 X-7.0571 Y70.0571 Z-1.0000 F3600.00
G1 X-7.4950 Y70.4950 Z-1.0000 F3600.00
G1 X-7.4950 Y70.5050 Z-1.0000 F3600.00
G1 X-7.0571 Y70.9429 Z-1.0000 F3600.00
G1 X-7.4950 Y70.5050 Z-1.0000 F3600.00
G1 X-7.4950 Y70.5050 Z-2.0000 F3600.00
G1 X-10.5050 Y70.5050 Z-2.0000 F3600.00
G1 X-10.9429 Y70.9429 Z-2.0000 F3600.00
G1 X-10.5050 Y70.5050 Z-2.0000 F3600.00
G1 X-10.5050 Y70.4950 Z-2.0000 F3600.00
G1 X-10.9429 Y70.0571 Z-2.0000 F3600.00
G1 X-10.5050 Y70.4950 Z-2.0000 F3600.00
G1 X-7.4950 Y70.4950 Z-2.0000 F3600.00
G1 X-7.0571 Y70.0571 Z-2.0000 F3600.00
G1 X-7.4950 Y70.4950 Z-2.0000 F3600.00
G1 X-7.4950 Y70.5050 Z-2.0000 F3600.00
G1 X-7.0571 Y70.9429 Z-2.0000 F3600.00
G1 X-7.4950 Y70.5050 Z-2.0000 F3600.00
G1 X-7.4950 Y70.5050 Z-3.0000 F3600.00
G1 X-10.5050 Y70.5050 Z-3.0000 F3600.00
G1 X-10.9429 Y70.9429 Z-3.0000 F3600.00
G1 X-10.5050 Y70.5050 Z-3.0000 F3600.00
G1 X-10.5050 Y70.4950 Z-3.0000 F3600.00
G1 X-10.9429 Y70.0571 Z-3.0000 F3600.00
G1 X-10.5050 Y70.4950 Z-3.0000 F3600.00
G1 X-7.4950 Y70.4950 Z-3.0000 F3600.00
G1 X-7.0571 Y70.0571 Z-3.0000 F3600.00
G1 X-7.4950 Y70.4950 Z-3.0000 F3600.00
G1 X-7.4950 Y70.5050 Z-3.0000 F3600.00
G1 X-7.0571 Y70.9429 Z-3.0000 F3600.00
G1 X-7.4950 Y70.5050 Z-3.0000 F3600.00
G1 X-7.4950 Y70.5050 Z-4.0000 F3600.00
G1 X-10.5050 Y70.5050 Z-4.0000 F3600.00
G1 X-10.9429 Y70.9429 Z-4.0000 F3600.00
G1 X-10.5050 Y70.5050 Z-4.0000 F3600.00
G1 X-10.5050 Y70.4950 Z-4.0000 F3600.00
G1 X-10.9429 Y70.0571 Z-4.0000 F3600.00
G1 X-10.5050 Y70.4950 Z-4.0000 F3600.00
G1 X-7.4950 Y70.4950 Z-4.0000 F3600.00
G1 X-7.0571 Y70.0571 Z-4.0000 F3600.00
G1 X-7.4950 Y70.4950 Z-4.0000 F3600.00
G1 X-7.4950 Y70.5050 Z-4.0000 F3600.00
G1 X-7.4703 Y70.5297 Z-4.0000 F3600.00
G1 X-7.0571 Y70.9429 Z-3.4156 F3600.00
G1 X-7.4950 Y70.5050 Z-4.0000 F3600.00
G1 X-7.4950 Y70.5050 Z-4.0349 F3600.00
G1 X-8.1356 Y70.5050 Z-4.5000 F3600.00
G1 X-10.5050 Y70.5050 Z-4.5000 F3600.00
G1 X-10.9429 Y70.9429 Z-4.5000 F3600.00
G1 X-10.5050 Y70.5050 Z-4.5000 F3600.00
G1 X-10.5050 Y70.4950 Z-4.5000 F3600.00
G1 X-10.9429 Y70.0571 Z-4.5000 F3600.00
G1 X-10.5050 Y70.4950 Z-4.5000 F3600.00
G1 X-8.1266 Y70.4950 Z-4.5000 F3600.00
G1 X-7.4950 Y70.4950 Z-4.5000 F3600.00
G1 X-7.0571 Y70.0571 Z-4.5000 F3600.00
G1 X-7.4950 Y70.4950 Z-4.5000 F3600.00
G1 X-7.4950 Y70.5050 Z-4.5000 F3600.00
G1 X-7.0571 Y70.9429 Z-4.5000 F3600.00
G1 X-7.4950 Y70.5050 Z-4.5000 F3600.00
G1 X-7.4950 Y70.5050 Z-4.0349 F3600.00
G1 X-7.4950 Y70.5050 Z5.0000 F3600.00
G0 X-31.4950 Y70.5050 Z5.0000
G0 X-31.4950 Y70.5050 Z3.0000
G1 X-31.4950 Y70.5050 Z-1.0000 F3600.00
G1 X-34.5050 Y70.5050 Z-1.0000 F3600.00
G1 X-34.9429 Y70.9429 Z-1.0000 F3600.00
G1 X-34.5050 Y70.5050 Z-1.0000 F3600.00
G1 X-34.5050 Y70.4950 Z-1.0000 F3600.00
G1 X-34.9429 Y70.0571 Z-1.0000 F3600.00
G1 X-34.5050 Y70.4950 Z-1.0000 F3600.00
G1 X-31.4950 Y70.4950 Z-1.0000 F3600.00
G1 X-31.0571 Y70.0571 Z-1.0000 F3600.00
G1 X-31.4950 Y70.4950 Z-1.0000 F3600.00
G1 X-31.4950 Y70.5050 Z-1.0000 F3600.00
G1 X-31.0571 Y70.9429 Z-1.0000 F3600.00
G1 X-31.4950 Y70.5050 Z-1.0000 F3600.00
G1 X-31.4950 Y70.5050 Z-2.0000 F3600.00
G1 X-34.5050 Y70.5050 Z-2.0000 F3600.00
G1 X-34.9429 Y70.9429 Z-2.0000 F3600.00
G1 X-34.5050 Y70.5050 Z-2.0000 F3600.00
G1 X-34.5050 Y70.4950 Z-2.0000 F3600.00
G1 X-34.9429 Y70.0571 Z-2.0000 F3600.00
G1 X-34.5050 Y70.4950 Z-2.0000 F3600.00
G1 X-31.4950 Y70.4950 Z-2.0000 F3600.00
G1 X-31.0571 Y70.0571 Z-2.0000 F3600.00
G1 X-31.4950 Y70.4950 Z-2.0000 F3600.00
G1 X-31.4950 Y70.5050 Z-2.0000 F3600.00
G1 X-31.0571 Y70.9429 Z-2.0000 F3600.00
G1 X-31.4950 Y70.5050 Z-2.0000 F3600.00
G1 X-31.4950 Y70.5050 Z-3.0000 F3600.00
G1 X-34.5050 Y70.5050 Z-3.0000 F3600.00
G1 X-34.9429 Y70.9429 Z-3.0000 F3600.00
G1 X-34.5050 Y70.5050 Z-3.0000 F3600.00
G1 X-34.5050 Y70.4950 Z-3.0000 F3600.00
G1 X-34.9429 Y70.0571 Z-3.0000 F3600.00
G1 X-34.5050 Y70.4950 Z-3.0000 F3600.00
G1 X-31.4950 Y70.4950 Z-3.0000 F3600.00
G1 X-31.0571 Y70.0571 Z-3.0000 F3600.00
G1 X-31.4950 Y70.4950 Z-3.0000 F3600.00
G1 X-31.4950 Y70.5050 Z-3.0000 F3600.00
G1 X-31.0571 Y70.9429 Z-3.0000 F3600.00
G1 X-31.4950 Y70.5050 Z-3.0000 F3600.00
G1 X-31.4950 Y70.5050 Z-4.0000 F3600.00
G1 X-34.5050 Y70.5050 Z-4.0000 F3600.00
G1 X-34.9429 Y70.9429 Z-4.0000 F3600.00
G1 X-34.5050 Y70.5050 Z-4.0000 F3600.00
G1 X-34.5050 Y70.4950 Z-4.0000 F3600.00
G1 X-34.9429 Y70.0571 Z-4.0000 F3600.00
G1 X-34.5050 Y70.4950 Z-4.0000 F3600.00
G1 X-31.4950 Y70.4950 Z-4.0000 F3600.00
G1 X-31.0571 Y70.0571 Z-4.0000 F3600.00
G1 X-31.4950 Y70.4950 Z-4.0000 F3600.00
G1 X-31.4950 Y70.5050 Z-4.0000 F3600.00
G1 X-31.0571 Y70.9429 Z-4.0000 F3600.00
G1 X-31.4950 Y70.5050 Z-4.0000 F3600.00
G1 X-31.4950 Y70.5050 Z-4.5000 F3600.00
G1 X-34.5050 Y70.5050 Z-4.5000 F3600.00
G1 X-34.9429 Y70.9429 Z-4.5000 F3600.00
G1 X-34.5050 Y70.5050 Z-4.5000 F3600.00
G1 X-34.5050 Y70.4950 Z-4.5000 F3600.00
G1 X-34.9429 Y70.0571 Z-4.5000 F3600.00
G1 X-34.5050 Y70.4950 Z-4.5000 F3600.00
G1 X-31.4950 Y70.4950 Z-4.5000 F3600.00
G1 X-31.0571 Y70.0571 Z-4.5000 F3600.00
G1 X-31.4950 Y70.4950 Z-4.5000 F3600.00
G1 X-31.4950 Y70.5050 Z-4.5000 F3600.00
G1 X-31.0571 Y70.9429 Z-4.5000 F3600.00
G1 X-31.4950 Y70.5050 Z-4.5000 F3600.00
G0 X-31.4950 Y70.5050 Z5.0000
(Block-name: block)
(Block-expand: 0)
(Block-enable: 1)
G0 X-19.4950 Y70.5050 Z5.0000
G0 X-19.4950 Y70.5050 Z3.0000
G1 X-19.4950 Y70.5050 Z-1.0000 F3600.00
G1 X-22.5050 Y70.5050 Z-1.0000 F3600.00
G1 X-22.9429 Y70.9429 Z-1.0000 F3600.00
G1 X-22.5050 Y70.5050 Z-1.0000 F3600.00
G1 X-22.5050 Y70.4950 Z-1.0000 F3600.00
G1 X-22.9429 Y70.0571 Z-1.0000 F3600.00
G1 X-22.5050 Y70.4950 Z-1.0000 F3600.00
G1 X-19.4950 Y70.4950 Z-1.0000 F3600.00
G1 X-19.0571 Y70.0571 Z-1.0000 F3600.00
G1 X-19.4950 Y70.4950 Z-1.0000 F3600.00
G1 X-19.4950 Y70.5050 Z-1.0000 F3600.00
G1 X-19.0571 Y70.9429 Z-1.0000 F3600.00
G1 X-19.4950 Y70.5050 Z-1.0000 F3600.00
G1 X-19.4950 Y70.5050 Z-2.0000 F3600.00
G1 X-22.5050 Y70.5050 Z-2.0000 F3600.00
G1 X-22.9429 Y70.9429 Z-2.0000 F3600.00
G1 X-22.5050 Y70.5050 Z-2.0000 F3600.00
G1 X-22.5050 Y70.4950 Z-2.0000 F3600.00
G1 X-22.9429 Y70.0571 Z-2.0000 F3600.00
G1 X-22.5050 Y70.4950 Z-2.0000 F3600.00
G1 X-19.4950 Y70.4950 Z-2.0000 F3600.00
G1 X-19.0571 Y70.0571 Z-2.0000 F3600.00
G1 X-19.4950 Y70.4950 Z-2.0000 F3600.00
G1 X-19.4950 Y70.5050 Z-2.0000 F3600.00
G1 X-19.0571 Y70.9429 Z-2.0000 F3600.00
G1 X-19.4950 Y70.5050 Z-2.0000 F3600.00
G1 X-19.4950 Y70.5050 Z-3.0000 F3600.00
G1 X-22.5050 Y70.5050 Z-3.0000 F3600.00
G1 X-22.9429 Y70.9429 Z-3.0000 F3600.00
G1 X-22.5050 Y70.5050 Z-3.0000 F3600.00
G1 X-22.5050 Y70.4950 Z-3.0000 F3600.00
G1 X-22.9429 Y70.0571 Z-3.0000 F3600.00
G1 X-22.5050 Y70.4950 Z-3.0000 F3600.00
G1 X-19.4950 Y70.4950 Z-3.0000 F3600.00
G1 X-19.0571 Y70.0571 Z-3.0000 F3600.00
G1 X-19.4950 Y70.4950 Z-3.0000 F3600.00
G1 X-19.4950 Y70.5050 Z-3.0000 F3600.00
G1 X-19.0571 Y70.9429 Z-3.0000 F3600.00
G1 X-19.4950 Y70.5050 Z-3.0000 F3600.00
G1 X-19.4950 Y70.5050 Z-4.0000 F3600.00
G1 X-22.5050 Y70.5050 Z-4.0000 F3600.00
G1 X-22.9429 Y70.9429 Z-4.0000 F3600.00
G1 X-22.5050 Y70.5050 Z-4.0000 F3600.00
G1 X-22.5050 Y70.4950 Z-4.0000 F3600.00
G1 X-22.9429 Y70.0571 Z-4.0000 F3600.00
G1 X-22.5050 Y70.4950 Z-4.0000 F3600.00
G1 X-19.4950 Y70.4950 Z-4.0000 F3600.00
G1 X-19.0571 Y70.0571 Z-4.0000 F3600.00
G1 X-19.4950 Y70.4950 Z-4.0000 F3600.00
G1 X-19.4950 Y70.5050 Z-4.0000 F3600.00
G1 X-19.0571 Y70.9429 Z-4.0000 F3600.00
G1 X-19.4950 Y70.5050 Z-4.0000 F3600.00
G1 X-19.4950 Y70.5050 Z-4.5000 F3600.00
G1 X-22.5050 Y70.5050 Z-4.5000 F3600.00
G1 X-22.9429 Y70.9429 Z-4.5000 F3600.00
G1 X-22.5050 Y70.5050 Z-4.5000 F3600.00
G1 X-22.5050 Y70.4950 Z-4.5000 F3600.00
G1 X-22.9429 Y70.0571 Z-4.5000 F3600.00
G1 X-22.5050 Y70.4950 Z-4.5000 F3600.00
G1 X-19.4950 Y70.4950 Z-4.5000 F3600.00
G1 X-19.0571 Y70.0571 Z-4.5000 F3600.00
G1 X-19.4950 Y70.4950 Z-4.5000 F3600.00
G1 X-19.4950 Y70.5050 Z-4.5000 F3600.00
G1 X-19.0571 Y70.9429 Z-4.5000 F3600.00
G1 X-19.4950 Y70.5050 Z-4.5000 F3600.00
G0 X-19.4950 Y70.5050 Z5.0000
(Block-name: block)
(Block-expand: 0)
(Block-enable: 1)
G0 X-43.4950 Y70.5050 Z5.0000
G0 X-43.4950 Y70.5050 Z3.0000
G1 X-43.4950 Y70.5050 Z-1.0000 F3600.00
G1 X-46.5050 Y70.5050 Z-1.0000 F3600.00
G1 X-46.9429 Y70.9429 Z-1.0000 F3600.00
G1 X-46.5050 Y70.5050 Z-1.0000 F3600.00
G1 X-46.5050 Y70.4950 Z-1.0000 F3600.00
G1 X-46.9429 Y70.0571 Z-1.0000 F3600.00
G1 X-46.5050 Y70.4950 Z-1.0000 F3600.00
G1 X-43.4950 Y70.4950 Z-1.0000 F3600.00
G1 X-43.0571 Y70.0571 Z-1.0000 F3600.00
G1 X-43.4950 Y70.4950 Z-1.0000 F3600.00
G1 X-43.4950 Y70.5050 Z-1.0000 F3600.00
G1 X-43.0571 Y70.9429 Z-1.0000 F3600.00
G1 X-43.4950 Y70.5050 Z-1.0000 F3600.00
G1 X-43.4950 Y70.5050 Z-2.0000 F3600.00
G1 X-46.5050 Y70.5050 Z-2.0000 F3600.00
G1 X-46.9429 Y70.9429 Z-2.0000 F3600.00
G1 X-46.5050 Y70.5050 Z-2.0000 F3600.00
G1 X-46.5050 Y70.4950 Z-2.0000 F3600.00
G1 X-46.9429 Y70.0571 Z-2.0000 F3600.00
G1 X-46.5050 Y70.4950 Z-2.0000 F3600.00
G1 X-43.4950 Y70.4950 Z-2.0000 F3600.00
G1 X-43.0571 Y70.0571 Z-2.0000 F3600.00
G1 X-43.4950 Y70.4950 Z-2.0000 F3600.00
G1 X-43.4950 Y70.5050 Z-2.0000 F3600.00
G1 X-43.0571 Y70.9429 Z-2.0000 F3600.00
G1 X-43.4950 Y70.5050 Z-2.0000 F3600.00
G1 X-43.4950 Y70.5050 Z-3.0000 F3600.00
G1 X-46.5050 Y70.5050 Z-3.0000 F3600.00
G1 X-46.9429 Y70.9429 Z-3.0000 F3600.00
G1 X-46.5050 Y70.5050 Z-3.0000 F3600.00
G1 X-46.5050 Y70.4950 Z-3.0000 F3600.00
G1 X-46.9429 Y70.0571 Z-3.0000 F3600.00
G1 X-46.5050 Y70.4950 Z-3.0000 F3600.00
G1 X-43.4950 Y70.4950 Z-3.0000 F3600.00
G1 X-43.0571 Y70.0571 Z-3.0000 F3600.00
G1 X-43.4950 Y70.4950 Z-3.0000 F3600.00
G1 X-43.4950 Y70.5050 Z-3.0000 F3600.00
G1 X-43.0571 Y70.9429 Z-3.0000 F3600.00
G1 X-43.4950 Y70.5050 Z-3.0000 F3600.00
G1 X-43.4950 Y70.5050 Z-4.0000 F3600.00
G1 X-46.5050 Y70.5050 Z-4.0000 F3600.00
G1 X-46.9429 Y70.9429 Z-4.0000 F3600.00
G1 X-46.5050 Y70.5050 Z-4.0000 F3600.00
G1 X-46.5050 Y70.4950 Z-4.0000 F3600.00
G1 X-46.9429 Y70.0571 Z-4.0000 F3600.00
G1 X-46.5050 Y70.4950 Z-4.0000 F3600.00
G1 X-43.4950 Y70.4950 Z-4.0000 F3600.00
G1 X-43.0571 Y70.0571 Z-4.0000 F3600.00
G1 X-43.4950 Y70.4950 Z-4.0000 F3600.00
G1 X-43.4950 Y70.5050 Z-4.0000 F3600.00
G1 X-43.0571 Y70.9429 Z-4.0000 F3600.00
G1 X-43.4950 Y70.5050 Z-4.0000 F3600.00
G1 X-43.4950 Y70.5050 Z-4.5000 F3600.00
G1 X-46.5050 Y70.5050 Z-4.5000 F3600.00
G1 X-46.9429 Y70.9429 Z-4.5000 F3600.00
G1 X-46.5050 Y70.5050 Z-4.5000 F3600.00
G1 X-46.5050 Y70.4950 Z-4.5000 F3600.00
G1 X-46.9429 Y70.0571 Z-4.5000 F3600.00
G1 X-46.5050 Y70.4950 Z-4.5000 F3600.00
G1 X-43.4950 Y70.4950 Z-4.5000 F3600.00
G1 X-43.0571 Y70.0571 Z-4.5000 F3600.00
G1 X-43.4950 Y70.4950 Z-4.5000 F3600.00
G1 X-43.4950 Y70.5050 Z-4.5000 F3600.00
G1 X-43.0571 Y70.9429 Z-4.5000 F3600.00
G1 X-43.4950 Y70.5050 Z-4.5000 F3600.00
G0 X-43.4950 Y70.5050 Z5.0000
(Block-name: block)
(Block-expand: 0)
(Block-enable: 1)
G0 X-55.4950 Y70.5050 Z5.0000
G0 X-55.4950 Y70.5050 Z3.0000
G1 X-55.4950 Y70.5050 Z-1.0000 F3600.00
G1 X-58.5050 Y70.5050 Z-1.0000 F3600.00
G1 X-58.9429 Y70.9429 Z-1.0000 F3600.00
G1 X-58.5050 Y70.5050 Z-1.0000 F3600.00
G1 X-58.5050 Y70.4950 Z-1.0000 F3600.00
G1 X-58.9429 Y70.0571 Z-1.0000 F3600.00
G1 X-58.5050 Y70.4950 Z-1.0000 F3600.00
G1 X-55.4950 Y70.4950 Z-1.0000 F3600.00
G1 X-55.0571 Y70.0571 Z-1.0000 F3600.00
G1 X-55.4950 Y70.4950 Z-1.0000 F3600.00
G1 X-55.4950 Y70.5050 Z-1.0000 F3600.00
G1 X-55.0571 Y70.9429 Z-1.0000 F3600.00
G1 X-55.4950 Y70.5050 Z-1.0000 F3600.00
G1 X-55.4950 Y70.5050 Z-1.5518 F3600.00
G1 X-56.1897 Y70.5050 Z-1.5440 F3600.00
G1 X-56.8620 Y70.5050 Z-1.6126 F3600.00
G1 X-57.5624 Y70.5050 Z-1.7611 F3600.00
G1 X-58.3099 Y70.5050 Z-2.0000 F3600.00
G1 X-58.5050 Y70.5050 Z-2.0000 F3600.00
G1 X-58.6550 Y70.6550 Z-2.0000 F3600.00
G1 X-58.9429 Y70.9429 Z-1.8734 F3600.00
G1 X-58.5050 Y70.5050 Z-2.0000 F3600.00
G1 X-58.5050 Y70.4950 Z-2.0000 F3600.00
G1 X-58.9429 Y70.0571 Z-2.0000 F3600.00
G1 X-58.5050 Y70.4950 Z-2.0000 F3600.00
G1 X-58.2847 Y70.4950 Z-2.0000 F3600.00
G1 X-57.5057 Y70.4950 Z-1.7559 F3600.00
G1 X-56.8226 Y70.4950 Z-1.6165 F3600.00
G1 X-56.1578 Y70.4950 Z-1.5526 F3600.00
G1 X-55.4950 Y70.4950 Z-1.5618 F3600.00
G1 X-55.0942 Y70.0942 Z-2.0000 F3600.00
G1 X-55.0571 Y70.0571 Z-2.0000 F3600.00
G1 X-55.0942 Y70.0942 Z-2.0000 F3600.00
G1 X-55.4950 Y70.4950 Z-2.0000 F3600.00
G1 X-55.4950 Y70.5050 Z-2.0000 F3600.00
G1 X-55.0571 Y70.9429 Z-2.0000 F3600.00
G1 X-55.4950 Y70.5050 Z-2.0000 F3600.00
G1 X-55.4950 Y70.5050 Z-3.0000 F3600.00
G1 X-58.5050 Y70.5050 Z-3.0000 F3600.00
G1 X-58.9429 Y70.9429 Z-3.0000 F3600.00
G1 X-58.5050 Y70.5050 Z-3.0000 F3600.00
G1 X-58.5050 Y70.4950 Z-3.0000 F3600.00
G1 X-58.9429 Y70.0571 Z-3.0000 F3600.00
G1 X-58.5050 Y70.4950 Z-3.0000 F3600.00
G1 X-55.4950 Y70.4950 Z-3.0000 F3600.00
G1 X-55.0571 Y70.0571 Z-3.0000 F3600.00
G1 X-55.4950 Y70.4950 Z-3.0000 F3600.00
G1 X-55.4950 Y70.5050 Z-3.0000 F3600.00
G1 X-55.0571 Y70.9429 Z-3.0000 F3600.00
G1 X-55.4950 Y70.5050 Z-3.0000 F3600.00
G1 X-55.4950 Y70.5050 Z-4.0000 F3600.00
G1 X-58.5050 Y70.5050 Z-4.0000 F3600.00
G1 X-58.9429 Y70.9429 Z-4.0000 F3600.00
G1 X-58.5050 Y70.5050 Z-4.0000 F3600.00
G1 X-58.5050 Y70.4950 Z-4.0000 F3600.00
G1 X-58.9429 Y70.0571 Z-4.0000 F3600.00
G1 X-58.5050 Y70.4950 Z-4.0000 F3600.00
G1 X-55.4950 Y70.4950 Z-4.0000 F3600.00
G1 X-55.0571 Y70.0571 Z-4.0000 F3600.00
G1 X-55.4950 Y70.4950 Z-4.0000 F3600.00
G1 X-55.4950 Y70.5050 Z-4.0000 F3600.00
G1 X-55.0571 Y70.9429 Z-4.0000 F3600.00
G1 X-55.4950 Y70.5050 Z-4.0000 F3600.00
G1 X-55.4950 Y70.5050 Z-4.5000 F3600.00
G1 X-58.5050 Y70.5050 Z-4.5000 F3600.00
G1 X-58.9429 Y70.9429 Z-4.5000 F3600.00
G1 X-58.5050 Y70.5050 Z-4.5000 F3600.00
G1 X-58.5050 Y70.4950 Z-4.5000 F3600.00
G1 X-58.9429 Y70.0571 Z-4.5000 F3600.00
G1 X-58.5050 Y70.4950 Z-4.5000 F3600.00
G1 X-55.4950 Y70.4950 Z-4.5000 F3600.00
G1 X-55.0571 Y70.0571 Z-4.5000 F3600.00
G1 X-55.4950 Y70.4950 Z-4.5000 F3600.00
G1 X-55.4950 Y70.5050 Z-4.5000 F3600.00
G1 X-55.0571 Y70.9429 Z-4.5000 F3600.00
G1 X-55.4950 Y70.5050 Z-4.5000 F3600.00
G1 X-55.4950 Y70.5050 Z-1.5518 F3600.00
G1 X-55.4950 Y70.5050 Z5.0000 F3600.00
G0 X-67.4950 Y70.5050 Z5.0000
G0 X-67.4950 Y70.5050 Z3.0000
G1 X-67.4950 Y70.5050 Z-1.0000 F3600.00
G1 X-70.5050 Y70.5050 Z-1.0000 F3600.00
G1 X-70.9429 Y70.9429 Z-1.0000 F3600.00
G1 X-70.5050 Y70.5050 Z-1.0000 F3600.00
G1 X-70.5050 Y70.4950 Z-1.0000 F3600.00
G1 X-70.9429 Y70.0571 Z-1.0000 F3600.00
G1 X-70.5050 Y70.4950 Z-1.0000 F3600.00
G1 X-67.4950 Y70.4950 Z-1.0000 F3600.00
G1 X-67.0571 Y70.0571 Z-1.0000 F3600.00
G1 X-67.4950 Y70.4950 Z-1.0000 F3600.00
G1 X-67.4950 Y70.5050 Z-1.0000 F3600.00
G1 X-67.0571 Y70.9429 Z-1.0000 F3600.00
G1 X-67.4950 Y70.5050 Z-1.0000 F3600.00
G1 X-67.4950 Y70.5050 Z-2.0000 F3600.00
G1 X-70.5050 Y70.5050 Z-2.0000 F3600.00
G1 X-70.9429 Y70.9429 Z-2.0000 F3600.00
G1 X-70.5050 Y70.5050 Z-2.0000 F3600.00
G1 X-70.5050 Y70.4950 Z-2.0000 F3600.00
G1 X-70.9429 Y70.0571 Z-2.0000 F3600.00
G1 X-70.5050 Y70.4950 Z-2.0000 F3600.00
G1 X-67.4950 Y70.4950 Z-2.0000 F3600.00
G1 X-67.0571 Y70.0571 Z-2.0000 F3600.00
G1 X-67.4950 Y70.4950 Z-2.0000 F3600.00
G1 X-67.4950 Y70.5050 Z-2.0000 F3600.00
G1 X-67.0571 Y70.9429 Z-2.0000 F3600.00
G1 X-67.4950 Y70.5050 Z-2.0000 F3600.00
G1 X-67.4950 Y70.5050 Z-3.0000 F3600.00
G1 X-70.5050 Y70.5050 Z-3.0000 F3600.00
G1 X-70.9429 Y70.9429 Z-3.0000 F3600.00
G1 X-70.5050 Y70.5050 Z-3.0000 F3600.00
G1 X-70.5050 Y70.4950 Z-3.0000 F3600.00
G1 X-70.9429 Y70.0571 Z-3.0000 F3600.00
G1 X-70.5050 Y70.4950 Z-3.0000 F3600.00
G1 X-67.4950 Y70.4950 Z-3.0000 F3600.00
G1 X-67.0571 Y70.0571 Z-3.0000 F3600.00
G1 X-67.4950 Y70.4950 Z-3.0000 F3600.00
G1 X-67.4950 Y70.5050 Z-3.0000 F3600.00
G1 X-67.0571 Y70.9429 Z-3.0000 F3600.00
G1 X-67.4950 Y70.5050 Z-3.0000 F3600.00
G1 X-67.4950 Y70.5050 Z-4.0000 F3600.00
G1 X-70.5050 Y70.5050 Z-4.0000 F3600.00
G1 X-70.9429 Y70.9429 Z-4.0000 F3600.00
G1 X-70.5050 Y70.5050 Z-4.0000 F3600.00
G1 X-70.5050 Y70.4950 Z-4.0000 F3600.00
G1 X-70.9429 Y70.0571 Z-4.0000 F3600.00
G1 X-70.5050 Y70.4950 Z-4.0000 F3600.00
G1 X-67.4950 Y70.4950 Z-4.0000 F3600.00
G1 X-67.0571 Y70.0571 Z-4.0000 F3600.00
G1 X-67.4950 Y70.4950 Z-4.0000 F3600.00
G1 X-67.4950 Y70.5050 Z-4.0000 F3600.00
G1 X-67.0571 Y70.9429 Z-4.0000 F3600.00
G1 X-67.4950 Y70.5050 Z-4.0000 F3600.00
G1 X-67.4950 Y70.5050 Z-4.5000 F3600.00
G1 X-70.5050 Y70.5050 Z-4.5000 F3600.00
G1 X-70.9429 Y70.9429 Z-4.5000 F3600.00
G1 X-70.5050 Y70.5050 Z-4.5000 F3600.00
G1 X-70.5050 Y70.4950 Z-4.5000 F3600.00
G1 X-70.9429 Y70.0571 Z-4.5000 F3600.00
G1 X-70.5050 Y70.4950 Z-4.5000 F3600.00
G1 X-67.4950 Y70.4950 Z-4.5000 F3600.00
G1 X-67.0571 Y70.0571 Z-4.5000 F3600.00
G1 X-67.4950 Y70.4950 Z-4.5000 F3600.00
G1 X-67.4950 Y70.5050 Z-4.5000 F3600.00
G1 X-67.0571 Y70.9429 Z-4.5000 F3600.00
