(Exported by FreeCAD)
(Post Processor: PathScripts.post.grbl_post)
(Output Time:2019-01-28 14:36:52.939116)
(begin preamble)
G17 G90
G21
(begin operation: Job)
(Path: Job)
(Profile_Faces)
(Compensated Tool Path. Diameter: 0.9)
G0 Z5.0000
G0 X4.0500 Y1.5500
G0 Z3.0000
G1 X4.0500 Y1.5500 Z-0.2500 F3600.00
G1 X4.0500 Y-1.5500 Z-0.2500 F3600.00
G1 X-4.0500 Y-1.5500 Z-0.2500 F3600.00
G1 X-4.0500 Y1.5500 Z-0.2500 F3600.00
G1 X4.0500 Y1.5500 Z-0.2500 F3600.00
G1 X4.0500 Y1.5500 Z-0.5000 F3600.00
G1 X4.0500 Y-1.5500 Z-0.5000 F3600.00
G1 X-4.0500 Y-1.5500 Z-0.5000 F3600.00
G1 X-4.0500 Y1.5500 Z-0.5000 F3600.00
G1 X4.0500 Y1.5500 Z-0.5000 F3600.00
G1 X4.0500 Y1.5500 Z-0.7500 F3600.00
G1 X4.0500 Y-1.5500 Z-0.7500 F3600.00
G1 X-4.0500 Y-1.5500 Z-0.7500 F3600.00
G1 X-4.0500 Y1.5500 Z-0.7500 F3600.00
G1 X4.0500 Y1.5500 Z-0.7500 F3600.00
G1 X4.0500 Y1.5500 Z-1.0000 F3600.00
G1 X4.0500 Y-1.5500 Z-1.0000 F3600.00
G1 X-4.0500 Y-1.5500 Z-1.0000 F3600.00
G1 X-4.0500 Y1.5500 Z-1.0000 F3600.00
G1 X4.0500 Y1.5500 Z-1.0000 F3600.00
G1 X4.0500 Y1.5500 Z-1.2500 F3600.00
G1 X4.0500 Y-1.5500 Z-1.2500 F3600.00
G1 X-4.0500 Y-1.5500 Z-1.2500 F3600.00
G1 X-4.0500 Y1.5500 Z-1.2500 F3600.00
G1 X4.0500 Y1.5500 Z-1.2500 F3600.00
G1 X4.0500 Y1.5500 Z-1.5000 F3600.00
G1 X4.0500 Y-1.5500 Z-1.5000 F3600.00
G1 X-4.0500 Y-1.5500 Z-1.5000 F3600.00
G1 X-4.0500 Y1.5500 Z-1.5000 F3600.00
G1 X4.0500 Y1.5500 Z-1.5000 F3600.00
G1 X4.0500 Y1.5500 Z-1.7500 F3600.00
G1 X4.0500 Y-1.5500 Z-1.7500 F3600.00
G1 X-4.0500 Y-1.5500 Z-1.7500 F3600.00
G1 X-4.0500 Y1.5500 Z-1.7500 F3600.00
G1 X4.0500 Y1.5500 Z-1.7500 F3600.00
G1 X4.0500 Y1.5500 Z-2.0000 F3600.00
G1 X4.0500 Y-1.5500 Z-2.0000 F3600.00
G1 X-4.0500 Y-1.5500 Z-2.0000 F3600.00
G1 X-4.0500 Y1.5500 Z-2.0000 F3600.00
G1 X4.0500 Y1.5500 Z-2.0000 F3600.00
G1 X4.0500 Y1.5500 Z-2.2500 F3600.00
G1 X4.0500 Y-1.5500 Z-2.2500 F3600.00
G1 X-4.0500 Y-1.5500 Z-2.2500 F3600.00
G1 X-4.0500 Y1.5500 Z-2.2500 F3600.00
G1 X4.0500 Y1.5500 Z-2.2500 F3600.00
G1 X4.0500 Y1.5500 Z-2.5000 F3600.00
G1 X4.0500 Y-1.5500 Z-2.5000 F3600.00
G1 X-4.0500 Y-1.5500 Z-2.5000 F3600.00
G1 X-4.0500 Y1.5500 Z-2.5000 F3600.00
G1 X4.0500 Y1.5500 Z-2.5000 F3600.00
G1 X4.0500 Y1.5500 Z-2.7500 F3600.00
G1 X4.0500 Y-1.5500 Z-2.7500 F3600.00
G1 X-4.0500 Y-1.5500 Z-2.7500 F3600.00
G1 X-4.0500 Y1.5500 Z-2.7500 F3600.00
G1 X4.0500 Y1.5500 Z-2.7500 F3600.00
G1 X4.0500 Y1.5500 Z-3.0000 F3600.00
G1 X4.0500 Y-1.5500 Z-3.0000 F3600.00
G1 X-4.0500 Y-1.5500 Z-3.0000 F3600.00
G1 X-4.0500 Y1.5500 Z-3.0000 F3600.00
G1 X4.0500 Y1.5500 Z-3.0000 F3600.00
G1 X4.0500 Y1.5500 Z-3.2500 F3600.00
G1 X4.0500 Y-1.5500 Z-3.2500 F3600.00
G1 X-4.0500 Y-1.5500 Z-3.2500 F3600.00
G1 X-4.0500 Y1.5500 Z-3.2500 F3600.00
G1 X4.0500 Y1.5500 Z-3.2500 F3600.00
G1 X4.0500 Y1.5500 Z-3.5000 F3600.00
G1 X4.0500 Y-1.5500 Z-3.5000 F3600.00
G1 X-4.0500 Y-1.5500 Z-3.5000 F3600.00
G1 X-4.0500 Y1.5500 Z-3.5000 F3600.00
G1 X4.0500 Y1.5500 Z-3.5000 F3600.00
G1 X4.0500 Y1.5500 Z-3.7500 F3600.00
G1 X4.0500 Y-1.5500 Z-3.7500 F3600.00
G1 X-4.0500 Y-1.5500 Z-3.7500 F3600.00
G1 X-4.0500 Y1.5500 Z-3.7500 F3600.00
G1 X4.0500 Y1.5500 Z-3.7500 F3600.00
G1 X4.0500 Y1.5500 Z-4.0000 F3600.00
G1 X4.0500 Y-1.5500 Z-4.0000 F3600.00
G1 X-4.0500 Y-1.5500 Z-4.0000 F3600.00
G1 X-4.0500 Y1.5500 Z-4.0000 F3600.00
G1 X4.0500 Y1.5500 Z-4.0000 F3600.00
G0 Z5.0000
(finish operation: Job)
(begin postamble)
M5
G17 G90
; M2
